; G-Code generated by Simplify3D(R) Version 4.0.0
; Jul 27, 2017 at 11:02:56 AM
; Settings Summary
;   processName,Black 30% Left
;   applyToModels,back-panel
;   profileName,Default (modified)
;   profileVersion,2015-05-01 08:00:00
;   baseProfile,
;   printMaterial,PLA
;   printQuality,Medium
;   printExtruders,Left Extruder Only
;   extruderName,Right Extruder,Left Extruder
;   extruderToolheadNumber,0,1
;   extruderDiameter,0.4,0.4
;   extruderAutoWidth,0,0
;   extruderWidth,0.4,0.4
;   extrusionMultiplier,0.9,0.97
;   extruderUseRetract,1,1
;   extruderRetractionDistance,1,1
;   extruderExtraRestartDistance,0,0
;   extruderRetractionZLift,0,0
;   extruderRetractionSpeed,1200,1200
;   extruderUseCoasting,0,0
;   extruderCoastingDistance,0.2,0.2
;   extruderUseWipe,0,0
;   extruderWipeDistance,5,5
;   primaryExtruder,1
;   layerHeight,0.2
;   topSolidLayers,3
;   bottomSolidLayers,3
;   perimeterOutlines,2
;   printPerimetersInsideOut,1
;   startPointOption,2
;   startPointOriginX,0
;   startPointOriginY,0
;   sequentialIslands,0
;   spiralVaseMode,0
;   firstLayerHeightPercentage,90
;   firstLayerWidthPercentage,100
;   firstLayerUnderspeed,0.5
;   useRaft,0
;   raftExtruder,1
;   raftTopLayers,3
;   raftBaseLayers,2
;   raftOffset,3
;   raftSeparationDistance,0.14
;   raftTopInfill,100
;   aboveRaftSpeedMultiplier,0.3
;   useSkirt,0
;   skirtExtruder,1
;   skirtLayers,1
;   skirtOutlines,2
;   skirtOffset,4
;   usePrimePillar,0
;   primePillarExtruder,999
;   primePillarWidth,12
;   primePillarLocation,7
;   primePillarSpeedMultiplier,1
;   useOozeShield,0
;   oozeShieldExtruder,999
;   oozeShieldOffset,2
;   oozeShieldOutlines,1
;   oozeShieldSidewallShape,1
;   oozeShieldSidewallAngle,30
;   oozeShieldSpeedMultiplier,1
;   infillExtruder,1
;   internalInfillPattern,Rectilinear
;   externalInfillPattern,Rectilinear
;   infillPercentage,30
;   outlineOverlapPercentage,20
;   infillExtrusionWidthPercentage,100
;   minInfillLength,5
;   infillLayerInterval,1
;   internalInfillAngles,45,-45
;   overlapInternalInfillAngles,0
;   externalInfillAngles,45,-45
;   generateSupport,0
;   supportExtruder,1
;   supportInfillPercentage,30
;   supportExtraInflation,0
;   supportBaseLayers,0
;   denseSupportExtruder,1
;   denseSupportLayers,0
;   denseSupportInfillPercentage,70
;   supportLayerInterval,1
;   supportHorizontalPartOffset,0.3
;   supportUpperSeparationLayers,1
;   supportLowerSeparationLayers,1
;   supportType,0
;   supportGridSpacing,4
;   maxOverhangAngle,45
;   supportAngles,0
;   temperatureName,Right Extruder,Left Extruder,Heated Build Platform
;   temperatureNumber,0,1,0
;   temperatureSetpointCount,1,1,1
;   temperatureSetpointLayers,1,1,1
;   temperatureSetpointTemperatures,0,210,55
;   temperatureStabilizeAtStartup,0,0,0
;   temperatureHeatedBed,0,0,1
;   temperatureRelayBetweenLayers,0,0,0
;   temperatureRelayBetweenLoops,0,0,0
;   fanLayers,1,2
;   fanSpeeds,0,100
;   blipFanToFullPower,0
;   adjustSpeedForCooling,1
;   minSpeedLayerTime,15
;   minCoolingSpeedSlowdown,20
;   increaseFanForCooling,0
;   minFanLayerTime,45
;   maxCoolingFanSpeed,100
;   increaseFanForBridging,1
;   bridgingFanSpeed,100
;   use5D,1
;   relativeEdistances,1
;   allowEaxisZeroing,0
;   independentExtruderAxes,1
;   includeM10123,0
;   stickySupport,1
;   applyToolheadOffsets,0
;   gcodeXoffset,0
;   gcodeYoffset,0
;   gcodeZoffset,0
;   overrideMachineDefinition,1
;   machineTypeOverride,0
;   strokeXoverride,225
;   strokeYoverride,145
;   strokeZoverride,150
;   originOffsetXoverride,112.5
;   originOffsetYoverride,72.5
;   originOffsetZoverride,0
;   homeXdirOverride,1
;   homeYdirOverride,1
;   homeZdirOverride,-1
;   flipXoverride,1
;   flipYoverride,-1
;   flipZoverride,1
;   toolheadOffsets,0,0|34,0|0,0|0,0|0,0|0,0
;   overrideFirmwareConfiguration,1
;   firmwareTypeOverride,MakerBot/Sailfish Firmware
;   GPXconfigOverride,r1d
;   baudRateOverride,115200
;   overridePrinterModels,1
;   printerModelsOverride,FlashForge_CreatorPro.stl
;   startingGcode,; **** Replicator 1 dual start.gcode ****,M73 P0 ; enable build progress,G162 X Y F3000 ; home XY maximum,G161 Z F1200 ; home Z minimum,G92 Z-5 ; set Z to -5,G1 Z0 ; move Z to 0,G161 Z F100 ; home Z slowly,M132 X Y Z A B ; recall home offsets,M135 T0 ; load right extruder offsets,G1 X150 Y-70 Z30 F9000 ; move to wait position right hand side of the table,G130 X20 Y20 Z20 A20 B20 ; lower stepper Vrefs while heating,M126 S[fan_speed_pwm],M140 S[bed0_temperature] T0,M134 T0 ; stabilize bed temperature,M104 S[extruder1_temperature] T1,M133 T1 ; stabilize left extruder temperature,G130 X127 Y127 Z40 A127 B127 ; default stepper Vrefs,G92 A0 B0 ; zero extruders,G1 Z0.4 ; position nozzle,M135 T1 ; left tool,G1 X110 Y-70 E30 F300 ; move nozzle,G1 X120 Y-70 Z0.15 F1200 ; slow wipe,G1 X110 Y-70 Z0.5 F1200 ; lift,G92 A0 B0 ; zero extruders,M73 P1 ;@body (notify GPX body has started),; **** end of start.gcode ****
;   layerChangeGcode,
;   retractionGcode,
;   toolChangeGcode,
;   endingGcode,; **** Replicator 1 dual end.gcode ****,M73 P100 ; end build progress,G1 Z150 F1000 ; send Z axis to bottom of machine,M140 S0 T0 ; cool down HBP,M104 S0 T0 ; cool down right extruder,M104 S0 T1 ; cool down left extruder,M127 ; stop blower fan,G162 X Y F3000 ; home XY maximum,M18 ; disable stepper,M72 P1 ; play Ta-Da song,; **** end of end.gcode ****
;   exportFileFormat,x3g
;   celebration,0
;   celebrationSong,Random Song
;   postProcessing,
;   defaultSpeed,3600
;   outlineUnderspeed,0.5
;   solidInfillUnderspeed,0.8
;   supportUnderspeed,0.8
;   rapidXYspeed,4200
;   rapidZspeed,1200
;   minBridgingArea,50
;   bridgingExtraInflation,0
;   bridgingExtrusionMultiplier,1
;   bridgingSpeedMultiplier,0.8
;   useFixedBridgingAngle,0
;   fixedBridgingAngle,0
;   applyBridgingToPerimeters,0
;   filamentDiameters,1.75|1.75|1.75|1.75|1.75|1.75
;   filamentPricesPerKg,25|25|25|25|25|25
;   filamentDensities,1.25|1.25|1.25|1.25|1.25|1.25
;   useMinPrintHeight,0
;   minPrintHeight,0
;   useMaxPrintHeight,0
;   maxPrintHeight,0
;   useDiaphragm,0
;   diaphragmLayerInterval,20
;   robustSlicing,1
;   mergeAllIntoSolid,0
;   onlyRetractWhenCrossingOutline,1
;   retractBetweenLayers,1
;   useRetractionMinTravel,0
;   retractionMinTravel,3
;   retractWhileWiping,0
;   onlyWipeOutlines,1
;   avoidCrossingOutline,0
;   maxMovementDetourFactor,3
;   toolChangeRetractionDistance,12
;   toolChangeExtraRestartDistance,-0.5
;   toolChangeRetractionSpeed,600
;   externalThinWallType,0
;   internalThinWallType,2
;   thinWallAllowedOverlapPercentage,10
;   singleExtrusionMinLength,1
;   singleExtrusionMinPrintingWidthPercentage,50
;   singleExtrusionMaxPrintingWidthPercentage,200
;   singleExtrusionEndpointExtension,0.2
;   horizontalSizeCompensation,0
G90
M83
; **** Replicator 1 dual start.gcode ****
M73 P0 ; enable build progress
G162 X Y F3000 ; home XY maximum
G161 Z F1200 ; home Z minimum
G92 Z-5 ; set Z to -5
G1 Z0 ; move Z to 0
G161 Z F100 ; home Z slowly
M132 X Y Z A B ; recall home offsets
M135 T0 ; load right extruder offsets
G1 X150 Y-70 Z30 F9000 ; move to wait position right hand side of the table
G130 X20 Y20 Z20 A20 B20 ; lower stepper Vrefs while heating
M127
M140 S55 T0
M134 T0 ; stabilize bed temperature
M104 S210 T1
M133 T1 ; stabilize left extruder temperature
G130 X127 Y127 Z40 A127 B127 ; default stepper Vrefs
G92 A0 B0 ; zero extruders
G1 Z0.4 ; position nozzle
M135 T1 ; left tool
G1 X110 Y-70 E30 F300 ; move nozzle
G1 X120 Y-70 Z0.15 F1200 ; slow wipe
G1 X110 Y-70 Z0.5 F1200 ; lift
G92 A0 B0 ; zero extruders
M73 P1 ;@body (notify GPX body has started)
; **** end of start.gcode ****
G1 E-1.0000 F1200
G1 Z0.180 F1200
; process Black 30% Left
; layer 1, Z = 0.180
M135 T1
; tool H0.200 W0.400
; inner perimeter
G1 X101.000 Y38.616 F4200
G1 E1.0000 F360
G1 X-101.000 Y38.616 E6.5170 F1350
G1 X-101.000 Y-38.668 E2.4934
G1 X101.000 Y-38.668 E6.5170
G1 X101.000 Y38.616 E2.4934
; outer perimeter
G1 X101.400 Y39.016 F4200
G1 X-101.400 Y39.016 E6.5428 F900
G1 X-101.400 Y-39.068 E2.5192
G1 X101.400 Y-39.068 E6.5428
G1 X101.400 Y39.016 E2.5192
; inner perimeter
G1 X97.818 Y28.854 F4200
G1 X98.120 Y28.718 E0.0107 F1350
G1 X98.412 Y28.551 E0.0109
G1 X98.688 Y28.352 E0.0110
G1 X98.945 Y28.126 E0.0110
G1 X99.176 Y27.874 E0.0110
G1 X99.381 Y27.602 E0.0110
G1 X99.555 Y27.312 E0.0109
G1 X99.699 Y27.005 E0.0110
G1 X99.811 Y26.690 E0.0108
G1 X99.889 Y26.373 E0.0105
G1 X99.935 Y26.057 E0.0103
G1 X99.950 Y25.719 E0.0109
G1 X99.939 Y25.451 E0.0087
G1 X99.896 Y25.131 E0.0104
G1 X99.825 Y24.822 E0.0102
G1 X99.721 Y24.514 E0.0105
G1 X99.586 Y24.212 E0.0107
G1 X99.419 Y23.920 E0.0109
G1 X99.220 Y23.644 E0.0110
G1 X98.994 Y23.387 E0.0110
G1 X98.742 Y23.156 E0.0110
G1 X98.470 Y22.951 E0.0110
G1 X98.180 Y22.777 E0.0109
G1 X97.873 Y22.633 E0.0110
G1 X97.558 Y22.521 E0.0108
G1 X97.241 Y22.443 E0.0105
G1 X96.925 Y22.397 E0.0103
G1 X96.587 Y22.382 E0.0109
G1 X96.319 Y22.393 E0.0087
G1 X95.999 Y22.436 E0.0104
G1 X95.689 Y22.507 E0.0102
G1 X95.382 Y22.611 E0.0105
G1 X95.080 Y22.746 E0.0107
G1 X94.788 Y22.914 E0.0109
G1 X94.512 Y23.112 E0.0110
G1 X94.256 Y23.338 E0.0110
G1 X94.023 Y23.590 E0.0110
G1 X93.819 Y23.862 E0.0110
G1 X93.645 Y24.152 E0.0109
G1 X93.501 Y24.459 E0.0110
G1 X93.389 Y24.774 E0.0108
G1 X93.311 Y25.092 E0.0105
G1 X93.265 Y25.407 E0.0103
G1 X93.250 Y25.745 E0.0109
G1 X93.261 Y26.013 E0.0087
G1 X93.304 Y26.334 E0.0104
G1 X93.375 Y26.643 E0.0102
G1 X93.479 Y26.950 E0.0105
G1 X93.614 Y27.252 E0.0107
G1 X93.781 Y27.544 E0.0109
G1 X93.980 Y27.820 E0.0110
G1 X94.206 Y28.077 E0.0110
G1 X94.458 Y28.309 E0.0110
G1 X94.730 Y28.513 E0.0110
G1 X95.020 Y28.687 E0.0109
G1 X95.327 Y28.832 E0.0110
G1 X95.642 Y28.943 E0.0108
G1 X95.959 Y29.021 E0.0105
G1 X96.275 Y29.067 E0.0103
G1 X96.613 Y29.082 E0.0109
G1 X96.881 Y29.071 E0.0087
G1 X97.201 Y29.028 E0.0104
G1 X97.511 Y28.957 E0.0102
G1 X97.818 Y28.854 E0.0105
; outer perimeter
G1 X97.672 Y28.481 F4200
G1 X97.938 Y28.361 E0.0094 F900
G1 X98.195 Y28.214 E0.0096
G1 X98.439 Y28.039 E0.0097
G1 X98.664 Y27.840 E0.0097
G1 X98.869 Y27.618 E0.0097
G1 X99.048 Y27.378 E0.0097
G1 X99.201 Y27.124 E0.0096
G1 X99.329 Y26.853 E0.0097
G1 X99.427 Y26.575 E0.0095
G1 X99.496 Y26.296 E0.0093
G1 X99.536 Y26.019 E0.0090
G1 X99.550 Y25.719 E0.0097
G1 X99.540 Y25.486 E0.0075
G1 X99.502 Y25.202 E0.0092
G1 X99.439 Y24.931 E0.0090
G1 X99.348 Y24.660 E0.0092
G1 X99.229 Y24.394 E0.0094
G1 X99.082 Y24.137 E0.0096
G1 X98.907 Y23.893 E0.0097
G1 X98.708 Y23.668 E0.0097
G1 X98.486 Y23.464 E0.0097
G1 X98.246 Y23.284 E0.0097
G1 X97.992 Y23.131 E0.0096
G1 X97.721 Y23.003 E0.0097
G1 X97.443 Y22.905 E0.0095
G1 X97.164 Y22.836 E0.0093
G1 X96.887 Y22.796 E0.0090
G1 X96.587 Y22.782 E0.0097
G1 X96.354 Y22.792 E0.0075
G1 X96.070 Y22.830 E0.0092
G1 X95.798 Y22.893 E0.0090
G1 X95.528 Y22.984 E0.0092
G1 X95.262 Y23.103 E0.0094
G1 X95.005 Y23.250 E0.0096
G1 X94.761 Y23.425 E0.0097
G1 X94.536 Y23.624 E0.0097
G1 X94.331 Y23.846 E0.0097
G1 X94.152 Y24.086 E0.0097
G1 X93.999 Y24.341 E0.0096
G1 X93.871 Y24.611 E0.0097
G1 X93.773 Y24.889 E0.0095
G1 X93.704 Y25.168 E0.0093
G1 X93.664 Y25.445 E0.0090
G1 X93.650 Y25.745 E0.0097
G1 X93.660 Y25.978 E0.0075
G1 X93.698 Y26.262 E0.0092
G1 X93.761 Y26.534 E0.0090
G1 X93.852 Y26.804 E0.0092
G1 X93.971 Y27.070 E0.0094
G1 X94.118 Y27.327 E0.0096
G1 X94.293 Y27.571 E0.0097
G1 X94.492 Y27.796 E0.0097
G1 X94.714 Y28.001 E0.0097
G1 X94.954 Y28.180 E0.0097
G1 X95.208 Y28.334 E0.0096
G1 X95.479 Y28.461 E0.0097
G1 X95.757 Y28.559 E0.0095
G1 X96.036 Y28.628 E0.0093
G1 X96.313 Y28.668 E0.0090
G1 X96.613 Y28.682 E0.0097
G1 X96.846 Y28.672 E0.0075
G1 X97.130 Y28.634 E0.0092
G1 X97.402 Y28.571 E0.0090
G1 X97.672 Y28.481 E0.0092
G1 E-1.0000 F1200
; inner perimeter
G1 X96.613 Y-14.918 F4200
G1 E1.0000 F1200
G1 X96.881 Y-14.929 E0.0087 F1350
G1 X97.201 Y-14.972 E0.0104
G1 X97.511 Y-15.043 E0.0102
G1 X97.818 Y-15.146 E0.0105
G1 X98.120 Y-15.282 E0.0107
G1 X98.412 Y-15.449 E0.0109
G1 X98.688 Y-15.648 E0.0110
G1 X98.945 Y-15.874 E0.0110
G1 X99.176 Y-16.126 E0.0110
G1 X99.381 Y-16.398 E0.0110
G1 X99.555 Y-16.688 E0.0109
G1 X99.699 Y-16.995 E0.0110
G1 X99.811 Y-17.310 E0.0108
G1 X99.889 Y-17.627 E0.0105
G1 X99.935 Y-17.942 E0.0103
G1 X99.951 Y-18.266 E0.0105
G1 X99.939 Y-18.549 E0.0091
G1 X99.896 Y-18.869 E0.0104
G1 X99.825 Y-19.178 E0.0102
G1 X99.721 Y-19.486 E0.0105
G1 X99.586 Y-19.788 E0.0107
G1 X99.419 Y-20.080 E0.0109
G1 X99.220 Y-20.356 E0.0110
G1 X98.994 Y-20.613 E0.0110
G1 X98.742 Y-20.844 E0.0110
G1 X98.470 Y-21.049 E0.0110
G1 X98.180 Y-21.223 E0.0109
G1 X97.873 Y-21.367 E0.0110
G1 X97.558 Y-21.479 E0.0108
G1 X97.241 Y-21.557 E0.0105
G1 X96.925 Y-21.603 E0.0103
G1 X96.587 Y-21.618 E0.0109
G1 X96.319 Y-21.607 E0.0087
G1 X95.999 Y-21.564 E0.0104
G1 X95.689 Y-21.493 E0.0102
G1 X95.382 Y-21.389 E0.0105
G1 X95.080 Y-21.254 E0.0107
G1 X94.788 Y-21.087 E0.0108
G1 X94.512 Y-20.888 E0.0110
G1 X94.255 Y-20.662 E0.0110
G1 X94.024 Y-20.410 E0.0110
G1 X93.819 Y-20.138 E0.0110
G1 X93.645 Y-19.848 E0.0109
G1 X93.501 Y-19.541 E0.0110
G1 X93.389 Y-19.226 E0.0108
G1 X93.311 Y-18.908 E0.0105
G1 X93.265 Y-18.593 E0.0103
G1 X93.250 Y-18.255 E0.0109
G1 X93.260 Y-18.002 E0.0082
G1 X93.304 Y-17.667 E0.0109
G1 X93.375 Y-17.357 E0.0103
G1 X93.479 Y-17.050 E0.0105
G1 X93.614 Y-16.748 E0.0107
G1 X93.781 Y-16.456 E0.0109
G1 X93.980 Y-16.180 E0.0110
G1 X94.206 Y-15.923 E0.0110
G1 X94.458 Y-15.691 E0.0110
G1 X94.730 Y-15.487 E0.0110
G1 X95.020 Y-15.313 E0.0109
G1 X95.327 Y-15.168 E0.0110
G1 X95.642 Y-15.057 E0.0108
G1 X95.959 Y-14.979 E0.0105
G1 X96.275 Y-14.933 E0.0103
G1 X96.613 Y-14.918 E0.0109
; outer perimeter
G1 X96.613 Y-15.318 F4200
G1 X96.846 Y-15.328 E0.0075 F900
G1 X97.130 Y-15.366 E0.0092
G1 X97.402 Y-15.429 E0.0090
G1 X97.672 Y-15.519 E0.0092
G1 X97.938 Y-15.639 E0.0094
G1 X98.195 Y-15.786 E0.0096
G1 X98.439 Y-15.961 E0.0097
G1 X98.664 Y-16.160 E0.0097
G1 X98.869 Y-16.382 E0.0097
G1 X99.048 Y-16.622 E0.0097
G1 X99.201 Y-16.876 E0.0096
G1 X99.329 Y-17.147 E0.0097
G1 X99.427 Y-17.425 E0.0095
G1 X99.496 Y-17.704 E0.0093
G1 X99.536 Y-17.981 E0.0090
G1 X99.550 Y-18.267 E0.0093
G1 X99.540 Y-18.514 E0.0080
G1 X99.502 Y-18.798 E0.0092
G1 X99.439 Y-19.069 E0.0090
G1 X99.348 Y-19.340 E0.0092
G1 X99.229 Y-19.606 E0.0094
G1 X99.082 Y-19.863 E0.0096
G1 X98.907 Y-20.107 E0.0097
G1 X98.708 Y-20.332 E0.0097
G1 X98.486 Y-20.536 E0.0097
G1 X98.246 Y-20.716 E0.0097
G1 X97.992 Y-20.869 E0.0096
G1 X97.721 Y-20.997 E0.0097
G1 X97.443 Y-21.095 E0.0095
G1 X97.164 Y-21.164 E0.0093
G1 X96.887 Y-21.204 E0.0090
G1 X96.587 Y-21.218 E0.0097
G1 X96.354 Y-21.208 E0.0075
G1 X96.070 Y-21.170 E0.0092
G1 X95.798 Y-21.107 E0.0090
G1 X95.528 Y-21.016 E0.0092
G1 X95.262 Y-20.897 E0.0094
G1 X95.005 Y-20.750 E0.0096
G1 X94.761 Y-20.575 E0.0097
G1 X94.536 Y-20.376 E0.0097
G1 X94.331 Y-20.154 E0.0097
G1 X94.152 Y-19.914 E0.0097
G1 X93.999 Y-19.659 E0.0096
G1 X93.871 Y-19.389 E0.0097
G1 X93.773 Y-19.111 E0.0095
G1 X93.704 Y-18.832 E0.0093
G1 X93.664 Y-18.555 E0.0090
G1 X93.650 Y-18.255 E0.0097
G1 X93.659 Y-18.036 E0.0071
G1 X93.698 Y-17.738 E0.0097
G1 X93.761 Y-17.466 E0.0090
G1 X93.852 Y-17.196 E0.0092
G1 X93.971 Y-16.929 E0.0094
G1 X94.118 Y-16.673 E0.0096
G1 X94.293 Y-16.429 E0.0097
G1 X94.492 Y-16.204 E0.0097
G1 X94.714 Y-15.999 E0.0097
G1 X94.954 Y-15.820 E0.0097
G1 X95.208 Y-15.666 E0.0096
G1 X95.479 Y-15.539 E0.0097
G1 X95.757 Y-15.441 E0.0095
G1 X96.036 Y-15.372 E0.0093
G1 X96.313 Y-15.332 E0.0090
G1 X96.613 Y-15.318 E0.0097
; inner perimeter
G1 X-38.124 Y-19.766 F4200
G1 X-38.136 Y-20.049 E0.0091 F1350
G1 X-38.179 Y-20.369 E0.0104
G1 X-38.250 Y-20.678 E0.0102
G1 X-38.354 Y-20.986 E0.0105
G1 X-38.489 Y-21.288 E0.0107
G1 X-38.656 Y-21.580 E0.0109
G1 X-38.855 Y-21.856 E0.0110
G1 X-39.081 Y-22.112 E0.0110
G1 X-39.333 Y-22.344 E0.0110
G1 X-39.605 Y-22.549 E0.0110
G1 X-39.895 Y-22.723 E0.0109
G1 X-40.202 Y-22.867 E0.0110
G1 X-40.517 Y-22.979 E0.0108
G1 X-40.834 Y-23.057 E0.0105
G1 X-41.150 Y-23.103 E0.0103
G1 X-41.488 Y-23.118 E0.0109
G1 X-41.756 Y-23.107 E0.0087
G1 X-42.076 Y-23.064 E0.0104
G1 X-42.386 Y-22.993 E0.0102
