; G-Code generated by Simplify3D(R) Version 4.0.0
; Jul 27, 2017 at 11:01:38 AM
; Settings Summary
;   processName,Black 30% Left
;   applyToModels,back-bottom
;   profileName,Default (modified)
;   profileVersion,2015-05-01 08:00:00
;   baseProfile,
;   printMaterial,PLA
;   printQuality,Medium
;   printExtruders,Left Extruder Only
;   extruderName,Right Extruder,Left Extruder
;   extruderToolheadNumber,0,1
;   extruderDiameter,0.4,0.4
;   extruderAutoWidth,0,0
;   extruderWidth,0.4,0.4
;   extrusionMultiplier,0.9,0.97
;   extruderUseRetract,1,1
;   extruderRetractionDistance,1,1
;   extruderExtraRestartDistance,0,0
;   extruderRetractionZLift,0,0
;   extruderRetractionSpeed,1200,1200
;   extruderUseCoasting,0,0
;   extruderCoastingDistance,0.2,0.2
;   extruderUseWipe,0,0
;   extruderWipeDistance,5,5
;   primaryExtruder,1
;   layerHeight,0.2
;   topSolidLayers,3
;   bottomSolidLayers,3
;   perimeterOutlines,2
;   printPerimetersInsideOut,1
;   startPointOption,2
;   startPointOriginX,0
;   startPointOriginY,0
;   sequentialIslands,0
;   spiralVaseMode,0
;   firstLayerHeightPercentage,90
;   firstLayerWidthPercentage,100
;   firstLayerUnderspeed,0.5
;   useRaft,0
;   raftExtruder,1
;   raftTopLayers,3
;   raftBaseLayers,2
;   raftOffset,3
;   raftSeparationDistance,0.14
;   raftTopInfill,100
;   aboveRaftSpeedMultiplier,0.3
;   useSkirt,0
;   skirtExtruder,1
;   skirtLayers,1
;   skirtOutlines,2
;   skirtOffset,4
;   usePrimePillar,0
;   primePillarExtruder,999
;   primePillarWidth,12
;   primePillarLocation,7
;   primePillarSpeedMultiplier,1
;   useOozeShield,0
;   oozeShieldExtruder,999
;   oozeShieldOffset,2
;   oozeShieldOutlines,1
;   oozeShieldSidewallShape,1
;   oozeShieldSidewallAngle,30
;   oozeShieldSpeedMultiplier,1
;   infillExtruder,1
;   internalInfillPattern,Rectilinear
;   externalInfillPattern,Rectilinear
;   infillPercentage,30
;   outlineOverlapPercentage,20
;   infillExtrusionWidthPercentage,100
;   minInfillLength,5
;   infillLayerInterval,1
;   internalInfillAngles,45,-45
;   overlapInternalInfillAngles,0
;   externalInfillAngles,45,-45
;   generateSupport,0
;   supportExtruder,1
;   supportInfillPercentage,30
;   supportExtraInflation,0
;   supportBaseLayers,0
;   denseSupportExtruder,1
;   denseSupportLayers,0
;   denseSupportInfillPercentage,70
;   supportLayerInterval,1
;   supportHorizontalPartOffset,0.3
;   supportUpperSeparationLayers,1
;   supportLowerSeparationLayers,1
;   supportType,0
;   supportGridSpacing,4
;   maxOverhangAngle,45
;   supportAngles,0
;   temperatureName,Right Extruder,Left Extruder,Heated Build Platform
;   temperatureNumber,0,1,0
;   temperatureSetpointCount,1,1,1
;   temperatureSetpointLayers,1,1,1
;   temperatureSetpointTemperatures,0,210,55
;   temperatureStabilizeAtStartup,0,0,0
;   temperatureHeatedBed,0,0,1
;   temperatureRelayBetweenLayers,0,0,0
;   temperatureRelayBetweenLoops,0,0,0
;   fanLayers,1,2
;   fanSpeeds,0,100
;   blipFanToFullPower,0
;   adjustSpeedForCooling,1
;   minSpeedLayerTime,15
;   minCoolingSpeedSlowdown,20
;   increaseFanForCooling,0
;   minFanLayerTime,45
;   maxCoolingFanSpeed,100
;   increaseFanForBridging,1
;   bridgingFanSpeed,100
;   use5D,1
;   relativeEdistances,1
;   allowEaxisZeroing,0
;   independentExtruderAxes,1
;   includeM10123,0
;   stickySupport,1
;   applyToolheadOffsets,0
;   gcodeXoffset,0
;   gcodeYoffset,0
;   gcodeZoffset,0
;   overrideMachineDefinition,1
;   machineTypeOverride,0
;   strokeXoverride,225
;   strokeYoverride,145
;   strokeZoverride,150
;   originOffsetXoverride,112.5
;   originOffsetYoverride,72.5
;   originOffsetZoverride,0
;   homeXdirOverride,1
;   homeYdirOverride,1
;   homeZdirOverride,-1
;   flipXoverride,1
;   flipYoverride,-1
;   flipZoverride,1
;   toolheadOffsets,0,0|34,0|0,0|0,0|0,0|0,0
;   overrideFirmwareConfiguration,1
;   firmwareTypeOverride,MakerBot/Sailfish Firmware
;   GPXconfigOverride,r1d
;   baudRateOverride,115200
;   overridePrinterModels,1
;   printerModelsOverride,FlashForge_CreatorPro.stl
;   startingGcode,; **** Replicator 1 dual start.gcode ****,M73 P0 ; enable build progress,G162 X Y F3000 ; home XY maximum,G161 Z F1200 ; home Z minimum,G92 Z-5 ; set Z to -5,G1 Z0 ; move Z to 0,G161 Z F100 ; home Z slowly,M132 X Y Z A B ; recall home offsets,M135 T0 ; load right extruder offsets,G1 X150 Y-70 Z30 F9000 ; move to wait position right hand side of the table,G130 X20 Y20 Z20 A20 B20 ; lower stepper Vrefs while heating,M126 S[fan_speed_pwm],M140 S[bed0_temperature] T0,M134 T0 ; stabilize bed temperature,M104 S[extruder1_temperature] T1,M133 T1 ; stabilize left extruder temperature,G130 X127 Y127 Z40 A127 B127 ; default stepper Vrefs,G92 A0 B0 ; zero extruders,G1 Z0.4 ; position nozzle,M135 T1 ; left tool,G1 X110 Y-70 E30 F300 ; move nozzle,G1 X120 Y-70 Z0.15 F1200 ; slow wipe,G1 X110 Y-70 Z0.5 F1200 ; lift,G92 A0 B0 ; zero extruders,M73 P1 ;@body (notify GPX body has started),; **** end of start.gcode ****
;   layerChangeGcode,
;   retractionGcode,
;   toolChangeGcode,
;   endingGcode,; **** Replicator 1 dual end.gcode ****,M73 P100 ; end build progress,G1 Z150 F1000 ; send Z axis to bottom of machine,M140 S0 T0 ; cool down HBP,M104 S0 T0 ; cool down right extruder,M104 S0 T1 ; cool down left extruder,M127 ; stop blower fan,G162 X Y F3000 ; home XY maximum,M18 ; disable stepper,M72 P1 ; play Ta-Da song,; **** end of end.gcode ****
;   exportFileFormat,x3g
;   celebration,0
;   celebrationSong,Random Song
;   postProcessing,
;   defaultSpeed,3600
;   outlineUnderspeed,0.5
;   solidInfillUnderspeed,0.8
;   supportUnderspeed,0.8
;   rapidXYspeed,4200
;   rapidZspeed,1200
;   minBridgingArea,50
;   bridgingExtraInflation,0
;   bridgingExtrusionMultiplier,1
;   bridgingSpeedMultiplier,0.8
;   useFixedBridgingAngle,0
;   fixedBridgingAngle,0
;   applyBridgingToPerimeters,0
;   filamentDiameters,1.75|1.75|1.75|1.75|1.75|1.75
;   filamentPricesPerKg,25|25|25|25|25|25
;   filamentDensities,1.25|1.25|1.25|1.25|1.25|1.25
;   useMinPrintHeight,0
;   minPrintHeight,0
;   useMaxPrintHeight,0
;   maxPrintHeight,0
;   useDiaphragm,0
;   diaphragmLayerInterval,20
;   robustSlicing,1
;   mergeAllIntoSolid,0
;   onlyRetractWhenCrossingOutline,1
;   retractBetweenLayers,1
;   useRetractionMinTravel,0
;   retractionMinTravel,3
;   retractWhileWiping,0
;   onlyWipeOutlines,1
;   avoidCrossingOutline,0
;   maxMovementDetourFactor,3
;   toolChangeRetractionDistance,12
;   toolChangeExtraRestartDistance,-0.5
;   toolChangeRetractionSpeed,600
;   externalThinWallType,0
;   internalThinWallType,2
;   thinWallAllowedOverlapPercentage,10
;   singleExtrusionMinLength,1
;   singleExtrusionMinPrintingWidthPercentage,50
;   singleExtrusionMaxPrintingWidthPercentage,200
;   singleExtrusionEndpointExtension,0.2
;   horizontalSizeCompensation,0
G90
M83
; **** Replicator 1 dual start.gcode ****
M73 P0 ; enable build progress
G162 X Y F3000 ; home XY maximum
G161 Z F1200 ; home Z minimum
G92 Z-5 ; set Z to -5
G1 Z0 ; move Z to 0
G161 Z F100 ; home Z slowly
M132 X Y Z A B ; recall home offsets
M135 T0 ; load right extruder offsets
G1 X150 Y-70 Z30 F9000 ; move to wait position right hand side of the table
G130 X20 Y20 Z20 A20 B20 ; lower stepper Vrefs while heating
M127
M140 S55 T0
M134 T0 ; stabilize bed temperature
M104 S210 T1
M133 T1 ; stabilize left extruder temperature
G130 X127 Y127 Z40 A127 B127 ; default stepper Vrefs
G92 A0 B0 ; zero extruders
G1 Z0.4 ; position nozzle
M135 T1 ; left tool
G1 X110 Y-70 E30 F300 ; move nozzle
G1 X120 Y-70 Z0.15 F1200 ; slow wipe
G1 X110 Y-70 Z0.5 F1200 ; lift
G92 A0 B0 ; zero extruders
M73 P1 ;@body (notify GPX body has started)
; **** end of start.gcode ****
G1 E-1.0000 F1200
G1 Z0.180 F1200
; process Black 30% Left
; layer 1, Z = 0.180
M135 T1
; tool H0.200 W0.400
; inner perimeter
G1 X101.000 Y35.041 F4200
G1 E1.0000 F360
G1 X-101.000 Y35.041 E6.5170 F1350
G1 X-101.000 Y-35.041 E2.2610
G1 X101.000 Y-35.041 E6.5170
G1 X101.000 Y35.041 E2.2610
; outer perimeter
G1 X101.400 Y35.441 F4200
G1 X-101.400 Y35.441 E6.5428 F900
G1 X-101.400 Y-35.441 E2.2868
G1 X101.400 Y-35.441 E6.5428
G1 X101.400 Y35.441 E2.2868
; inner perimeter
G1 X97.394 Y22.695 F4200
G1 X97.788 Y22.496 E0.0142 F1350
G1 X98.143 Y22.213 E0.0146
G1 X98.444 Y21.848 E0.0153
G1 X98.648 Y21.452 E0.0144
G1 X98.766 Y21.043 E0.0137
G1 X98.803 Y20.641 E0.0130
G1 X98.765 Y20.238 E0.0131
G1 X98.653 Y19.843 E0.0132
G1 X98.431 Y19.418 E0.0155
G1 X98.170 Y19.096 E0.0134
G1 X97.807 Y18.797 E0.0152
G1 X97.411 Y18.593 E0.0144
G1 X97.002 Y18.475 E0.0137
G1 X96.600 Y18.438 E0.0130
G1 X96.197 Y18.476 E0.0131
G1 X95.806 Y18.587 E0.0131
G1 X95.412 Y18.786 E0.0142
G1 X95.057 Y19.069 E0.0146
G1 X94.756 Y19.434 E0.0153
G1 X94.552 Y19.830 E0.0144
G1 X94.434 Y20.239 E0.0137
G1 X94.397 Y20.641 E0.0130
G1 X94.435 Y21.045 E0.0131
G1 X94.546 Y21.435 E0.0131
G1 X94.745 Y21.829 E0.0142
G1 X95.028 Y22.184 E0.0146
G1 X95.393 Y22.485 E0.0153
G1 X95.789 Y22.689 E0.0144
G1 X96.198 Y22.807 E0.0137
G1 X96.600 Y22.844 E0.0130
G1 X97.004 Y22.806 E0.0131
G1 X97.394 Y22.695 E0.0131
; outer perimeter
G1 X97.248 Y22.321 F4200
G1 X97.571 Y22.157 E0.0117 F900
G1 X97.861 Y21.926 E0.0120
G1 X98.108 Y21.626 E0.0125
G1 X98.275 Y21.303 E0.0117
G1 X98.371 Y20.969 E0.0112
G1 X98.401 Y20.641 E0.0106
G1 X98.370 Y20.311 E0.0107
G1 X98.279 Y19.992 E0.0107
G1 X98.095 Y19.639 E0.0128
G1 X97.885 Y19.380 E0.0108
G1 X97.585 Y19.133 E0.0125
G1 X97.262 Y18.966 E0.0117
G1 X96.928 Y18.870 E0.0112
G1 X96.600 Y18.840 E0.0106
G1 X96.270 Y18.871 E0.0107
G1 X95.952 Y18.961 E0.0107
G1 X95.629 Y19.125 E0.0117
G1 X95.339 Y19.356 E0.0120
G1 X95.092 Y19.656 E0.0125
G1 X94.925 Y19.979 E0.0117
G1 X94.829 Y20.313 E0.0112
G1 X94.799 Y20.641 E0.0106
G1 X94.830 Y20.971 E0.0107
G1 X94.920 Y21.289 E0.0107
G1 X95.084 Y21.612 E0.0117
G1 X95.315 Y21.902 E0.0120
G1 X95.615 Y22.149 E0.0125
G1 X95.938 Y22.316 E0.0117
G1 X96.272 Y22.412 E0.0112
G1 X96.600 Y22.442 E0.0106
G1 X96.930 Y22.411 E0.0107
G1 X97.248 Y22.321 E0.0107
; inner perimeter
G1 X78.653 Y29.843 F4200
G1 X78.431 Y29.418 E0.0155 F1350
G1 X78.170 Y29.096 E0.0134
G1 X77.807 Y28.797 E0.0152
G1 X77.411 Y28.593 E0.0144
G1 X77.002 Y28.475 E0.0137
G1 X76.600 Y28.438 E0.0130
G1 X76.197 Y28.476 E0.0131
G1 X75.806 Y28.587 E0.0131
G1 X75.412 Y28.786 E0.0142
G1 X75.057 Y29.069 E0.0146
G1 X74.756 Y29.434 E0.0153
G1 X74.552 Y29.830 E0.0144
G1 X74.434 Y30.239 E0.0137
G1 X74.397 Y30.641 E0.0130
G1 X74.435 Y31.044 E0.0131
G1 X74.547 Y31.439 E0.0132
G1 X74.769 Y31.864 E0.0155
G1 X75.030 Y32.186 E0.0134
G1 X75.393 Y32.485 E0.0152
G1 X75.789 Y32.689 E0.0144
G1 X76.198 Y32.807 E0.0137
G1 X76.600 Y32.844 E0.0130
G1 X77.004 Y32.806 E0.0131
G1 X77.394 Y32.695 E0.0131
G1 X77.788 Y32.496 E0.0142
G1 X78.143 Y32.213 E0.0146
G1 X78.444 Y31.848 E0.0153
G1 X78.648 Y31.452 E0.0144
G1 X78.766 Y31.043 E0.0137
G1 X78.803 Y30.641 E0.0130
G1 X78.765 Y30.238 E0.0131
G1 X78.653 Y29.843 E0.0132
; outer perimeter
G1 X78.279 Y29.992 F4200
G1 X78.095 Y29.639 E0.0128 F900
G1 X77.885 Y29.380 E0.0108
G1 X77.585 Y29.133 E0.0125
G1 X77.262 Y28.966 E0.0117
G1 X76.928 Y28.870 E0.0112
G1 X76.600 Y28.840 E0.0106
G1 X76.270 Y28.871 E0.0107
G1 X75.952 Y28.961 E0.0107
G1 X75.629 Y29.125 E0.0117
G1 X75.339 Y29.356 E0.0120
G1 X75.092 Y29.656 E0.0125
G1 X74.925 Y29.979 E0.0117
G1 X74.829 Y30.313 E0.0112
G1 X74.799 Y30.641 E0.0106
G1 X74.830 Y30.971 E0.0107
G1 X74.921 Y31.290 E0.0107
G1 X75.105 Y31.643 E0.0128
G1 X75.315 Y31.902 E0.0108
G1 X75.615 Y32.149 E0.0125
G1 X75.938 Y32.316 E0.0117
G1 X76.272 Y32.412 E0.0112
G1 X76.600 Y32.442 E0.0106
G1 X76.930 Y32.411 E0.0107
G1 X77.248 Y32.321 E0.0107
G1 X77.571 Y32.157 E0.0117
G1 X77.861 Y31.926 E0.0120
G1 X78.108 Y31.626 E0.0125
G1 X78.275 Y31.303 E0.0117
G1 X78.371 Y30.969 E0.0112
G1 X78.401 Y30.641 E0.0106
G1 X78.370 Y30.311 E0.0107
G1 X78.279 Y29.992 E0.0107
; inner perimeter
G1 X95.789 Y-18.593 F4200
G1 X96.198 Y-18.475 E0.0137 F1350
G1 X96.600 Y-18.438 E0.0130
G1 X97.003 Y-18.476 E0.0131
G1 X97.394 Y-18.587 E0.0131
G1 X97.788 Y-18.786 E0.0142
G1 X98.143 Y-19.069 E0.0146
G1 X98.444 Y-19.434 E0.0153
G1 X98.648 Y-19.830 E0.0144
G1 X98.766 Y-20.239 E0.0137
G1 X98.803 Y-20.641 E0.0130
G1 X98.765 Y-21.044 E0.0131
G1 X98.653 Y-21.439 E0.0132
G1 X98.431 Y-21.864 E0.0155
G1 X98.170 Y-22.186 E0.0134
G1 X97.807 Y-22.485 E0.0152
G1 X97.411 Y-22.689 E0.0144
G1 X97.002 Y-22.807 E0.0137
G1 X96.600 Y-22.844 E0.0130
G1 X96.196 Y-22.806 E0.0131
G1 X95.806 Y-22.695 E0.0131
G1 X95.412 Y-22.496 E0.0142
G1 X95.057 Y-22.213 E0.0146
G1 X94.756 Y-21.848 E0.0153
G1 X94.552 Y-21.452 E0.0144
G1 X94.434 Y-21.043 E0.0137
G1 X94.397 Y-20.641 E0.0130
G1 X94.435 Y-20.237 E0.0131
G1 X94.546 Y-19.847 E0.0131
G1 X94.745 Y-19.453 E0.0142
G1 X95.028 Y-19.098 E0.0146
G1 X95.393 Y-18.797 E0.0153
G1 X95.789 Y-18.593 E0.0144
; outer perimeter
G1 X95.938 Y-18.966 F4200
G1 X96.272 Y-18.870 E0.0112 F900
G1 X96.600 Y-18.840 E0.0106
G1 X96.930 Y-18.871 E0.0107
G1 X97.248 Y-18.961 E0.0107
G1 X97.571 Y-19.125 E0.0117
G1 X97.861 Y-19.356 E0.0120
G1 X98.108 Y-19.656 E0.0125
G1 X98.275 Y-19.979 E0.0117
G1 X98.371 Y-20.313 E0.0112
G1 X98.401 Y-20.641 E0.0106
G1 X98.370 Y-20.971 E0.0107
G1 X98.279 Y-21.290 E0.0107
G1 X98.095 Y-21.643 E0.0128
G1 X97.885 Y-21.902 E0.0108
G1 X97.585 Y-22.149 E0.0125
G1 X97.262 Y-22.316 E0.0117
G1 X96.928 Y-22.412 E0.0112
G1 X96.600 Y-22.442 E0.0106
G1 X96.270 Y-22.411 E0.0107
G1 X95.952 Y-22.321 E0.0107
G1 X95.629 Y-22.157 E0.0117
G1 X95.339 Y-21.926 E0.0120
G1 X95.092 Y-21.626 E0.0125
G1 X94.925 Y-21.303 E0.0117
G1 X94.829 Y-20.969 E0.0112
G1 X94.799 Y-20.641 E0.0106
G1 X94.830 Y-20.311 E0.0107
G1 X94.920 Y-19.993 E0.0107
G1 X95.084 Y-19.670 E0.0117
G1 X95.315 Y-19.380 E0.0120
G1 X95.615 Y-19.133 E0.0125
G1 X95.938 Y-18.966 E0.0117
G1 E-1.0000 F1200
; inner perimeter
G1 X87.823 Y-28.810 F4200
G1 E1.0000 F1200
G1 X88.145 Y-29.071 E0.0134 F1350
G1 X88.444 Y-29.434 E0.0152
G1 X88.648 Y-29.830 E0.0144
G1 X88.766 Y-30.239 E0.0137
G1 X88.803 Y-30.641 E0.0130
G1 X88.765 Y-31.044 E0.0131
G1 X88.653 Y-31.439 E0.0132
G1 X88.431 Y-31.864 E0.0155
G1 X88.170 Y-32.186 E0.0134
G1 X87.807 Y-32.485 E0.0152
G1 X87.411 Y-32.689 E0.0144
G1 X87.003 Y-32.806 E0.0137
G1 X86.618 Y-32.843 E0.0125
G1 X86.198 Y-32.807 E0.0136
G1 X85.806 Y-32.695 E0.0132
G1 X85.412 Y-32.496 E0.0142
G1 X85.057 Y-32.213 E0.0146
G1 X84.756 Y-31.848 E0.0153
G1 X84.552 Y-31.452 E0.0144
G1 X84.434 Y-31.043 E0.0137
G1 X84.397 Y-30.641 E0.0130
G1 X84.435 Y-30.237 E0.0131
G1 X84.547 Y-29.843 E0.0132
G1 X84.769 Y-29.418 E0.0155
G1 X85.030 Y-29.096 E0.0134
G1 X85.393 Y-28.797 E0.0152
G1 X85.789 Y-28.593 E0.0144
G1 X86.198 Y-28.475 E0.0137
G1 X86.600 Y-28.438 E0.0130
G1 X87.003 Y-28.476 E0.0131
G1 X87.398 Y-28.588 E0.0132
G1 X87.823 Y-28.810 E0.0155
; outer perimeter
G1 X87.602 Y-29.146 F4200
G1 X87.861 Y-29.356 E0.0108 F900
G1 X88.108 Y-29.656 E0.0125
G1 X88.275 Y-29.979 E0.0117
G1 X88.371 Y-30.313 E0.0112
G1 X88.401 Y-30.641 E0.0106
G1 X88.370 Y-30.971 E0.0107
G1 X88.279 Y-31.290 E0.0107
G1 X88.095 Y-31.643 E0.0128
G1 X87.885 Y-31.902 E0.0108
G1 X87.585 Y-32.149 E0.0125
G1 X87.262 Y-32.316 E0.0117
G1 X86.928 Y-32.412 E0.0112
G1 X86.616 Y-32.441 E0.0101
G1 X86.271 Y-32.412 E0.0112
G1 X85.952 Y-32.321 E0.0107
G1 X85.629 Y-32.157 E0.0117
G1 X85.339 Y-31.926 E0.0120
G1 X85.092 Y-31.626 E0.0125
G1 X84.925 Y-31.303 E0.0117
G1 X84.829 Y-30.969 E0.0112
G1 X84.799 Y-30.641 E0.0106
G1 X84.830 Y-30.311 E0.0107
G1 X84.921 Y-29.992 E0.0107
G1 X85.105 Y-29.639 E0.0128
G1 X85.315 Y-29.380 E0.0108
G1 X85.615 Y-29.133 E0.0125
G1 X85.938 Y-28.966 E0.0117
G1 X86.272 Y-28.870 E0.0112
G1 X86.600 Y-28.840 E0.0106
G1 X86.930 Y-28.871 E0.0107
G1 X87.249 Y-28.962 E0.0107
G1 X87.602 Y-29.146 E0.0128
; inner perimeter
G1 X45.403 Y-12.789 F4200
G1 X45.181 Y-13.214 E0.0155 F1350
G1 X44.920 Y-13.536 E0.0134
G1 X44.557 Y-13.835 E0.0152
G1 X44.161 Y-14.039 E0.0144
G1 X43.752 Y-14.157 E0.0137
G1 X43.350 Y-14.194 E0.0130
G1 X42.946 Y-14.156 E0.0131
G1 X42.552 Y-14.044 E0.0132
G1 X42.127 Y-13.822 E0.0155
G1 X41.805 Y-13.561 E0.0134
G1 X41.506 Y-13.198 E0.0152
G1 X41.302 Y-12.802 E0.0144
G1 X41.185 Y-12.394 E0.0137
