; G-Code generated by Simplify3D(R) Version 4.0.0
; Aug 8, 2017 at 9:07:55 AM
; Settings Summary
;   processName,Stubs
;   applyToModels,breadboard-stub,breadboard-stub(2),breadboard-stub(3),breadboard-stub(4),breadboard-stub(5),breadboard-stub(6),breadboard-stub(7),breadboard-stub(8),breadboard-stub(9),breadboard-stub(10),breadboard-stub(11),breadboard-stub(11)(2),breadboard-stub(11)(2)(2),breadboard-stub(11)(2)(3),breadboard-stub(11)(2)(4),breadboard-stub(11)(2)(5)
;   profileName,Default (modified)
;   profileVersion,2015-05-01 08:00:00
;   baseProfile,
;   printMaterial,PLA
;   printQuality,Medium
;   printExtruders,Left Extruder Only
;   extruderName,Right Extruder,Left Extruder
;   extruderToolheadNumber,0,1
;   extruderDiameter,0.4,0.4
;   extruderAutoWidth,0,0
;   extruderWidth,0.4,0.4
;   extrusionMultiplier,0.9,0.97
;   extruderUseRetract,1,1
;   extruderRetractionDistance,1,1
;   extruderExtraRestartDistance,0,0
;   extruderRetractionZLift,0,0
;   extruderRetractionSpeed,1200,1200
;   extruderUseCoasting,0,0
;   extruderCoastingDistance,0.2,0.2
;   extruderUseWipe,0,0
;   extruderWipeDistance,5,5
;   primaryExtruder,1
;   layerHeight,0.2
;   topSolidLayers,3
;   bottomSolidLayers,3
;   perimeterOutlines,2
;   printPerimetersInsideOut,1
;   startPointOption,2
;   startPointOriginX,0
;   startPointOriginY,0
;   sequentialIslands,0
;   spiralVaseMode,0
;   firstLayerHeightPercentage,90
;   firstLayerWidthPercentage,100
;   firstLayerUnderspeed,0.5
;   useRaft,0
;   raftExtruder,1
;   raftTopLayers,3
;   raftBaseLayers,2
;   raftOffset,3
;   raftSeparationDistance,0.14
;   raftTopInfill,100
;   aboveRaftSpeedMultiplier,0.3
;   useSkirt,0
;   skirtExtruder,1
;   skirtLayers,1
;   skirtOutlines,2
;   skirtOffset,4
;   usePrimePillar,0
;   primePillarExtruder,999
;   primePillarWidth,12
;   primePillarLocation,7
;   primePillarSpeedMultiplier,1
;   useOozeShield,0
;   oozeShieldExtruder,999
;   oozeShieldOffset,2
;   oozeShieldOutlines,1
;   oozeShieldSidewallShape,1
;   oozeShieldSidewallAngle,30
;   oozeShieldSpeedMultiplier,1
;   infillExtruder,1
;   internalInfillPattern,Rectilinear
;   externalInfillPattern,Rectilinear
;   infillPercentage,100
;   outlineOverlapPercentage,40
;   infillExtrusionWidthPercentage,100
;   minInfillLength,5
;   infillLayerInterval,1
;   internalInfillAngles,45,-45
;   overlapInternalInfillAngles,0
;   externalInfillAngles,45,-45
;   generateSupport,0
;   supportExtruder,1
;   supportInfillPercentage,30
;   supportExtraInflation,0
;   supportBaseLayers,0
;   denseSupportExtruder,1
;   denseSupportLayers,0
;   denseSupportInfillPercentage,70
;   supportLayerInterval,1
;   supportHorizontalPartOffset,0.3
;   supportUpperSeparationLayers,1
;   supportLowerSeparationLayers,1
;   supportType,0
;   supportGridSpacing,4
;   maxOverhangAngle,45
;   supportAngles,0
;   temperatureName,Right Extruder,Left Extruder,Heated Build Platform
;   temperatureNumber,0,1,0
;   temperatureSetpointCount,1,1,1
;   temperatureSetpointLayers,1,1,1
;   temperatureSetpointTemperatures,0,210,55
;   temperatureStabilizeAtStartup,0,0,0
;   temperatureHeatedBed,0,0,1
;   temperatureRelayBetweenLayers,0,0,0
;   temperatureRelayBetweenLoops,0,0,0
;   fanLayers,1,2
;   fanSpeeds,0,100
;   blipFanToFullPower,0
;   adjustSpeedForCooling,1
;   minSpeedLayerTime,15
;   minCoolingSpeedSlowdown,20
;   increaseFanForCooling,0
;   minFanLayerTime,45
;   maxCoolingFanSpeed,100
;   increaseFanForBridging,1
;   bridgingFanSpeed,100
;   use5D,1
;   relativeEdistances,1
;   allowEaxisZeroing,0
;   independentExtruderAxes,1
;   includeM10123,0
;   stickySupport,1
;   applyToolheadOffsets,0
;   gcodeXoffset,0
;   gcodeYoffset,0
;   gcodeZoffset,0
;   overrideMachineDefinition,1
;   machineTypeOverride,0
;   strokeXoverride,225
;   strokeYoverride,145
;   strokeZoverride,150
;   originOffsetXoverride,112.5
;   originOffsetYoverride,72.5
;   originOffsetZoverride,0
;   homeXdirOverride,1
;   homeYdirOverride,1
;   homeZdirOverride,-1
;   flipXoverride,1
;   flipYoverride,-1
;   flipZoverride,1
;   toolheadOffsets,0,0|34,0|0,0|0,0|0,0|0,0
;   overrideFirmwareConfiguration,1
;   firmwareTypeOverride,MakerBot/Sailfish Firmware
;   GPXconfigOverride,r1d
;   baudRateOverride,115200
;   overridePrinterModels,1
;   printerModelsOverride,FlashForge_CreatorPro.stl
;   startingGcode,; **** Replicator 1 dual start.gcode ****,M73 P0 ; enable build progress,G162 X Y F3000 ; home XY maximum,G161 Z F1200 ; home Z minimum,G92 Z-5 ; set Z to -5,G1 Z0 ; move Z to 0,G161 Z F100 ; home Z slowly,M132 X Y Z A B ; recall home offsets,M135 T0 ; load right extruder offsets,G1 X150 Y-70 Z30 F9000 ; move to wait position right hand side of the table,G130 X20 Y20 Z20 A20 B20 ; lower stepper Vrefs while heating,M126 S[fan_speed_pwm],M140 S[bed0_temperature] T0,M134 T0 ; stabilize bed temperature,M104 S[extruder1_temperature] T1,M133 T1 ; stabilize left extruder temperature,G130 X127 Y127 Z40 A127 B127 ; default stepper Vrefs,G92 A0 B0 ; zero extruders,G1 Z0.4 ; position nozzle,M135 T1 ; left tool,G1 X110 Y-70 E30 F300 ; move nozzle,G1 X120 Y-70 Z0.15 F1200 ; slow wipe,G1 X110 Y-70 Z0.5 F1200 ; lift,G92 A0 B0 ; zero extruders,M73 P1 ;@body (notify GPX body has started),; **** end of start.gcode ****
;   layerChangeGcode,
;   retractionGcode,
;   toolChangeGcode,
;   endingGcode,; **** Replicator 1 dual end.gcode ****,M73 P100 ; end build progress,G1 Z150 F1000 ; send Z axis to bottom of machine,M140 S0 T0 ; cool down HBP,M104 S0 T0 ; cool down right extruder,M104 S0 T1 ; cool down left extruder,M127 ; stop blower fan,G162 X Y F3000 ; home XY maximum,M18 ; disable stepper,M72 P1 ; play Ta-Da song,; **** end of end.gcode ****
;   exportFileFormat,x3g
;   celebration,0
;   celebrationSong,Random Song
;   postProcessing,
;   defaultSpeed,3600
;   outlineUnderspeed,0.5
;   solidInfillUnderspeed,0.8
;   supportUnderspeed,0.8
;   rapidXYspeed,4200
;   rapidZspeed,1200
;   minBridgingArea,50
;   bridgingExtraInflation,0
;   bridgingExtrusionMultiplier,1
;   bridgingSpeedMultiplier,0.8
;   useFixedBridgingAngle,0
;   fixedBridgingAngle,0
;   applyBridgingToPerimeters,0
;   filamentDiameters,1.75|1.75|1.75|1.75|1.75|1.75
;   filamentPricesPerKg,25|25|25|25|25|25
;   filamentDensities,1.25|1.25|1.25|1.25|1.25|1.25
;   useMinPrintHeight,0
;   minPrintHeight,0
;   useMaxPrintHeight,0
;   maxPrintHeight,0
;   useDiaphragm,0
;   diaphragmLayerInterval,20
;   robustSlicing,1
;   mergeAllIntoSolid,0
;   onlyRetractWhenCrossingOutline,1
;   retractBetweenLayers,1
;   useRetractionMinTravel,0
;   retractionMinTravel,3
;   retractWhileWiping,0
;   onlyWipeOutlines,1
;   avoidCrossingOutline,0
;   maxMovementDetourFactor,3
;   toolChangeRetractionDistance,12
;   toolChangeExtraRestartDistance,-0.5
;   toolChangeRetractionSpeed,600
;   externalThinWallType,0
;   internalThinWallType,2
;   thinWallAllowedOverlapPercentage,10
;   singleExtrusionMinLength,1
;   singleExtrusionMinPrintingWidthPercentage,50
;   singleExtrusionMaxPrintingWidthPercentage,200
;   singleExtrusionEndpointExtension,0.2
;   horizontalSizeCompensation,0
G90
M83
; **** Replicator 1 dual start.gcode ****
M73 P0 ; enable build progress
G162 X Y F3000 ; home XY maximum
G161 Z F1200 ; home Z minimum
G92 Z-5 ; set Z to -5
G1 Z0 ; move Z to 0
G161 Z F100 ; home Z slowly
M132 X Y Z A B ; recall home offsets
M135 T0 ; load right extruder offsets
G1 X150 Y-70 Z30 F9000 ; move to wait position right hand side of the table
G130 X20 Y20 Z20 A20 B20 ; lower stepper Vrefs while heating
M127
M140 S55 T0
M134 T0 ; stabilize bed temperature
M104 S210 T1
M133 T1 ; stabilize left extruder temperature
G130 X127 Y127 Z40 A127 B127 ; default stepper Vrefs
G92 A0 B0 ; zero extruders
G1 Z0.4 ; position nozzle
M135 T1 ; left tool
G1 X110 Y-70 E30 F300 ; move nozzle
G1 X120 Y-70 Z0.15 F1200 ; slow wipe
G1 X110 Y-70 Z0.5 F1200 ; lift
G92 A0 B0 ; zero extruders
M73 P1 ;@body (notify GPX body has started)
; **** end of start.gcode ****
G1 E-1.0000 F1200
G1 Z0.180 F1200
; process Stubs
; layer 1, Z = 0.180
M135 T1
; tool H0.200 W0.400
; outer perimeter
G1 X0.001 Y2.700 F4200
G1 E1.0000 F360
G1 X0.191 Y2.708 E0.0061 F900
G1 X0.413 Y2.738 E0.0072
G1 X0.625 Y2.787 E0.0070
G1 X0.836 Y2.857 E0.0072
G1 X1.043 Y2.950 E0.0073
G1 X1.243 Y3.065 E0.0075
G1 X1.433 Y3.201 E0.0075
G1 X1.609 Y3.357 E0.0076
G1 X1.768 Y3.530 E0.0076
G1 X1.908 Y3.717 E0.0075
G1 X2.028 Y3.915 E0.0075
G1 X2.127 Y4.126 E0.0075
G1 X2.204 Y4.343 E0.0074
G1 X2.257 Y4.561 E0.0072
G1 X2.289 Y4.776 E0.0070
G1 X2.300 Y4.996 E0.0071
G1 X2.261 Y5.417 E0.0137
G1 X2.213 Y5.625 E0.0069
G1 X2.143 Y5.836 E0.0072
G1 X2.050 Y6.043 E0.0073
G1 X1.935 Y6.243 E0.0075
G1 X1.799 Y6.433 E0.0075
G1 X1.643 Y6.609 E0.0076
G1 X1.470 Y6.768 E0.0076
G1 X1.283 Y6.909 E0.0075
G1 X1.085 Y7.028 E0.0075
G1 X0.874 Y7.127 E0.0075
G1 X0.657 Y7.204 E0.0074
G1 X0.439 Y7.257 E0.0072
G1 X0.224 Y7.289 E0.0070
G1 X0.004 Y7.300 E0.0071
G1 X-0.417 Y7.261 E0.0137
G1 X-0.625 Y7.213 E0.0069
G1 X-0.836 Y7.143 E0.0072
G1 X-1.043 Y7.050 E0.0073
G1 X-1.243 Y6.935 E0.0075
G1 X-1.433 Y6.799 E0.0075
G1 X-1.609 Y6.643 E0.0076
G1 X-1.768 Y6.470 E0.0076
G1 X-1.908 Y6.283 E0.0075
G1 X-2.028 Y6.085 E0.0075
G1 X-2.127 Y5.874 E0.0075
G1 X-2.204 Y5.657 E0.0074
G1 X-2.257 Y5.439 E0.0072
G1 X-2.289 Y5.224 E0.0070
G1 X-2.300 Y5.004 E0.0071
G1 X-2.261 Y4.583 E0.0137
G1 X-2.213 Y4.375 E0.0069
G1 X-2.143 Y4.164 E0.0072
G1 X-2.050 Y3.957 E0.0073
G1 X-1.935 Y3.757 E0.0074
G1 X-1.798 Y3.567 E0.0075
G1 X-1.643 Y3.391 E0.0076
G1 X-1.470 Y3.232 E0.0076
G1 X-1.283 Y3.091 E0.0075
G1 X-1.085 Y2.972 E0.0075
G1 X-0.874 Y2.873 E0.0075
G1 X-0.657 Y2.796 E0.0074
G1 X-0.439 Y2.743 E0.0072
G1 X-0.224 Y2.711 E0.0070
G1 X0.001 Y2.700 E0.0073
G1 X0.000 Y3.199 F4200
G1 X-0.328 Y3.229 E0.0106 F900
G1 X-0.662 Y3.325 E0.0112
G1 X-0.984 Y3.492 E0.0117
G1 X-1.272 Y3.725 E0.0119
G1 X-1.506 Y4.012 E0.0119
G1 X-1.673 Y4.334 E0.0117
G1 X-1.770 Y4.670 E0.0113
G1 X-1.801 Y5.000 E0.0107
G1 X-1.771 Y5.328 E0.0106
G1 X-1.675 Y5.662 E0.0112
G1 X-1.508 Y5.984 E0.0117
G1 X-1.275 Y6.272 E0.0119
G1 X-0.988 Y6.506 E0.0119
G1 X-0.666 Y6.673 E0.0117
G1 X-0.330 Y6.770 E0.0113
G1 X-0.000 Y6.801 E0.0107
G1 X0.328 Y6.771 E0.0106
G1 X0.662 Y6.675 E0.0112
G1 X0.984 Y6.508 E0.0117
G1 X1.272 Y6.275 E0.0119
G1 X1.506 Y5.988 E0.0119
G1 X1.673 Y5.666 E0.0117
G1 X1.770 Y5.330 E0.0113
G1 X1.801 Y5.000 E0.0107
G1 X1.771 Y4.672 E0.0106
G1 X1.675 Y4.338 E0.0112
G1 X1.508 Y4.015 E0.0117
G1 X1.261 Y3.715 E0.0125
G1 X0.988 Y3.494 E0.0114
G1 X0.666 Y3.327 E0.0117
G1 X0.330 Y3.230 E0.0113
G1 X0.000 Y3.199 E0.0107
; gap fill
G1 X0.884 Y3.146 F4200
G1 X0.922 Y3.185 E0.0018 F1440
G1 X0.757 Y3.099 E0.0060
G1 X0.375 Y2.989 E0.0128
G1 X0.138 Y2.967 E0.0077
G1 X0.121 Y2.949 E0.0008
G1 X0.002 Y2.944 E0.0039
G1 X-0.200 Y2.954 E0.0065
G1 X-0.393 Y2.982 E0.0063
G1 X-0.408 Y2.986 E0.0005
G1 X-0.398 Y2.996 E0.0004
G1 X-0.753 Y3.097 E0.0119
G1 X-0.825 Y3.135 E0.0026
G1 X-0.835 Y3.124 E0.0005
G1 X-0.970 Y3.188 E0.0048
G1 X-1.147 Y3.294 E0.0067
G1 X-1.195 Y3.330 E0.0020
G1 X-1.185 Y3.340 E0.0005
G1 X-1.445 Y3.551 E0.0108
G1 X-1.488 Y3.603 E0.0022
G1 X-1.497 Y3.594 E0.0004
G1 X-1.607 Y3.719 E0.0054
G1 X-1.729 Y3.889 E0.0067
G1 X-1.743 Y3.913 E0.0009
G1 X-1.734 Y3.923 E0.0004
G1 X-1.901 Y4.243 E0.0117
G1 X-1.919 Y4.304 E0.0020
G1 X-1.929 Y4.294 E0.0005
G1 X-1.978 Y4.442 E0.0050
G1 X-2.020 Y4.621 E0.0059
G1 X-2.032 Y4.756 E0.0044
G1 X-2.024 Y4.764 E0.0004
G1 X-2.046 Y5.000 E0.0076
G1 X-2.015 Y5.339 E0.0110
G1 X-2.027 Y5.327 E0.0006
G1 X-2.018 Y5.392 E0.0021
G1 X-1.970 Y5.587 E0.0065
G1 X-1.901 Y5.781 E0.0066
G1 X-1.812 Y5.970 E0.0067
G1 X-1.706 Y6.147 E0.0067
G1 X-1.580 Y6.314 E0.0067
G1 X-1.438 Y6.468 E0.0068
G1 X-1.281 Y6.607 E0.0068
G1 X-1.111 Y6.729 E0.0067
G1 X-0.932 Y6.832 E0.0067
G1 X-0.747 Y6.915 E0.0066
G1 X-0.558 Y6.978 E0.0064
G1 X-0.378 Y7.020 E0.0060
G1 X-0.330 Y7.024 E0.0016
G1 X-0.339 Y7.015 E0.0004
G1 X-0.000 Y7.046 E0.0110
G1 X0.236 Y7.024 E0.0077
G1 X0.250 Y7.038 E0.0006
G1 X0.392 Y7.018 E0.0046
G1 X0.587 Y6.970 E0.0065
G1 X0.705 Y6.928 E0.0041
G1 X0.696 Y6.919 E0.0004
G1 X0.753 Y6.903 E0.0019
G1 X1.078 Y6.735 E0.0118
G1 X1.086 Y6.743 E0.0004
G1 X1.147 Y6.706 E0.0023
G1 X1.314 Y6.580 E0.0067
G1 X1.405 Y6.496 E0.0040
G1 X1.397 Y6.488 E0.0004
G1 X1.445 Y6.449 E0.0020
G1 X1.660 Y6.185 E0.0110
G1 X1.669 Y6.195 E0.0004
G1 X1.729 Y6.111 E0.0033
G1 X1.832 Y5.932 E0.0067
G1 X1.875 Y5.835 E0.0034
G1 X1.865 Y5.825 E0.0005
G1 X1.901 Y5.757 E0.0025
G1 X2.005 Y5.399 E0.0120
G1 X2.013 Y5.407 E0.0004
G1 X2.020 Y5.379 E0.0010
G1 X2.055 Y4.991 E0.0126
G1 X2.050 Y4.878 E0.0036
G1 X2.033 Y4.862 E0.0007
G1 X2.012 Y4.627 E0.0076
G1 X1.903 Y4.247 E0.0128
G1 X1.815 Y4.078 E0.0061
G1 X1.852 Y4.115 E0.0017
G1 E-1.0000 F1200
; outer perimeter
G1 X7.739 Y4.583 F4200
G1 E1.0000 F1200
G1 X7.787 Y4.375 E0.0069 F900
G1 X7.857 Y4.164 E0.0072
G1 X7.950 Y3.957 E0.0073
G1 X8.065 Y3.757 E0.0074
G1 X8.202 Y3.567 E0.0075
G1 X8.357 Y3.391 E0.0076
G1 X8.530 Y3.232 E0.0076
G1 X8.717 Y3.091 E0.0075
G1 X8.915 Y2.972 E0.0075
G1 X9.126 Y2.873 E0.0075
G1 X9.343 Y2.796 E0.0074
G1 X9.561 Y2.743 E0.0072
G1 X9.776 Y2.711 E0.0070
G1 X10.001 Y2.700 E0.0073
G1 X10.191 Y2.708 E0.0061
G1 X10.413 Y2.738 E0.0072
G1 X10.625 Y2.787 E0.0070
G1 X10.836 Y2.857 E0.0072
G1 X11.043 Y2.950 E0.0073
G1 X11.243 Y3.065 E0.0075
G1 X11.433 Y3.201 E0.0075
G1 X11.609 Y3.357 E0.0076
G1 X11.768 Y3.530 E0.0076
G1 X11.909 Y3.717 E0.0075
G1 X12.028 Y3.915 E0.0075
G1 X12.127 Y4.126 E0.0075
G1 X12.204 Y4.343 E0.0074
G1 X12.257 Y4.561 E0.0072
G1 X12.289 Y4.776 E0.0070
G1 X12.300 Y4.996 E0.0071
G1 X12.261 Y5.417 E0.0137
G1 X12.213 Y5.625 E0.0069
G1 X12.143 Y5.836 E0.0072
G1 X12.050 Y6.043 E0.0073
G1 X11.935 Y6.243 E0.0075
G1 X11.799 Y6.433 E0.0075
G1 X11.643 Y6.609 E0.0076
G1 X11.470 Y6.768 E0.0076
G1 X11.283 Y6.909 E0.0075
G1 X11.085 Y7.028 E0.0075
G1 X10.874 Y7.127 E0.0075
G1 X10.657 Y7.204 E0.0074
G1 X10.439 Y7.257 E0.0072
G1 X10.224 Y7.289 E0.0070
G1 X10.004 Y7.300 E0.0071
G1 X9.583 Y7.261 E0.0137
G1 X9.375 Y7.213 E0.0069
G1 X9.164 Y7.143 E0.0072
G1 X8.957 Y7.050 E0.0073
G1 X8.757 Y6.935 E0.0075
G1 X8.567 Y6.799 E0.0075
G1 X8.391 Y6.643 E0.0076
G1 X8.232 Y6.470 E0.0076
G1 X8.091 Y6.283 E0.0075
G1 X7.972 Y6.085 E0.0075
G1 X7.873 Y5.874 E0.0075
G1 X7.796 Y5.657 E0.0074
G1 X7.743 Y5.439 E0.0072
G1 X7.711 Y5.224 E0.0070
G1 X7.700 Y5.004 E0.0071
G1 X7.739 Y4.583 E0.0137
G1 X8.230 Y4.670 F4200
G1 X8.199 Y5.000 E0.0107 F900
G1 X8.229 Y5.328 E0.0106
G1 X8.325 Y5.662 E0.0112
G1 X8.492 Y5.984 E0.0117
G1 X8.725 Y6.272 E0.0119
G1 X9.012 Y6.506 E0.0119
G1 X9.334 Y6.673 E0.0117
G1 X9.670 Y6.770 E0.0113
G1 X10.000 Y6.801 E0.0107
G1 X10.328 Y6.771 E0.0106
G1 X10.662 Y6.675 E0.0112
G1 X10.984 Y6.508 E0.0117
G1 X11.272 Y6.275 E0.0119
G1 X11.506 Y5.988 E0.0119
G1 X11.673 Y5.666 E0.0117
G1 X11.770 Y5.330 E0.0113
G1 X11.801 Y5.000 E0.0107
G1 X11.771 Y4.672 E0.0106
G1 X11.675 Y4.338 E0.0112
G1 X11.508 Y4.015 E0.0117
G1 X11.261 Y3.715 E0.0125
G1 X10.988 Y3.494 E0.0114
G1 X10.666 Y3.327 E0.0117
G1 X10.330 Y3.230 E0.0113
G1 X10.000 Y3.199 E0.0107
G1 X9.672 Y3.229 E0.0106
G1 X9.338 Y3.325 E0.0112
G1 X9.016 Y3.492 E0.0117
G1 X8.728 Y3.725 E0.0119
G1 X8.494 Y4.012 E0.0119
G1 X8.327 Y4.334 E0.0117
G1 X8.230 Y4.670 E0.0113
G1 E-1.0000 F1200
; gap fill
G1 X10.326 Y2.972 F4200
G1 E1.0000 F1200
G1 X10.339 Y2.985 E0.0006 F1440
G1 X10.000 Y2.954 E0.0110
G1 X9.764 Y2.976 E0.0077
G1 X9.750 Y2.962 E0.0006
G1 X9.607 Y2.982 E0.0046
G1 X9.413 Y3.030 E0.0065
G1 X9.295 Y3.072 E0.0041
G1 X9.304 Y3.081 E0.0004
G1 X9.247 Y3.097 E0.0019
G1 X8.922 Y3.265 E0.0118
G1 X8.914 Y3.257 E0.0004
G1 X8.853 Y3.294 E0.0023
G1 X8.686 Y3.419 E0.0067
G1 X8.595 Y3.504 E0.0040
G1 X8.603 Y3.512 E0.0004
G1 X8.555 Y3.551 E0.0020
G1 X8.340 Y3.815 E0.0110
G1 X8.331 Y3.805 E0.0004
G1 X8.271 Y3.889 E0.0033
G1 X8.168 Y4.068 E0.0067
G1 X8.125 Y4.165 E0.0034
G1 X8.135 Y4.175 E0.0005
G1 X8.099 Y4.243 E0.0025
G1 X7.995 Y4.601 E0.0120
G1 X7.987 Y4.593 E0.0004
G1 X7.980 Y4.621 E0.0010
G1 X7.945 Y5.009 E0.0126
G1 X7.950 Y5.122 E0.0036
G1 X7.967 Y5.138 E0.0007
G1 X7.988 Y5.373 E0.0076
G1 X8.097 Y5.753 E0.0128
G1 X8.185 Y5.922 E0.0061
