; G-Code generated by Simplify3D(R) Version 4.0.0
; Aug 8, 2017 at 9:09:42 AM
; Settings Summary
;   processName,Black 30% Left
;   applyToModels,left-bottom
;   profileName,Default (modified)
;   profileVersion,2015-05-01 08:00:00
;   baseProfile,
;   printMaterial,PLA
;   printQuality,Medium
;   printExtruders,Left Extruder Only
;   extruderName,Right Extruder,Left Extruder
;   extruderToolheadNumber,0,1
;   extruderDiameter,0.4,0.4
;   extruderAutoWidth,0,0
;   extruderWidth,0.4,0.4
;   extrusionMultiplier,0.9,0.97
;   extruderUseRetract,1,1
;   extruderRetractionDistance,1,1
;   extruderExtraRestartDistance,0,0
;   extruderRetractionZLift,0,0
;   extruderRetractionSpeed,1200,1200
;   extruderUseCoasting,0,0
;   extruderCoastingDistance,0.2,0.2
;   extruderUseWipe,0,0
;   extruderWipeDistance,5,5
;   primaryExtruder,1
;   layerHeight,0.2
;   topSolidLayers,3
;   bottomSolidLayers,3
;   perimeterOutlines,2
;   printPerimetersInsideOut,1
;   startPointOption,2
;   startPointOriginX,0
;   startPointOriginY,0
;   sequentialIslands,0
;   spiralVaseMode,0
;   firstLayerHeightPercentage,90
;   firstLayerWidthPercentage,100
;   firstLayerUnderspeed,0.5
;   useRaft,0
;   raftExtruder,1
;   raftTopLayers,3
;   raftBaseLayers,2
;   raftOffset,3
;   raftSeparationDistance,0.14
;   raftTopInfill,100
;   aboveRaftSpeedMultiplier,0.3
;   useSkirt,0
;   skirtExtruder,1
;   skirtLayers,1
;   skirtOutlines,2
;   skirtOffset,4
;   usePrimePillar,0
;   primePillarExtruder,999
;   primePillarWidth,12
;   primePillarLocation,7
;   primePillarSpeedMultiplier,1
;   useOozeShield,0
;   oozeShieldExtruder,999
;   oozeShieldOffset,2
;   oozeShieldOutlines,1
;   oozeShieldSidewallShape,1
;   oozeShieldSidewallAngle,30
;   oozeShieldSpeedMultiplier,1
;   infillExtruder,1
;   internalInfillPattern,Rectilinear
;   externalInfillPattern,Rectilinear
;   infillPercentage,30
;   outlineOverlapPercentage,20
;   infillExtrusionWidthPercentage,100
;   minInfillLength,5
;   infillLayerInterval,1
;   internalInfillAngles,45,-45
;   overlapInternalInfillAngles,0
;   externalInfillAngles,45,-45
;   generateSupport,0
;   supportExtruder,1
;   supportInfillPercentage,30
;   supportExtraInflation,0
;   supportBaseLayers,0
;   denseSupportExtruder,1
;   denseSupportLayers,0
;   denseSupportInfillPercentage,70
;   supportLayerInterval,1
;   supportHorizontalPartOffset,0.3
;   supportUpperSeparationLayers,1
;   supportLowerSeparationLayers,1
;   supportType,0
;   supportGridSpacing,4
;   maxOverhangAngle,45
;   supportAngles,0
;   temperatureName,Right Extruder,Left Extruder,Heated Build Platform
;   temperatureNumber,0,1,0
;   temperatureSetpointCount,1,1,1
;   temperatureSetpointLayers,1,1,1
;   temperatureSetpointTemperatures,0,210,55
;   temperatureStabilizeAtStartup,0,0,0
;   temperatureHeatedBed,0,0,1
;   temperatureRelayBetweenLayers,0,0,0
;   temperatureRelayBetweenLoops,0,0,0
;   fanLayers,1,2
;   fanSpeeds,0,100
;   blipFanToFullPower,0
;   adjustSpeedForCooling,1
;   minSpeedLayerTime,15
;   minCoolingSpeedSlowdown,20
;   increaseFanForCooling,0
;   minFanLayerTime,45
;   maxCoolingFanSpeed,100
;   increaseFanForBridging,1
;   bridgingFanSpeed,100
;   use5D,1
;   relativeEdistances,1
;   allowEaxisZeroing,0
;   independentExtruderAxes,1
;   includeM10123,0
;   stickySupport,1
;   applyToolheadOffsets,0
;   gcodeXoffset,0
;   gcodeYoffset,0
;   gcodeZoffset,0
;   overrideMachineDefinition,1
;   machineTypeOverride,0
;   strokeXoverride,225
;   strokeYoverride,145
;   strokeZoverride,150
;   originOffsetXoverride,112.5
;   originOffsetYoverride,72.5
;   originOffsetZoverride,0
;   homeXdirOverride,1
;   homeYdirOverride,1
;   homeZdirOverride,-1
;   flipXoverride,1
;   flipYoverride,-1
;   flipZoverride,1
;   toolheadOffsets,0,0|34,0|0,0|0,0|0,0|0,0
;   overrideFirmwareConfiguration,1
;   firmwareTypeOverride,MakerBot/Sailfish Firmware
;   GPXconfigOverride,r1d
;   baudRateOverride,115200
;   overridePrinterModels,1
;   printerModelsOverride,FlashForge_CreatorPro.stl
;   startingGcode,; **** Replicator 1 dual start.gcode ****,M73 P0 ; enable build progress,G162 X Y F3000 ; home XY maximum,G161 Z F1200 ; home Z minimum,G92 Z-5 ; set Z to -5,G1 Z0 ; move Z to 0,G161 Z F100 ; home Z slowly,M132 X Y Z A B ; recall home offsets,M135 T0 ; load right extruder offsets,G1 X150 Y-70 Z30 F9000 ; move to wait position right hand side of the table,G130 X20 Y20 Z20 A20 B20 ; lower stepper Vrefs while heating,M126 S[fan_speed_pwm],M140 S[bed0_temperature] T0,M134 T0 ; stabilize bed temperature,M104 S[extruder1_temperature] T1,M133 T1 ; stabilize left extruder temperature,G130 X127 Y127 Z40 A127 B127 ; default stepper Vrefs,G92 A0 B0 ; zero extruders,G1 Z0.4 ; position nozzle,M135 T1 ; left tool,G1 X110 Y-70 E30 F300 ; move nozzle,G1 X120 Y-70 Z0.15 F1200 ; slow wipe,G1 X110 Y-70 Z0.5 F1200 ; lift,G92 A0 B0 ; zero extruders,M73 P1 ;@body (notify GPX body has started),; **** end of start.gcode ****
;   layerChangeGcode,
;   retractionGcode,
;   toolChangeGcode,
;   endingGcode,; **** Replicator 1 dual end.gcode ****,M73 P100 ; end build progress,G1 Z150 F1000 ; send Z axis to bottom of machine,M140 S0 T0 ; cool down HBP,M104 S0 T0 ; cool down right extruder,M104 S0 T1 ; cool down left extruder,M127 ; stop blower fan,G162 X Y F3000 ; home XY maximum,M18 ; disable stepper,M72 P1 ; play Ta-Da song,; **** end of end.gcode ****
;   exportFileFormat,x3g
;   celebration,0
;   celebrationSong,Random Song
;   postProcessing,
;   defaultSpeed,3600
;   outlineUnderspeed,0.5
;   solidInfillUnderspeed,0.8
;   supportUnderspeed,0.8
;   rapidXYspeed,4200
;   rapidZspeed,1200
;   minBridgingArea,50
;   bridgingExtraInflation,0
;   bridgingExtrusionMultiplier,1
;   bridgingSpeedMultiplier,0.8
;   useFixedBridgingAngle,0
;   fixedBridgingAngle,0
;   applyBridgingToPerimeters,0
;   filamentDiameters,1.75|1.75|1.75|1.75|1.75|1.75
;   filamentPricesPerKg,25|25|25|25|25|25
;   filamentDensities,1.25|1.25|1.25|1.25|1.25|1.25
;   useMinPrintHeight,0
;   minPrintHeight,0
;   useMaxPrintHeight,0
;   maxPrintHeight,0
;   useDiaphragm,0
;   diaphragmLayerInterval,20
;   robustSlicing,1
;   mergeAllIntoSolid,0
;   onlyRetractWhenCrossingOutline,1
;   retractBetweenLayers,1
;   useRetractionMinTravel,0
;   retractionMinTravel,3
;   retractWhileWiping,0
;   onlyWipeOutlines,1
;   avoidCrossingOutline,0
;   maxMovementDetourFactor,3
;   toolChangeRetractionDistance,12
;   toolChangeExtraRestartDistance,-0.5
;   toolChangeRetractionSpeed,600
;   externalThinWallType,0
;   internalThinWallType,2
;   thinWallAllowedOverlapPercentage,10
;   singleExtrusionMinLength,1
;   singleExtrusionMinPrintingWidthPercentage,50
;   singleExtrusionMaxPrintingWidthPercentage,200
;   singleExtrusionEndpointExtension,0.2
;   horizontalSizeCompensation,0
G90
M83
; **** Replicator 1 dual start.gcode ****
M73 P0 ; enable build progress
G162 X Y F3000 ; home XY maximum
G161 Z F1200 ; home Z minimum
G92 Z-5 ; set Z to -5
G1 Z0 ; move Z to 0
G161 Z F100 ; home Z slowly
M132 X Y Z A B ; recall home offsets
M135 T0 ; load right extruder offsets
G1 X150 Y-70 Z30 F9000 ; move to wait position right hand side of the table
G130 X20 Y20 Z20 A20 B20 ; lower stepper Vrefs while heating
M127
M140 S55 T0
M134 T0 ; stabilize bed temperature
M104 S210 T1
M133 T1 ; stabilize left extruder temperature
G130 X127 Y127 Z40 A127 B127 ; default stepper Vrefs
G92 A0 B0 ; zero extruders
G1 Z0.4 ; position nozzle
M135 T1 ; left tool
G1 X110 Y-70 E30 F300 ; move nozzle
G1 X120 Y-70 Z0.15 F1200 ; slow wipe
G1 X110 Y-70 Z0.5 F1200 ; lift
G92 A0 B0 ; zero extruders
M73 P1 ;@body (notify GPX body has started)
; **** end of start.gcode ****
G1 E-1.0000 F1200
G1 Z0.180 F1200
; process Black 30% Left
; layer 1, Z = 0.180
M135 T1
; tool H0.200 W0.400
; inner perimeter
G1 X-74.234 Y-62.478 F4200
G1 E1.0000 F360
G1 X-74.002 Y-62.734 E0.0112 F1350
G1 X-73.798 Y-63.012 E0.0111
G1 X-73.626 Y-63.306 E0.0110
G1 X-73.487 Y-63.612 E0.0108
G1 X-73.380 Y-63.923 E0.0106
G1 X-73.306 Y-64.236 E0.0104
G1 X-73.263 Y-64.546 E0.0101
G1 X-73.249 Y-64.850 E0.0098
G1 X-73.264 Y-65.159 E0.0100
G1 X-73.309 Y-65.478 E0.0104
G1 X-73.387 Y-65.800 E0.0107
G1 X-73.499 Y-66.120 E0.0109
G1 X-73.647 Y-66.433 E0.0112
G1 X-73.829 Y-66.734 E0.0113
G1 X-74.044 Y-67.017 E0.0115
G1 X-74.149 Y-67.128 E0.0049
G1 X-74.055 Y-67.345 E0.0076
G1 X74.055 Y-67.345 E4.7784
G1 X74.148 Y-67.127 E0.0077
G1 X74.049 Y-67.023 E0.0046
G1 X73.834 Y-66.741 E0.0115
G1 X73.651 Y-66.440 E0.0113
G1 X73.502 Y-66.126 E0.0112
G1 X73.388 Y-65.805 E0.0110
G1 X73.310 Y-65.483 E0.0107
G1 X73.264 Y-65.163 E0.0104
G1 X73.250 Y-64.834 E0.0106
G1 X73.265 Y-64.532 E0.0098
G1 X73.309 Y-64.222 E0.0101
G1 X73.384 Y-63.912 E0.0103
G1 X73.484 Y-63.618 E0.0100
G1 X73.622 Y-63.313 E0.0108
G1 X73.794 Y-63.019 E0.0110
G1 X73.996 Y-62.741 E0.0111
G1 X74.228 Y-62.484 E0.0112
G1 X74.484 Y-62.252 E0.0112
G1 X74.762 Y-62.048 E0.0111
G1 X75.056 Y-61.876 E0.0110
G1 X75.362 Y-61.736 E0.0109
G1 X75.692 Y-61.625 E0.0112
G1 X76.005 Y-61.553 E0.0104
G1 X76.314 Y-61.512 E0.0100
G1 X76.601 Y-61.499 E0.0093
G1 X76.918 Y-61.515 E0.0102
G1 X77.228 Y-61.559 E0.0101
G1 X77.538 Y-61.634 E0.0103
G1 X77.832 Y-61.734 E0.0100
G1 X78.137 Y-61.873 E0.0108
G1 X78.431 Y-62.044 E0.0110
G1 X78.709 Y-62.246 E0.0111
G1 X78.966 Y-62.478 E0.0112
G1 X79.198 Y-62.734 E0.0112
G1 X79.402 Y-63.012 E0.0111
G1 X79.574 Y-63.306 E0.0110
G1 X79.714 Y-63.613 E0.0109
G1 X79.825 Y-63.942 E0.0112
G1 X79.897 Y-64.255 E0.0104
G1 X79.938 Y-64.564 E0.0100
G1 X79.951 Y-64.852 E0.0093
G1 X79.934 Y-65.177 E0.0105
G1 X79.887 Y-65.497 E0.0104
G1 X79.808 Y-65.818 E0.0107
G1 X79.693 Y-66.138 E0.0110
G1 X79.544 Y-66.451 E0.0112
G1 X79.360 Y-66.751 E0.0114
G1 X79.143 Y-67.032 E0.0115
G1 X79.052 Y-67.127 E0.0042
G1 X79.146 Y-67.345 E0.0077
G1 X94.696 Y-67.345 E0.5017
G1 X98.406 Y-67.363 E0.1197
G1 X98.568 Y-67.361 E0.0052
G1 X98.812 Y-67.337 E0.0079
G1 X98.958 Y-67.293 E0.0049
G1 X99.058 Y-67.178 E0.0049
G1 X99.090 Y-67.032 E0.0048
G1 X99.113 Y-66.641 E0.0126
G1 X99.095 Y-62.945 E0.1192
G1 X99.095 Y-47.395 E0.5017
G1 X98.878 Y-47.302 E0.0077
G1 X98.773 Y-47.401 E0.0046
G1 X98.491 Y-47.616 E0.0115
G1 X98.190 Y-47.799 E0.0114
G1 X97.876 Y-47.948 E0.0112
G1 X97.555 Y-48.062 E0.0110
G1 X97.233 Y-48.140 E0.0107
G1 X96.913 Y-48.186 E0.0104
G1 X96.584 Y-48.200 E0.0106
G1 X96.282 Y-48.185 E0.0098
G1 X95.974 Y-48.141 E0.0100
G1 X95.679 Y-48.072 E0.0098
G1 X95.368 Y-47.966 E0.0106
G1 X95.063 Y-47.827 E0.0108
G1 X94.769 Y-47.656 E0.0110
G1 X94.491 Y-47.454 E0.0111
G1 X94.234 Y-47.222 E0.0112
G1 X94.002 Y-46.966 E0.0112
G1 X93.798 Y-46.688 E0.0111
G1 X93.626 Y-46.394 E0.0110
G1 X93.486 Y-46.087 E0.0109
G1 X93.375 Y-45.758 E0.0112
G1 X93.303 Y-45.445 E0.0104
G1 X93.262 Y-45.136 E0.0100
G1 X93.249 Y-44.849 E0.0093
G1 X93.265 Y-44.533 E0.0102
G1 X93.305 Y-44.240 E0.0095
G1 X93.378 Y-43.929 E0.0103
G1 X93.484 Y-43.618 E0.0106
G1 X93.623 Y-43.313 E0.0108
G1 X93.794 Y-43.019 E0.0110
G1 X93.996 Y-42.741 E0.0111
G1 X94.228 Y-42.484 E0.0112
G1 X94.484 Y-42.252 E0.0112
G1 X94.762 Y-42.048 E0.0111
G1 X95.056 Y-41.876 E0.0110
G1 X95.363 Y-41.736 E0.0109
G1 X95.692 Y-41.625 E0.0112
G1 X96.005 Y-41.553 E0.0104
G1 X96.314 Y-41.512 E0.0100
G1 X96.602 Y-41.499 E0.0093
G1 X96.927 Y-41.516 E0.0105
G1 X97.247 Y-41.562 E0.0104
G1 X97.568 Y-41.642 E0.0107
G1 X97.888 Y-41.757 E0.0110
G1 X98.201 Y-41.906 E0.0112
G1 X98.501 Y-42.090 E0.0114
G1 X98.782 Y-42.307 E0.0115
G1 X98.877 Y-42.398 E0.0042
G1 X99.095 Y-42.304 E0.0077
G1 X99.095 Y42.305 E2.7297
G1 X98.877 Y42.398 E0.0077
G1 X98.774 Y42.300 E0.0046
G1 X98.491 Y42.084 E0.0115
G1 X98.190 Y41.901 E0.0114
G1 X97.876 Y41.752 E0.0112
G1 X97.555 Y41.638 E0.0110
G1 X97.233 Y41.560 E0.0107
G1 X96.914 Y41.514 E0.0104
G1 X96.601 Y41.499 E0.0101
G1 X96.316 Y41.512 E0.0092
G1 X95.992 Y41.555 E0.0105
G1 X95.679 Y41.628 E0.0104
G1 X95.368 Y41.734 E0.0106
G1 X95.063 Y41.873 E0.0108
G1 X94.769 Y42.044 E0.0110
G1 X94.491 Y42.246 E0.0111
G1 X94.234 Y42.478 E0.0112
G1 X94.002 Y42.734 E0.0112
G1 X93.798 Y43.012 E0.0111
G1 X93.626 Y43.306 E0.0110
G1 X93.487 Y43.612 E0.0108
G1 X93.380 Y43.924 E0.0107
G1 X93.303 Y44.253 E0.0109
G1 X93.263 Y44.546 E0.0095
G1 X93.249 Y44.849 E0.0098
G1 X93.262 Y45.134 E0.0092
G1 X93.305 Y45.458 E0.0106
G1 X93.378 Y45.771 E0.0104
G1 X93.484 Y46.082 E0.0106
G1 X93.623 Y46.387 E0.0108
G1 X93.794 Y46.681 E0.0110
G1 X93.996 Y46.959 E0.0111
G1 X94.228 Y47.216 E0.0112
G1 X94.484 Y47.448 E0.0112
G1 X94.762 Y47.652 E0.0111
G1 X95.056 Y47.824 E0.0110
G1 X95.362 Y47.963 E0.0108
G1 X95.673 Y48.070 E0.0106
G1 X95.986 Y48.144 E0.0104
G1 X96.296 Y48.187 E0.0101
G1 X96.600 Y48.201 E0.0098
G1 X96.909 Y48.186 E0.0100
G1 X97.228 Y48.141 E0.0104
G1 X97.550 Y48.063 E0.0107
G1 X97.870 Y47.951 E0.0109
G1 X98.183 Y47.803 E0.0112
G1 X98.484 Y47.621 E0.0113
G1 X98.767 Y47.406 E0.0115
G1 X98.878 Y47.301 E0.0049
G1 X99.095 Y47.395 E0.0076
G1 X99.095 Y65.947 E0.5986
G1 X99.110 Y67.320 E0.0443
G1 X99.099 Y69.250 E0.0623
G1 X-99.106 Y69.250 E6.3946
G1 X-99.109 Y69.068 E0.0059
G1 X-99.109 Y47.382 E0.6996
G1 X-98.891 Y47.288 E0.0076
G1 X-98.773 Y47.401 E0.0053
G1 X-98.491 Y47.616 E0.0115
G1 X-98.190 Y47.799 E0.0113
G1 X-97.876 Y47.948 E0.0112
G1 X-97.555 Y48.062 E0.0110
G1 X-97.233 Y48.140 E0.0107
G1 X-96.914 Y48.186 E0.0104
G1 X-96.601 Y48.201 E0.0101
G1 X-96.316 Y48.188 E0.0092
G1 X-95.992 Y48.145 E0.0106
G1 X-95.679 Y48.072 E0.0104
G1 X-95.368 Y47.966 E0.0106
G1 X-95.063 Y47.828 E0.0108
G1 X-94.769 Y47.656 E0.0110
G1 X-94.491 Y47.454 E0.0111
G1 X-94.234 Y47.222 E0.0112
G1 X-94.002 Y46.966 E0.0112
G1 X-93.798 Y46.688 E0.0111
G1 X-93.626 Y46.394 E0.0110
G1 X-93.487 Y46.088 E0.0108
G1 X-93.380 Y45.777 E0.0106
G1 X-93.306 Y45.464 E0.0104
G1 X-93.263 Y45.154 E0.0101
G1 X-93.249 Y44.851 E0.0098
G1 X-93.262 Y44.566 E0.0092
G1 X-93.305 Y44.242 E0.0105
G1 X-93.378 Y43.929 E0.0104
G1 X-93.484 Y43.618 E0.0106
G1 X-93.623 Y43.313 E0.0108
G1 X-93.794 Y43.019 E0.0110
G1 X-93.996 Y42.741 E0.0111
G1 X-94.228 Y42.484 E0.0112
G1 X-94.484 Y42.252 E0.0112
G1 X-94.762 Y42.048 E0.0111
G1 X-95.056 Y41.876 E0.0110
G1 X-95.362 Y41.737 E0.0108
G1 X-95.673 Y41.630 E0.0106
G1 X-95.986 Y41.556 E0.0104
G1 X-96.296 Y41.513 E0.0101
G1 X-96.600 Y41.499 E0.0098
G1 X-96.909 Y41.514 E0.0100
G1 X-97.228 Y41.559 E0.0104
G1 X-97.550 Y41.637 E0.0107
G1 X-97.870 Y41.749 E0.0109
G1 X-98.183 Y41.897 E0.0112
G1 X-98.484 Y42.079 E0.0113
G1 X-98.767 Y42.294 E0.0115
G1 X-98.892 Y42.412 E0.0056
G1 X-99.109 Y42.319 E0.0076
G1 X-99.109 Y-42.318 E2.7306
G1 X-98.891 Y-42.412 E0.0077
G1 X-98.774 Y-42.300 E0.0052
G1 X-98.491 Y-42.084 E0.0115
G1 X-98.190 Y-41.901 E0.0113
G1 X-97.876 Y-41.752 E0.0112
G1 X-97.555 Y-41.638 E0.0110
G1 X-97.233 Y-41.560 E0.0107
G1 X-96.914 Y-41.514 E0.0104
G1 X-96.601 Y-41.499 E0.0101
G1 X-96.316 Y-41.512 E0.0092
G1 X-95.992 Y-41.555 E0.0105
G1 X-95.679 Y-41.628 E0.0104
G1 X-95.368 Y-41.734 E0.0106
G1 X-95.063 Y-41.873 E0.0108
G1 X-94.769 Y-42.044 E0.0110
G1 X-94.491 Y-42.246 E0.0111
G1 X-94.234 Y-42.478 E0.0112
G1 X-94.002 Y-42.734 E0.0112
G1 X-93.798 Y-43.012 E0.0111
G1 X-93.626 Y-43.306 E0.0110
G1 X-93.487 Y-43.612 E0.0108
G1 X-93.380 Y-43.923 E0.0106
G1 X-93.306 Y-44.236 E0.0104
G1 X-93.263 Y-44.546 E0.0101
G1 X-93.249 Y-44.850 E0.0098
G1 X-93.263 Y-45.149 E0.0097
G1 X-93.305 Y-45.459 E0.0101
G1 X-93.378 Y-45.771 E0.0103
G1 X-93.484 Y-46.082 E0.0106
G1 X-93.623 Y-46.387 E0.0108
G1 X-93.794 Y-46.681 E0.0110
G1 X-93.996 Y-46.959 E0.0111
G1 X-94.228 Y-47.216 E0.0112
G1 X-94.484 Y-47.448 E0.0112
G1 X-94.762 Y-47.652 E0.0111
G1 X-95.056 Y-47.824 E0.0110
G1 X-95.362 Y-47.963 E0.0108
G1 X-95.673 Y-48.070 E0.0106
G1 X-95.986 Y-48.144 E0.0104
G1 X-96.296 Y-48.187 E0.0101
G1 X-96.600 Y-48.201 E0.0098
G1 X-96.909 Y-48.186 E0.0100
G1 X-97.228 Y-48.141 E0.0104
G1 X-97.550 Y-48.063 E0.0107
G1 X-97.870 Y-47.951 E0.0109
G1 X-98.183 Y-47.803 E0.0112
G1 X-98.484 Y-47.621 E0.0113
G1 X-98.767 Y-47.406 E0.0115
G1 X-98.892 Y-47.288 E0.0056
G1 X-99.109 Y-47.382 E0.0076
G1 X-99.109 Y-64.748 E0.5603
G1 X-99.112 Y-65.322 E0.0185
G1 X-99.111 Y-66.822 E0.0484
G1 X-99.093 Y-67.021 E0.0065
G1 X-99.058 Y-67.178 E0.0052
