; G-Code generated by Simplify3D(R) Version 4.0.0
; Sep 12, 2017 at 6:22:35 PM
; Settings Summary
;   processName,White 100%
;   applyToModels,letters(2),letters(3),letters(4),letters(5),letters(6),letters(7),letters(8),letters(9),letters(10),letters(11),letters(12),letters(13),letters(14),letters(15),letters(16),letters(17),letters(18),letters(19),letters(20),letters(21),letters(22),letters(23),letters(24),letters(25),letters(27),letters(28),letters(29),letters(30),letters(31),letters(32),letters(33),letters(34),letters(35),letters(36),letters(37),letters(38),letters(39),letters(40),letters(43),letters(44),letters(45),letters(46),letters(47),letters(48),letters(49),letters(50),letters(51),letters(52),letters(53),letters(54),letters(55),letters(56),letters(57),letters(58),letters(59),letters(60),letters(61),letters(62),letters(63),letters(64),letters(65),letters(66),letters(67),letters(68),letters(69),letters(70),letters(71),letters(72),letters(73),letters(74),letters(75),letters(76),letters(77),letters(78),letters(79),letters(80),letters(81),letters(82),letters(83),letters(84),letters(85)
;   profileName,Default (modified)
;   profileVersion,2015-05-01 08:00:00
;   baseProfile,
;   printMaterial,PLA
;   printQuality,Medium
;   printExtruders,Left Extruder Only
;   extruderName,Right Extruder,Left Extruder
;   extruderToolheadNumber,0,1
;   extruderDiameter,0.4,0.4
;   extruderAutoWidth,0,0
;   extruderWidth,0.4,0.4
;   extrusionMultiplier,0.9,0.9
;   extruderUseRetract,1,1
;   extruderRetractionDistance,1,1
;   extruderExtraRestartDistance,0,0
;   extruderRetractionZLift,0,0
;   extruderRetractionSpeed,1200,1200
;   extruderUseCoasting,0,0
;   extruderCoastingDistance,0.2,0.2
;   extruderUseWipe,0,0
;   extruderWipeDistance,5,5
;   primaryExtruder,1
;   layerHeight,0.2
;   topSolidLayers,3
;   bottomSolidLayers,3
;   perimeterOutlines,2
;   printPerimetersInsideOut,1
;   startPointOption,2
;   startPointOriginX,0
;   startPointOriginY,0
;   sequentialIslands,0
;   spiralVaseMode,0
;   firstLayerHeightPercentage,90
;   firstLayerWidthPercentage,100
;   firstLayerUnderspeed,0.5
;   useRaft,0
;   raftExtruder,1
;   raftTopLayers,3
;   raftBaseLayers,2
;   raftOffset,3
;   raftSeparationDistance,0.14
;   raftTopInfill,100
;   aboveRaftSpeedMultiplier,0.3
;   useSkirt,0
;   skirtExtruder,1
;   skirtLayers,1
;   skirtOutlines,2
;   skirtOffset,4
;   usePrimePillar,0
;   primePillarExtruder,999
;   primePillarWidth,12
;   primePillarLocation,7
;   primePillarSpeedMultiplier,1
;   useOozeShield,0
;   oozeShieldExtruder,999
;   oozeShieldOffset,2
;   oozeShieldOutlines,1
;   oozeShieldSidewallShape,1
;   oozeShieldSidewallAngle,30
;   oozeShieldSpeedMultiplier,1
;   infillExtruder,1
;   internalInfillPattern,Grid
;   externalInfillPattern,Rectilinear
;   infillPercentage,100
;   outlineOverlapPercentage,40
;   infillExtrusionWidthPercentage,100
;   minInfillLength,0.05
;   infillLayerInterval,1
;   internalInfillAngles,45,-45
;   overlapInternalInfillAngles,1
;   externalInfillAngles,45,-45
;   generateSupport,0
;   supportExtruder,1
;   supportInfillPercentage,30
;   supportExtraInflation,0
;   supportBaseLayers,0
;   denseSupportExtruder,1
;   denseSupportLayers,0
;   denseSupportInfillPercentage,70
;   supportLayerInterval,1
;   supportHorizontalPartOffset,0.3
;   supportUpperSeparationLayers,1
;   supportLowerSeparationLayers,1
;   supportType,0
;   supportGridSpacing,4
;   maxOverhangAngle,45
;   supportAngles,0
;   temperatureName,Right Extruder,Left Extruder,Heated Build Platform
;   temperatureNumber,0,1,0
;   temperatureSetpointCount,1,1,1
;   temperatureSetpointLayers,1,1,1
;   temperatureSetpointTemperatures,0,200,55
;   temperatureStabilizeAtStartup,0,0,0
;   temperatureHeatedBed,0,0,1
;   temperatureRelayBetweenLayers,0,0,0
;   temperatureRelayBetweenLoops,0,0,0
;   fanLayers,1,2
;   fanSpeeds,0,100
;   blipFanToFullPower,0
;   adjustSpeedForCooling,1
;   minSpeedLayerTime,15
;   minCoolingSpeedSlowdown,20
;   increaseFanForCooling,0
;   minFanLayerTime,45
;   maxCoolingFanSpeed,100
;   increaseFanForBridging,1
;   bridgingFanSpeed,100
;   use5D,1
;   relativeEdistances,1
;   allowEaxisZeroing,0
;   independentExtruderAxes,1
;   includeM10123,0
;   stickySupport,1
;   applyToolheadOffsets,0
;   gcodeXoffset,0
;   gcodeYoffset,0
;   gcodeZoffset,0
;   overrideMachineDefinition,1
;   machineTypeOverride,0
;   strokeXoverride,225
;   strokeYoverride,145
;   strokeZoverride,150
;   originOffsetXoverride,112.5
;   originOffsetYoverride,72.5
;   originOffsetZoverride,0
;   homeXdirOverride,1
;   homeYdirOverride,1
;   homeZdirOverride,-1
;   flipXoverride,1
;   flipYoverride,-1
;   flipZoverride,1
;   toolheadOffsets,0,0|34,0|0,0|0,0|0,0|0,0
;   overrideFirmwareConfiguration,1
;   firmwareTypeOverride,MakerBot/Sailfish Firmware
;   GPXconfigOverride,r1d
;   baudRateOverride,115200
;   overridePrinterModels,1
;   printerModelsOverride,FlashForge_CreatorPro.stl
;   startingGcode,; **** Replicator 1 dual start.gcode ****,M73 P0 ; enable build progress,G162 X Y F3000 ; home XY maximum,G161 Z F1200 ; home Z minimum,G92 Z-5 ; set Z to -5,G1 Z0 ; move Z to 0,G161 Z F100 ; home Z slowly,M132 X Y Z A B ; recall home offsets,M135 T0 ; load right extruder offsets,G1 X150 Y-70 Z30 F9000 ; move to wait position right hand side of the table,G130 X20 Y20 Z20 A20 B20 ; lower stepper Vrefs while heating,M126 S[fan_speed_pwm],M140 S[bed0_temperature] T0,M134 T0 ; stabilize bed temperature,M104 S[extruder1_temperature] T1,M133 T1 ; stabilize left extruder temperature,G130 X127 Y127 Z40 A127 B127 ; default stepper Vrefs,G92 A0 B0 ; zero extruders,G1 Z0.4 ; position nozzle,M135 T1 ; left tool,G1 X110 Y-70 E30 F300 ; move nozzle,G1 X120 Y-70 Z0.15 F1200 ; slow wipe,G1 X110 Y-70 Z0.5 F1200 ; lift,G92 A0 B0 ; zero extruders,M73 P1 ;@body (notify GPX body has started),; **** end of start.gcode ****
;   layerChangeGcode,
;   retractionGcode,
;   toolChangeGcode,
;   endingGcode,; **** Replicator 1 dual end.gcode ****,M73 P100 ; end build progress,G1 Z150 F1000 ; send Z axis to bottom of machine,M140 S0 T0 ; cool down HBP,M104 S0 T0 ; cool down right extruder,M104 S0 T1 ; cool down left extruder,M127 ; stop blower fan,G162 X Y F3000 ; home XY maximum,M18 ; disable stepper,M72 P1 ; play Ta-Da song,; **** end of end.gcode ****
;   exportFileFormat,x3g
;   celebration,0
;   celebrationSong,Random Song
;   postProcessing,
;   defaultSpeed,3600
;   outlineUnderspeed,0.5
;   solidInfillUnderspeed,0.8
;   supportUnderspeed,0.8
;   rapidXYspeed,4200
;   rapidZspeed,1200
;   minBridgingArea,50
;   bridgingExtraInflation,0
;   bridgingExtrusionMultiplier,1
;   bridgingSpeedMultiplier,0.8
;   useFixedBridgingAngle,0
;   fixedBridgingAngle,0
;   applyBridgingToPerimeters,0
;   filamentDiameters,1.75|1.75|1.75|1.75|1.75|1.75
;   filamentPricesPerKg,25|25|25|25|25|25
;   filamentDensities,1.25|1.25|1.25|1.25|1.25|1.25
;   useMinPrintHeight,0
;   minPrintHeight,0
;   useMaxPrintHeight,0
;   maxPrintHeight,0
;   useDiaphragm,0
;   diaphragmLayerInterval,20
;   robustSlicing,1
;   mergeAllIntoSolid,0
;   onlyRetractWhenCrossingOutline,1
;   retractBetweenLayers,1
;   useRetractionMinTravel,0
;   retractionMinTravel,3
;   retractWhileWiping,0
;   onlyWipeOutlines,1
;   avoidCrossingOutline,0
;   maxMovementDetourFactor,3
;   toolChangeRetractionDistance,12
;   toolChangeExtraRestartDistance,-0.5
;   toolChangeRetractionSpeed,600
;   externalThinWallType,0
;   internalThinWallType,2
;   thinWallAllowedOverlapPercentage,10
;   singleExtrusionMinLength,1
;   singleExtrusionMinPrintingWidthPercentage,50
;   singleExtrusionMaxPrintingWidthPercentage,200
;   singleExtrusionEndpointExtension,0.2
;   horizontalSizeCompensation,0
G90
M83
; **** Replicator 1 dual start.gcode ****
M73 P0 ; enable build progress
G162 X Y F3000 ; home XY maximum
G161 Z F1200 ; home Z minimum
G92 Z-5 ; set Z to -5
G1 Z0 ; move Z to 0
G161 Z F100 ; home Z slowly
M132 X Y Z A B ; recall home offsets
M135 T0 ; load right extruder offsets
G1 X150 Y-70 Z30 F9000 ; move to wait position right hand side of the table
G130 X20 Y20 Z20 A20 B20 ; lower stepper Vrefs while heating
M127
M140 S55 T0
M134 T0 ; stabilize bed temperature
M104 S200 T1
M133 T1 ; stabilize left extruder temperature
G130 X127 Y127 Z40 A127 B127 ; default stepper Vrefs
G92 A0 B0 ; zero extruders
G1 Z0.4 ; position nozzle
M135 T1 ; left tool
G1 X110 Y-70 E30 F300 ; move nozzle
G1 X120 Y-70 Z0.15 F1200 ; slow wipe
G1 X110 Y-70 Z0.5 F1200 ; lift
G92 A0 B0 ; zero extruders
M73 P1 ;@body (notify GPX body has started)
; **** end of start.gcode ****
G1 E-1.0000 F1200
G1 Z0.180 F1200
; process White 100%
; layer 1, Z = 0.180
M135 T1
; tool H0.200 W0.400
; outer perimeter
G1 X-1.596 Y-2.359 F4200
G1 E1.0000 F360
G1 X-2.896 Y-2.358 E0.0389 F900
G1 X-4.313 Y-6.869 E0.1415
G1 X-3.365 Y-6.869 E0.0284
G1 X-3.081 Y-5.804 E0.0330
G1 X-1.310 Y-5.804 E0.0530
G1 X-1.023 Y-6.869 E0.0330
G1 X-0.168 Y-6.869 E0.0256
G1 X-1.596 Y-2.358 E0.1416
G1 X-2.018 Y-3.081 F4200
G1 X-1.433 Y-5.279 E0.0681 F900
G1 X-2.964 Y-5.279 E0.0458
G1 X-2.388 Y-3.081 E0.0680
G1 X-2.018 Y-3.081 E0.0111
; gap fill
G1 X-1.157 Y-4.552 F4200
G1 X-1.329 Y-4.723 E0.0073 F1440
G1 X-1.448 Y-4.276 E0.0138
G1 X-1.293 Y-4.122 E0.0065
G1 X-1.429 Y-3.692 E0.0135
G1 X-1.567 Y-3.829 E0.0058
G1 X-1.685 Y-3.383 E0.0138
G1 X-1.565 Y-3.262 E0.0051
G1 X-1.701 Y-2.833 E0.0135
G1 X-1.804 Y-2.936 E0.0044
G1 X-1.831 Y-2.837 E0.0031
G1 X-2.271 Y-2.837 E0.0132
G1 X-2.037 Y-2.602 E0.0099
G1 X-2.602 Y-2.602 E0.0169
G1 X-2.769 Y-2.769 E0.0070
G1 X-3.028 Y-3.594 E0.0259
G1 X-2.684 Y-3.250 E0.0146
G1 X-2.885 Y-4.016 E0.0237
G1 X-3.287 Y-4.419 E0.0170
G1 X-3.547 Y-5.244 E0.0259
G1 X-3.086 Y-4.783 E0.0195
G1 X-3.280 Y-5.523 E0.0229
G1 X-3.261 Y-5.523 E0.0006
G1 X-3.806 Y-6.069 E0.0231
G1 X-3.981 Y-6.625 E0.0174
G1 X-3.796 Y-6.625 E0.0055
G1 X-3.464 Y-6.292 E0.0141
G1 X-3.268 Y-5.560 E0.0227
G1 X-2.731 Y-5.560 E0.0161
G1 X-2.695 Y-5.523 E0.0015
G1 X-2.129 Y-5.523 E0.0169
G1 X-2.166 Y-5.560 E0.0015
G1 X-1.600 Y-5.560 E0.0169
G1 X-1.564 Y-5.523 E0.0015
G1 X-1.116 Y-5.523 E0.0134
G1 X-1.210 Y-5.170 E0.0109
G1 X-1.021 Y-4.981 E0.0080
G1 X-0.885 Y-5.411 E0.0135
G1 X-1.105 Y-5.630 E0.0093
G1 X-0.984 Y-6.075 E0.0138
G1 X-0.749 Y-5.841 E0.0099
G1 X-0.613 Y-6.270 E0.0135
G1 X-0.864 Y-6.521 E0.0106
G1 E-1.0000 F1200
; outer perimeter
G1 X-1.776 Y-12.269 F4200
G1 E1.0000 F1200
G1 X-2.667 Y-12.269 E0.0267 F900
G1 X-2.667 Y-16.779 E0.1350
G1 X-1.776 Y-16.779 E0.0267
G1 X-1.776 Y-12.269 E0.1350
; gap fill
G1 X-2.423 Y-12.605 F4200
G1 X-2.330 Y-12.513 E0.0039 F1440
G1 X-2.020 Y-12.513 E0.0093
G1 X-2.020 Y-12.768 E0.0076
G1 X-2.423 Y-13.171 E0.0171
G1 X-2.423 Y-13.737 E0.0169
G1 X-2.020 Y-13.333 E0.0171
G1 X-2.020 Y-13.899 E0.0169
G1 X-2.423 Y-14.302 E0.0171
G1 X-2.423 Y-14.868 E0.0169
G1 X-2.020 Y-14.465 E0.0171
G1 X-2.020 Y-15.030 E0.0169
G1 X-2.423 Y-15.434 E0.0171
G1 X-2.423 Y-15.999 E0.0169
G1 X-2.020 Y-15.596 E0.0171
G1 X-2.020 Y-16.162 E0.0169
G1 X-2.393 Y-16.535 E0.0158
G1 E-1.0000 F1200
; outer perimeter
G1 X-8.067 Y-16.779 F4200
G1 E1.0000 F1200
G1 X-8.067 Y-12.269 E0.1350 F900
G1 X-9.996 Y-12.269 E0.0577
G1 X-10.271 Y-12.281 E0.0082
G1 X-10.529 Y-12.320 E0.0078
G1 X-10.775 Y-12.389 E0.0077
G1 X-11.002 Y-12.492 E0.0075
G1 X-11.206 Y-12.632 E0.0074
G1 X-11.369 Y-12.800 E0.0070
G1 X-11.495 Y-12.994 E0.0069
G1 X-11.584 Y-13.216 E0.0072
G1 X-11.637 Y-13.464 E0.0076
G1 X-11.652 Y-13.732 E0.0080
G1 X-11.624 Y-13.989 E0.0077
G1 X-11.555 Y-14.218 E0.0072
G1 X-11.443 Y-14.432 E0.0072
G1 X-11.290 Y-14.626 E0.0074
G1 X-11.103 Y-14.787 E0.0074
G1 X-10.713 Y-15.012 E0.0135
G1 X-11.625 Y-16.779 E0.0595
G1 X-10.659 Y-16.779 E0.0289
G1 X-9.838 Y-15.063 E0.0569
G1 X-8.933 Y-15.063 E0.0271
G1 X-8.933 Y-16.779 E0.0514
G1 X-8.067 Y-16.779 E0.0259
G1 X-8.933 Y-14.573 F4200
G1 X-9.974 Y-14.560 E0.0312 F900
G1 X-10.150 Y-14.521 E0.0054
G1 X-10.309 Y-14.455 E0.0052
G1 X-10.451 Y-14.358 E0.0051
G1 X-10.569 Y-14.231 E0.0052
G1 X-10.656 Y-14.076 E0.0053
G1 X-10.709 Y-13.900 E0.0055
G1 X-10.726 Y-13.705 E0.0059
G1 X-10.708 Y-13.506 E0.0060
G1 X-10.653 Y-13.326 E0.0056
G1 X-10.564 Y-13.169 E0.0054
G1 X-10.446 Y-13.040 E0.0052
G1 X-10.305 Y-12.940 E0.0052
G1 X-10.148 Y-12.871 E0.0051
G1 X-9.974 Y-12.829 E0.0053
G1 X-8.933 Y-12.816 E0.0312
G1 X-8.933 Y-14.573 E0.0526
; gap fill
G1 X-9.158 Y-14.815 F4200
G1 X-9.162 Y-14.819 E0.0002 F1440
G1 X-9.728 Y-14.819 E0.0169
G1 X-9.716 Y-14.807 E0.0005
G1 X-10.002 Y-14.804 E0.0086
G1 X-10.225 Y-14.754 E0.0068
G1 X-10.228 Y-14.753 E0.0001
G1 X-10.391 Y-14.916 E0.0069
G1 X-10.750 Y-14.710 E0.0124
G1 X-10.595 Y-14.555 E0.0065
G1 X-10.611 Y-14.544 E0.0006
G1 X-10.767 Y-14.375 E0.0069
G1 X-10.845 Y-14.239 E0.0047
G1 X-11.086 Y-14.480 E0.0102
G1 X-11.113 Y-14.456 E0.0011
G1 X-11.237 Y-14.299 E0.0060
G1 X-11.317 Y-14.146 E0.0052
G1 X-10.963 Y-13.792 E0.0150
G1 X-10.971 Y-13.705 E0.0026
G1 X-10.948 Y-13.459 E0.0074
G1 X-10.878 Y-13.229 E0.0072
G1 X-10.764 Y-13.026 E0.0070
G1 X-11.404 Y-13.667 E0.0271
G1 X-11.395 Y-13.496 E0.0051
G1 X-11.350 Y-13.288 E0.0064
G1 X-11.277 Y-13.107 E0.0058
G1 X-11.177 Y-12.953 E0.0055
G1 X-11.047 Y-12.820 E0.0056
G1 X-10.882 Y-12.706 E0.0060
G1 X-10.691 Y-12.619 E0.0063
G1 X-10.477 Y-12.559 E0.0067
G1 X-10.264 Y-12.527 E0.0064
G1 X-10.556 Y-12.819 E0.0124
G1 X-10.425 Y-12.727 E0.0048
G1 X-10.226 Y-12.639 E0.0065
G1 X-10.005 Y-12.586 E0.0068
G1 X-9.754 Y-12.582 E0.0075
G1 X-9.684 Y-12.513 E0.0030
G1 X-9.118 Y-12.513 E0.0169
G1 X-9.181 Y-12.575 E0.0026
G1 X-8.689 Y-12.568 E0.0147
G1 X-8.689 Y-12.649 E0.0024
G1 X-8.553 Y-12.513 E0.0058
G1 X-8.311 Y-12.513 E0.0072
G1 X-8.311 Y-12.836 E0.0097
G1 X-8.689 Y-13.215 E0.0160
G1 X-8.689 Y-13.780 E0.0169
G1 X-8.311 Y-13.402 E0.0160
G1 X-8.311 Y-13.968 E0.0169
G1 X-8.689 Y-14.346 E0.0160
G1 X-8.689 Y-14.820 E0.0142
G1 X-8.689 Y-14.912 E0.0027
G1 X-8.311 Y-14.534 E0.0160
G1 X-8.311 Y-15.099 E0.0169
G1 X-8.689 Y-15.477 E0.0160
G1 X-8.689 Y-16.043 E0.0169
G1 X-8.311 Y-15.665 E0.0160
G1 X-8.311 Y-16.231 E0.0169
G1 X-8.615 Y-16.535 E0.0129
G1 E-1.0000 F1200
G1 X-10.878 Y-16.535 F4200
G1 E1.0000 F1200
G1 X-10.753 Y-16.409 E0.0053 F1440
G1 X-10.235 Y-15.326 E0.0360
G1 X-10.991 Y-16.082 E0.0320
G1 E-1.0000 F1200
; outer perimeter
G1 X-10.512 Y-22.180 F4200
G1 E1.0000 F1200
G1 X-10.770 Y-22.206 E0.0078 F900
G1 X-11.023 Y-22.259 E0.0077
G1 X-11.252 Y-22.338 E0.0073
G1 X-11.477 Y-22.450 E0.0075
G1 X-11.681 Y-22.592 E0.0074
G1 X-11.857 Y-22.763 E0.0073
G1 X-12.002 Y-22.960 E0.0073
G1 X-12.109 Y-23.172 E0.0071
G1 X-12.182 Y-23.408 E0.0074
G1 X-12.217 Y-23.663 E0.0077
G1 X-12.218 Y-23.729 E0.0020
G1 X-11.378 Y-23.729 E0.0251
G1 X-11.375 Y-23.691 E0.0012
G1 X-11.314 Y-23.465 E0.0070
G1 X-11.210 Y-23.259 E0.0069
G1 X-11.061 Y-23.082 E0.0069
G1 X-10.871 Y-22.947 E0.0070
G1 X-10.650 Y-22.863 E0.0071
G1 X-10.410 Y-22.833 E0.0072
G1 X-10.167 Y-22.854 E0.0073
G1 X-9.942 Y-22.931 E0.0071
G1 X-9.745 Y-23.062 E0.0071
G1 X-9.586 Y-23.243 E0.0072
G1 X-9.475 Y-23.444 E0.0069
G1 X-9.403 Y-23.652 E0.0066
G1 X-9.336 Y-24.062 E0.0124
G1 X-9.333 Y-24.939 E0.0263
G1 X-9.355 Y-25.165 E0.0068
G1 X-9.400 Y-25.383 E0.0066
G1 X-9.478 Y-25.607 E0.0071
G1 X-9.601 Y-25.819 E0.0073
G1 X-9.774 Y-26.000 E0.0075
G1 X-9.995 Y-26.129 E0.0077
G1 X-10.248 Y-26.194 E0.0078
G1 X-10.512 Y-26.197 E0.0079
G1 X-10.765 Y-26.141 E0.0077
G1 X-10.998 Y-26.017 E0.0079
G1 X-11.183 Y-25.830 E0.0079
G1 X-11.302 Y-25.621 E0.0072
G1 X-11.374 Y-25.375 E0.0077
G1 X-11.378 Y-25.327 E0.0014
G1 X-12.218 Y-25.327 E0.0252
G1 X-12.217 Y-25.398 E0.0021
G1 X-12.181 Y-25.650 E0.0076
G1 X-12.107 Y-25.881 E0.0073
G1 X-11.998 Y-26.093 E0.0071
G1 X-11.853 Y-26.284 E0.0072
G1 X-11.676 Y-26.452 E0.0073
G1 X-11.465 Y-26.596 E0.0076
G1 X-11.233 Y-26.707 E0.0077
G1 X-10.999 Y-26.783 E0.0074
G1 X-10.741 Y-26.834 E0.0079
G1 X-10.473 Y-26.857 E0.0081
G1 X-10.196 Y-26.853 E0.0083
G1 X-9.930 Y-26.823 E0.0080
G1 X-9.687 Y-26.767 E0.0075
G1 X-9.449 Y-26.681 E0.0076
G1 X-9.229 Y-26.563 E0.0075
G1 X-9.031 Y-26.414 E0.0074
G1 X-8.859 Y-26.236 E0.0074
G1 X-8.715 Y-26.031 E0.0075
G1 X-8.608 Y-25.820 E0.0071
