; G-Code generated by Simplify3D(R) Version 4.0.0
; Jul 27, 2017 at 10:57:20 AM
; Settings Summary
;   processName,Black 30% Left
;   applyToModels,middle-bottom
;   profileName,Default (modified)
;   profileVersion,2015-05-01 08:00:00
;   baseProfile,
;   printMaterial,PLA
;   printQuality,Medium
;   printExtruders,Left Extruder Only
;   extruderName,Right Extruder,Left Extruder
;   extruderToolheadNumber,0,1
;   extruderDiameter,0.4,0.4
;   extruderAutoWidth,0,0
;   extruderWidth,0.4,0.4
;   extrusionMultiplier,0.9,0.97
;   extruderUseRetract,1,1
;   extruderRetractionDistance,1,1
;   extruderExtraRestartDistance,0,0
;   extruderRetractionZLift,0,0
;   extruderRetractionSpeed,1200,1200
;   extruderUseCoasting,0,0
;   extruderCoastingDistance,0.2,0.2
;   extruderUseWipe,0,0
;   extruderWipeDistance,5,5
;   primaryExtruder,1
;   layerHeight,0.2
;   topSolidLayers,3
;   bottomSolidLayers,3
;   perimeterOutlines,2
;   printPerimetersInsideOut,1
;   startPointOption,2
;   startPointOriginX,0
;   startPointOriginY,0
;   sequentialIslands,0
;   spiralVaseMode,0
;   firstLayerHeightPercentage,90
;   firstLayerWidthPercentage,100
;   firstLayerUnderspeed,0.5
;   useRaft,0
;   raftExtruder,1
;   raftTopLayers,3
;   raftBaseLayers,2
;   raftOffset,3
;   raftSeparationDistance,0.14
;   raftTopInfill,100
;   aboveRaftSpeedMultiplier,0.3
;   useSkirt,0
;   skirtExtruder,1
;   skirtLayers,1
;   skirtOutlines,2
;   skirtOffset,4
;   usePrimePillar,0
;   primePillarExtruder,999
;   primePillarWidth,12
;   primePillarLocation,7
;   primePillarSpeedMultiplier,1
;   useOozeShield,0
;   oozeShieldExtruder,999
;   oozeShieldOffset,2
;   oozeShieldOutlines,1
;   oozeShieldSidewallShape,1
;   oozeShieldSidewallAngle,30
;   oozeShieldSpeedMultiplier,1
;   infillExtruder,1
;   internalInfillPattern,Rectilinear
;   externalInfillPattern,Rectilinear
;   infillPercentage,30
;   outlineOverlapPercentage,20
;   infillExtrusionWidthPercentage,100
;   minInfillLength,5
;   infillLayerInterval,1
;   internalInfillAngles,45,-45
;   overlapInternalInfillAngles,0
;   externalInfillAngles,45,-45
;   generateSupport,0
;   supportExtruder,1
;   supportInfillPercentage,30
;   supportExtraInflation,0
;   supportBaseLayers,0
;   denseSupportExtruder,1
;   denseSupportLayers,0
;   denseSupportInfillPercentage,70
;   supportLayerInterval,1
;   supportHorizontalPartOffset,0.3
;   supportUpperSeparationLayers,1
;   supportLowerSeparationLayers,1
;   supportType,0
;   supportGridSpacing,4
;   maxOverhangAngle,45
;   supportAngles,0
;   temperatureName,Right Extruder,Left Extruder,Heated Build Platform
;   temperatureNumber,0,1,0
;   temperatureSetpointCount,1,1,1
;   temperatureSetpointLayers,1,1,1
;   temperatureSetpointTemperatures,0,210,55
;   temperatureStabilizeAtStartup,0,0,0
;   temperatureHeatedBed,0,0,1
;   temperatureRelayBetweenLayers,0,0,0
;   temperatureRelayBetweenLoops,0,0,0
;   fanLayers,1,2
;   fanSpeeds,0,100
;   blipFanToFullPower,0
;   adjustSpeedForCooling,1
;   minSpeedLayerTime,15
;   minCoolingSpeedSlowdown,20
;   increaseFanForCooling,0
;   minFanLayerTime,45
;   maxCoolingFanSpeed,100
;   increaseFanForBridging,1
;   bridgingFanSpeed,100
;   use5D,1
;   relativeEdistances,1
;   allowEaxisZeroing,0
;   independentExtruderAxes,1
;   includeM10123,0
;   stickySupport,1
;   applyToolheadOffsets,0
;   gcodeXoffset,0
;   gcodeYoffset,0
;   gcodeZoffset,0
;   overrideMachineDefinition,1
;   machineTypeOverride,0
;   strokeXoverride,225
;   strokeYoverride,145
;   strokeZoverride,150
;   originOffsetXoverride,112.5
;   originOffsetYoverride,72.5
;   originOffsetZoverride,0
;   homeXdirOverride,1
;   homeYdirOverride,1
;   homeZdirOverride,-1
;   flipXoverride,1
;   flipYoverride,-1
;   flipZoverride,1
;   toolheadOffsets,0,0|34,0|0,0|0,0|0,0|0,0
;   overrideFirmwareConfiguration,1
;   firmwareTypeOverride,MakerBot/Sailfish Firmware
;   GPXconfigOverride,r1d
;   baudRateOverride,115200
;   overridePrinterModels,1
;   printerModelsOverride,FlashForge_CreatorPro.stl
;   startingGcode,; **** Replicator 1 dual start.gcode ****,M73 P0 ; enable build progress,G162 X Y F3000 ; home XY maximum,G161 Z F1200 ; home Z minimum,G92 Z-5 ; set Z to -5,G1 Z0 ; move Z to 0,G161 Z F100 ; home Z slowly,M132 X Y Z A B ; recall home offsets,M135 T0 ; load right extruder offsets,G1 X150 Y-70 Z30 F9000 ; move to wait position right hand side of the table,G130 X20 Y20 Z20 A20 B20 ; lower stepper Vrefs while heating,M126 S[fan_speed_pwm],M140 S[bed0_temperature] T0,M134 T0 ; stabilize bed temperature,M104 S[extruder1_temperature] T1,M133 T1 ; stabilize left extruder temperature,G130 X127 Y127 Z40 A127 B127 ; default stepper Vrefs,G92 A0 B0 ; zero extruders,G1 Z0.4 ; position nozzle,M135 T1 ; left tool,G1 X110 Y-70 E30 F300 ; move nozzle,G1 X120 Y-70 Z0.15 F1200 ; slow wipe,G1 X110 Y-70 Z0.5 F1200 ; lift,G92 A0 B0 ; zero extruders,M73 P1 ;@body (notify GPX body has started),; **** end of start.gcode ****
;   layerChangeGcode,
;   retractionGcode,
;   toolChangeGcode,
;   endingGcode,; **** Replicator 1 dual end.gcode ****,M73 P100 ; end build progress,G1 Z150 F1000 ; send Z axis to bottom of machine,M140 S0 T0 ; cool down HBP,M104 S0 T0 ; cool down right extruder,M104 S0 T1 ; cool down left extruder,M127 ; stop blower fan,G162 X Y F3000 ; home XY maximum,M18 ; disable stepper,M72 P1 ; play Ta-Da song,; **** end of end.gcode ****
;   exportFileFormat,x3g
;   celebration,0
;   celebrationSong,Random Song
;   postProcessing,
;   defaultSpeed,3600
;   outlineUnderspeed,0.5
;   solidInfillUnderspeed,0.8
;   supportUnderspeed,0.8
;   rapidXYspeed,4200
;   rapidZspeed,1200
;   minBridgingArea,50
;   bridgingExtraInflation,0
;   bridgingExtrusionMultiplier,1
;   bridgingSpeedMultiplier,0.8
;   useFixedBridgingAngle,0
;   fixedBridgingAngle,0
;   applyBridgingToPerimeters,0
;   filamentDiameters,1.75|1.75|1.75|1.75|1.75|1.75
;   filamentPricesPerKg,25|25|25|25|25|25
;   filamentDensities,1.25|1.25|1.25|1.25|1.25|1.25
;   useMinPrintHeight,0
;   minPrintHeight,0
;   useMaxPrintHeight,0
;   maxPrintHeight,0
;   useDiaphragm,0
;   diaphragmLayerInterval,20
;   robustSlicing,1
;   mergeAllIntoSolid,0
;   onlyRetractWhenCrossingOutline,1
;   retractBetweenLayers,1
;   useRetractionMinTravel,0
;   retractionMinTravel,3
;   retractWhileWiping,0
;   onlyWipeOutlines,1
;   avoidCrossingOutline,0
;   maxMovementDetourFactor,3
;   toolChangeRetractionDistance,12
;   toolChangeExtraRestartDistance,-0.5
;   toolChangeRetractionSpeed,600
;   externalThinWallType,0
;   internalThinWallType,2
;   thinWallAllowedOverlapPercentage,10
;   singleExtrusionMinLength,1
;   singleExtrusionMinPrintingWidthPercentage,50
;   singleExtrusionMaxPrintingWidthPercentage,200
;   singleExtrusionEndpointExtension,0.2
;   horizontalSizeCompensation,0
G90
M83
; **** Replicator 1 dual start.gcode ****
M73 P0 ; enable build progress
G162 X Y F3000 ; home XY maximum
G161 Z F1200 ; home Z minimum
G92 Z-5 ; set Z to -5
G1 Z0 ; move Z to 0
G161 Z F100 ; home Z slowly
M132 X Y Z A B ; recall home offsets
M135 T0 ; load right extruder offsets
G1 X150 Y-70 Z30 F9000 ; move to wait position right hand side of the table
G130 X20 Y20 Z20 A20 B20 ; lower stepper Vrefs while heating
M127
M140 S55 T0
M134 T0 ; stabilize bed temperature
M104 S210 T1
M133 T1 ; stabilize left extruder temperature
G130 X127 Y127 Z40 A127 B127 ; default stepper Vrefs
G92 A0 B0 ; zero extruders
G1 Z0.4 ; position nozzle
M135 T1 ; left tool
G1 X110 Y-70 E30 F300 ; move nozzle
G1 X120 Y-70 Z0.15 F1200 ; slow wipe
G1 X110 Y-70 Z0.5 F1200 ; lift
G92 A0 B0 ; zero extruders
M73 P1 ;@body (notify GPX body has started)
; **** end of start.gcode ****
G1 E-1.0000 F1200
G1 Z0.180 F1200
; process Black 30% Left
; layer 1, Z = 0.180
M135 T1
; tool H0.200 W0.400
; inner perimeter
G1 X101.000 Y69.250 F4200
G1 E1.0000 F360
G1 X-101.000 Y69.250 E6.5170 F1350
G1 X-101.000 Y-69.250 E4.4683
G1 X101.000 Y-69.250 E6.5170
G1 X101.000 Y69.250 E4.4683
; outer perimeter
G1 X101.400 Y69.650 F4200
G1 X-101.400 Y69.650 E6.5428 F900
G1 X-101.400 Y-69.650 E4.4941
G1 X101.400 Y-69.650 E6.5428
G1 X101.400 Y69.650 E4.4941
; inner perimeter
G1 X78.766 Y65.252 F4200
G1 X78.803 Y64.850 E0.0130 F1350
G1 X78.765 Y64.446 E0.0131
G1 X78.654 Y64.056 E0.0131
G1 X78.453 Y63.659 E0.0143
G1 X78.142 Y63.278 E0.0159
G1 X77.804 Y63.005 E0.0140
G1 X77.411 Y62.802 E0.0143
G1 X77.002 Y62.684 E0.0137
G1 X76.600 Y62.647 E0.0130
G1 X76.193 Y62.685 E0.0132
G1 X75.768 Y62.812 E0.0143
G1 X75.410 Y62.997 E0.0130
G1 X75.057 Y63.278 E0.0145
G1 X74.756 Y63.643 E0.0153
G1 X74.552 Y64.039 E0.0144
G1 X74.434 Y64.448 E0.0137
G1 X74.397 Y64.850 E0.0130
G1 X74.435 Y65.253 E0.0131
G1 X74.546 Y65.644 E0.0131
G1 X74.745 Y66.038 E0.0142
G1 X75.028 Y66.393 E0.0146
G1 X75.393 Y66.694 E0.0153
G1 X75.789 Y66.898 E0.0144
G1 X76.198 Y67.016 E0.0137
G1 X76.600 Y67.053 E0.0130
G1 X77.003 Y67.015 E0.0131
G1 X77.394 Y66.904 E0.0131
G1 X77.788 Y66.705 E0.0142
G1 X78.143 Y66.422 E0.0146
G1 X78.444 Y66.057 E0.0153
G1 X78.648 Y65.661 E0.0144
G1 X78.766 Y65.252 E0.0137
; outer perimeter
G1 X78.371 Y65.178 F4200
G1 X78.401 Y64.850 E0.0106 F900
G1 X78.370 Y64.520 E0.0107
G1 X78.280 Y64.202 E0.0107
G1 X78.116 Y63.878 E0.0117
G1 X77.859 Y63.563 E0.0131
G1 X77.584 Y63.342 E0.0114
G1 X77.262 Y63.175 E0.0117
G1 X76.928 Y63.079 E0.0112
G1 X76.600 Y63.049 E0.0106
G1 X76.269 Y63.080 E0.0107
G1 X75.918 Y63.184 E0.0118
G1 X75.628 Y63.334 E0.0105
G1 X75.339 Y63.565 E0.0119
G1 X75.092 Y63.865 E0.0125
G1 X74.925 Y64.188 E0.0117
G1 X74.829 Y64.522 E0.0112
G1 X74.799 Y64.850 E0.0106
G1 X74.830 Y65.180 E0.0107
G1 X74.920 Y65.498 E0.0107
G1 X75.084 Y65.821 E0.0117
G1 X75.315 Y66.111 E0.0120
G1 X75.615 Y66.358 E0.0125
G1 X75.938 Y66.525 E0.0117
G1 X76.272 Y66.621 E0.0112
G1 X76.600 Y66.651 E0.0106
G1 X76.930 Y66.620 E0.0107
G1 X77.248 Y66.530 E0.0107
G1 X77.571 Y66.366 E0.0117
G1 X77.861 Y66.135 E0.0120
G1 X78.108 Y65.835 E0.0125
G1 X78.275 Y65.512 E0.0117
G1 X78.371 Y65.178 E0.0112
; inner perimeter
G1 X95.028 Y46.393 F4200
G1 X95.393 Y46.694 E0.0153 F1350
G1 X95.789 Y46.898 E0.0144
G1 X96.198 Y47.016 E0.0137
G1 X96.600 Y47.053 E0.0130
G1 X97.004 Y47.015 E0.0131
G1 X97.394 Y46.904 E0.0131
G1 X97.791 Y46.703 E0.0144
G1 X98.172 Y46.392 E0.0159
G1 X98.445 Y46.054 E0.0140
G1 X98.648 Y45.661 E0.0143
G1 X98.766 Y45.252 E0.0137
G1 X98.803 Y44.850 E0.0130
G1 X98.765 Y44.443 E0.0132
G1 X98.638 Y44.018 E0.0143
G1 X98.453 Y43.660 E0.0130
G1 X98.172 Y43.307 E0.0145
G1 X97.807 Y43.006 E0.0153
G1 X97.411 Y42.802 E0.0144
G1 X97.002 Y42.684 E0.0137
G1 X96.600 Y42.647 E0.0130
G1 X96.197 Y42.685 E0.0131
G1 X95.806 Y42.796 E0.0131
G1 X95.412 Y42.995 E0.0142
G1 X95.057 Y43.278 E0.0146
G1 X94.756 Y43.643 E0.0153
G1 X94.552 Y44.039 E0.0144
G1 X94.434 Y44.448 E0.0137
G1 X94.397 Y44.850 E0.0130
G1 X94.435 Y45.254 E0.0131
G1 X94.546 Y45.644 E0.0131
G1 X94.745 Y46.038 E0.0142
G1 X95.028 Y46.393 E0.0146
; outer perimeter
G1 X95.315 Y46.111 F4200
G1 X95.615 Y46.358 E0.0125 F900
G1 X95.938 Y46.525 E0.0117
G1 X96.272 Y46.621 E0.0112
G1 X96.600 Y46.651 E0.0106
G1 X96.930 Y46.620 E0.0107
G1 X97.248 Y46.530 E0.0107
G1 X97.572 Y46.366 E0.0117
G1 X97.887 Y46.109 E0.0131
G1 X98.108 Y45.834 E0.0114
G1 X98.275 Y45.512 E0.0117
G1 X98.371 Y45.178 E0.0112
G1 X98.401 Y44.850 E0.0106
G1 X98.370 Y44.519 E0.0107
G1 X98.266 Y44.168 E0.0118
G1 X98.116 Y43.878 E0.0105
G1 X97.885 Y43.589 E0.0119
G1 X97.585 Y43.342 E0.0125
G1 X97.262 Y43.175 E0.0117
G1 X96.928 Y43.079 E0.0112
G1 X96.600 Y43.049 E0.0106
G1 X96.270 Y43.080 E0.0107
G1 X95.952 Y43.170 E0.0107
G1 X95.629 Y43.334 E0.0117
G1 X95.339 Y43.565 E0.0120
G1 X95.092 Y43.865 E0.0125
G1 X94.925 Y44.188 E0.0117
G1 X94.829 Y44.522 E0.0112
G1 X94.799 Y44.850 E0.0106
G1 X94.830 Y45.180 E0.0107
G1 X94.920 Y45.498 E0.0107
G1 X95.084 Y45.821 E0.0117
G1 X95.315 Y46.111 E0.0120
; inner perimeter
G1 X45.404 Y60.488 F4200
G1 X45.205 Y60.094 E0.0142 F1350
G1 X44.922 Y59.739 E0.0146
G1 X44.557 Y59.438 E0.0153
G1 X44.161 Y59.234 E0.0144
G1 X43.752 Y59.116 E0.0137
G1 X43.350 Y59.079 E0.0130
G1 X42.946 Y59.117 E0.0131
G1 X42.552 Y59.229 E0.0132
G1 X42.127 Y59.451 E0.0155
G1 X41.805 Y59.712 E0.0134
G1 X41.506 Y60.075 E0.0152
G1 X41.302 Y60.471 E0.0144
G1 X41.184 Y60.880 E0.0137
G1 X41.147 Y61.282 E0.0130
G1 X41.185 Y61.686 E0.0131
G1 X41.296 Y62.076 E0.0131
G1 X41.495 Y62.470 E0.0142
G1 X41.778 Y62.825 E0.0146
G1 X42.143 Y63.126 E0.0153
G1 X42.539 Y63.330 E0.0144
G1 X42.948 Y63.448 E0.0137
G1 X43.350 Y63.485 E0.0130
G1 X43.753 Y63.447 E0.0131
G1 X44.148 Y63.335 E0.0132
G1 X44.573 Y63.113 E0.0155
G1 X44.895 Y62.852 E0.0134
G1 X45.194 Y62.489 E0.0152
G1 X45.398 Y62.093 E0.0144
G1 X45.516 Y61.684 E0.0137
G1 X45.553 Y61.282 E0.0130
G1 X45.515 Y60.879 E0.0131
G1 X45.404 Y60.488 E0.0131
; outer perimeter
G1 X45.030 Y60.634 F4200
G1 X44.866 Y60.311 E0.0117 F900
G1 X44.635 Y60.021 E0.0120
G1 X44.335 Y59.774 E0.0125
G1 X44.012 Y59.607 E0.0117
G1 X43.678 Y59.511 E0.0112
G1 X43.350 Y59.481 E0.0106
G1 X43.020 Y59.512 E0.0107
G1 X42.701 Y59.603 E0.0107
G1 X42.348 Y59.787 E0.0128
G1 X42.089 Y59.997 E0.0108
G1 X41.842 Y60.297 E0.0125
G1 X41.675 Y60.620 E0.0117
G1 X41.579 Y60.954 E0.0112
G1 X41.549 Y61.282 E0.0106
G1 X41.580 Y61.612 E0.0107
G1 X41.670 Y61.930 E0.0107
G1 X41.834 Y62.253 E0.0117
G1 X42.065 Y62.543 E0.0120
G1 X42.365 Y62.790 E0.0125
G1 X42.688 Y62.957 E0.0117
G1 X43.022 Y63.053 E0.0112
G1 X43.350 Y63.083 E0.0106
G1 X43.680 Y63.052 E0.0107
G1 X43.999 Y62.961 E0.0107
G1 X44.352 Y62.777 E0.0128
G1 X44.611 Y62.567 E0.0108
G1 X44.858 Y62.267 E0.0125
G1 X45.025 Y61.944 E0.0117
G1 X45.121 Y61.610 E0.0112
G1 X45.151 Y61.282 E0.0106
G1 X45.120 Y60.952 E0.0107
G1 X45.030 Y60.634 E0.0107
G1 E-1.0000 F1200
; inner perimeter
G1 X-41.147 Y61.282 F4200
G1 E1.0000 F1200
G1 X-41.185 Y60.875 E0.0132 F1350
G1 X-41.313 Y60.446 E0.0144
G1 X-41.522 Y60.054 E0.0143
G1 X-41.809 Y59.709 E0.0145
G1 X-42.129 Y59.449 E0.0133
G1 X-42.537 Y59.234 E0.0149
G1 X-42.948 Y59.116 E0.0138
G1 X-43.350 Y59.079 E0.0130
G1 X-43.754 Y59.117 E0.0131
G1 X-44.144 Y59.228 E0.0131
G1 X-44.541 Y59.429 E0.0144
G1 X-44.922 Y59.740 E0.0159
G1 X-45.195 Y60.078 E0.0140
G1 X-45.398 Y60.471 E0.0143
G1 X-45.516 Y60.880 E0.0137
G1 X-45.553 Y61.282 E0.0130
G1 X-45.515 Y61.689 E0.0132
G1 X-45.387 Y62.118 E0.0144
G1 X-45.178 Y62.510 E0.0143
G1 X-44.890 Y62.856 E0.0145
G1 X-44.554 Y63.127 E0.0139
G1 X-44.161 Y63.330 E0.0143
G1 X-43.752 Y63.448 E0.0137
G1 X-43.350 Y63.485 E0.0130
G1 X-42.943 Y63.447 E0.0132
G1 X-42.514 Y63.319 E0.0144
G1 X-42.122 Y63.110 E0.0143
G1 X-41.776 Y62.822 E0.0145
G1 X-41.505 Y62.486 E0.0139
G1 X-41.302 Y62.093 E0.0143
G1 X-41.184 Y61.684 E0.0137
G1 X-41.147 Y61.282 E0.0130
; outer perimeter
G1 X-41.549 Y61.282 F4200
G1 X-41.580 Y60.951 E0.0107 F900
G1 X-41.685 Y60.599 E0.0119
G1 X-41.856 Y60.278 E0.0117
G1 X-42.092 Y59.995 E0.0119
G1 X-42.351 Y59.785 E0.0108
G1 X-42.687 Y59.607 E0.0123
G1 X-43.022 Y59.511 E0.0113
G1 X-43.350 Y59.481 E0.0106
G1 X-43.680 Y59.512 E0.0107
G1 X-43.998 Y59.602 E0.0107
G1 X-44.322 Y59.766 E0.0117
G1 X-44.637 Y60.023 E0.0131
G1 X-44.858 Y60.298 E0.0114
G1 X-45.025 Y60.620 E0.0117
G1 X-45.121 Y60.954 E0.0112
G1 X-45.151 Y61.282 E0.0106
G1 X-45.120 Y61.613 E0.0107
G1 X-45.015 Y61.965 E0.0119
G1 X-44.844 Y62.286 E0.0117
G1 X-44.608 Y62.570 E0.0119
G1 X-44.334 Y62.790 E0.0113
G1 X-44.012 Y62.957 E0.0117
G1 X-43.678 Y63.053 E0.0112
G1 X-43.350 Y63.083 E0.0106
G1 X-43.019 Y63.052 E0.0107
G1 X-42.667 Y62.947 E0.0119
G1 X-42.346 Y62.776 E0.0117
G1 X-42.062 Y62.540 E0.0119
G1 X-41.842 Y62.266 E0.0113
G1 X-41.675 Y61.944 E0.0117
G1 X-41.579 Y61.610 E0.0112
G1 X-41.549 Y61.282 E0.0106
G1 E-1.0000 F1200
; inner perimeter
G1 X-74.435 Y64.446 F4200
G1 E1.0000 F1200
G1 X-74.546 Y64.056 E0.0131 F1350
G1 X-74.745 Y63.662 E0.0142
G1 X-75.028 Y63.307 E0.0146
G1 X-75.393 Y63.006 E0.0153
G1 X-75.789 Y62.802 E0.0144
G1 X-76.198 Y62.684 E0.0137
G1 X-76.600 Y62.647 E0.0130
G1 X-77.003 Y62.685 E0.0131
G1 X-77.394 Y62.796 E0.0131
G1 X-77.788 Y62.995 E0.0142
G1 X-78.143 Y63.278 E0.0146
G1 X-78.444 Y63.643 E0.0153
G1 X-78.648 Y64.039 E0.0144
G1 X-78.766 Y64.448 E0.0137
