; G-Code generated by Simplify3D(R) Version 4.0.0
; Jul 25, 2017 at 8:26:24 AM
; Settings Summary
;   processName,Black 30% Left
;   applyToModels,middle-top
;   profileName,Default (modified)
;   profileVersion,2015-05-01 08:00:00
;   baseProfile,
;   printMaterial,PLA
;   printQuality,Medium
;   printExtruders,Left Extruder Only
;   extruderName,Right Extruder,Left Extruder
;   extruderToolheadNumber,0,1
;   extruderDiameter,0.4,0.4
;   extruderAutoWidth,0,0
;   extruderWidth,0.4,0.4
;   extrusionMultiplier,0.9,0.97
;   extruderUseRetract,1,1
;   extruderRetractionDistance,1,1
;   extruderExtraRestartDistance,0,0
;   extruderRetractionZLift,0,0
;   extruderRetractionSpeed,1200,1200
;   extruderUseCoasting,0,0
;   extruderCoastingDistance,0.2,0.2
;   extruderUseWipe,0,0
;   extruderWipeDistance,5,5
;   primaryExtruder,1
;   layerHeight,0.2
;   topSolidLayers,3
;   bottomSolidLayers,3
;   perimeterOutlines,2
;   printPerimetersInsideOut,1
;   startPointOption,2
;   startPointOriginX,0
;   startPointOriginY,0
;   sequentialIslands,0
;   spiralVaseMode,0
;   firstLayerHeightPercentage,90
;   firstLayerWidthPercentage,100
;   firstLayerUnderspeed,0.5
;   useRaft,0
;   raftExtruder,1
;   raftTopLayers,3
;   raftBaseLayers,2
;   raftOffset,3
;   raftSeparationDistance,0.14
;   raftTopInfill,100
;   aboveRaftSpeedMultiplier,0.3
;   useSkirt,0
;   skirtExtruder,1
;   skirtLayers,1
;   skirtOutlines,2
;   skirtOffset,4
;   usePrimePillar,0
;   primePillarExtruder,999
;   primePillarWidth,12
;   primePillarLocation,7
;   primePillarSpeedMultiplier,1
;   useOozeShield,0
;   oozeShieldExtruder,999
;   oozeShieldOffset,2
;   oozeShieldOutlines,1
;   oozeShieldSidewallShape,1
;   oozeShieldSidewallAngle,30
;   oozeShieldSpeedMultiplier,1
;   infillExtruder,1
;   internalInfillPattern,Rectilinear
;   externalInfillPattern,Rectilinear
;   infillPercentage,30
;   outlineOverlapPercentage,20
;   infillExtrusionWidthPercentage,100
;   minInfillLength,5
;   infillLayerInterval,1
;   internalInfillAngles,45,-45
;   overlapInternalInfillAngles,0
;   externalInfillAngles,45,-45
;   generateSupport,0
;   supportExtruder,1
;   supportInfillPercentage,30
;   supportExtraInflation,0
;   supportBaseLayers,0
;   denseSupportExtruder,1
;   denseSupportLayers,0
;   denseSupportInfillPercentage,70
;   supportLayerInterval,1
;   supportHorizontalPartOffset,0.3
;   supportUpperSeparationLayers,1
;   supportLowerSeparationLayers,1
;   supportType,0
;   supportGridSpacing,4
;   maxOverhangAngle,45
;   supportAngles,0
;   temperatureName,Right Extruder,Left Extruder,Heated Build Platform
;   temperatureNumber,0,1,0
;   temperatureSetpointCount,1,1,1
;   temperatureSetpointLayers,1,1,1
;   temperatureSetpointTemperatures,0,210,55
;   temperatureStabilizeAtStartup,0,0,0
;   temperatureHeatedBed,0,0,1
;   temperatureRelayBetweenLayers,0,0,0
;   temperatureRelayBetweenLoops,0,0,0
;   fanLayers,1,2
;   fanSpeeds,0,100
;   blipFanToFullPower,0
;   adjustSpeedForCooling,1
;   minSpeedLayerTime,15
;   minCoolingSpeedSlowdown,20
;   increaseFanForCooling,0
;   minFanLayerTime,45
;   maxCoolingFanSpeed,100
;   increaseFanForBridging,1
;   bridgingFanSpeed,100
;   use5D,1
;   relativeEdistances,1
;   allowEaxisZeroing,0
;   independentExtruderAxes,1
;   includeM10123,0
;   stickySupport,1
;   applyToolheadOffsets,0
;   gcodeXoffset,0
;   gcodeYoffset,0
;   gcodeZoffset,0
;   overrideMachineDefinition,1
;   machineTypeOverride,0
;   strokeXoverride,225
;   strokeYoverride,145
;   strokeZoverride,150
;   originOffsetXoverride,112.5
;   originOffsetYoverride,72.5
;   originOffsetZoverride,0
;   homeXdirOverride,1
;   homeYdirOverride,1
;   homeZdirOverride,-1
;   flipXoverride,1
;   flipYoverride,-1
;   flipZoverride,1
;   toolheadOffsets,0,0|34,0|0,0|0,0|0,0|0,0
;   overrideFirmwareConfiguration,1
;   firmwareTypeOverride,MakerBot/Sailfish Firmware
;   GPXconfigOverride,r1d
;   baudRateOverride,115200
;   overridePrinterModels,1
;   printerModelsOverride,FlashForge_CreatorPro.stl
;   startingGcode,; **** Replicator 1 dual start.gcode ****,M73 P0 ; enable build progress,G162 X Y F3000 ; home XY maximum,G161 Z F1200 ; home Z minimum,G92 Z-5 ; set Z to -5,G1 Z0 ; move Z to 0,G161 Z F100 ; home Z slowly,M132 X Y Z A B ; recall home offsets,M135 T0 ; load right extruder offsets,G1 X150 Y-70 Z30 F9000 ; move to wait position right hand side of the table,G130 X20 Y20 Z20 A20 B20 ; lower stepper Vrefs while heating,M126 S[fan_speed_pwm],M140 S[bed0_temperature] T0,M134 T0 ; stabilize bed temperature,M104 S[extruder1_temperature] T1,M133 T1 ; stabilize left extruder temperature,G130 X127 Y127 Z40 A127 B127 ; default stepper Vrefs,G92 A0 B0 ; zero extruders,G1 Z0.4 ; position nozzle,M135 T1 ; left tool,G1 X110 Y-70 E30 F300 ; move nozzle,G1 X120 Y-70 Z0.15 F1200 ; slow wipe,G1 X110 Y-70 Z0.5 F1200 ; lift,G92 A0 B0 ; zero extruders,M73 P1 ;@body (notify GPX body has started),; **** end of start.gcode ****
;   layerChangeGcode,
;   retractionGcode,
;   toolChangeGcode,
;   endingGcode,; **** Replicator 1 dual end.gcode ****,M73 P100 ; end build progress,G1 Z150 F1000 ; send Z axis to bottom of machine,M140 S0 T0 ; cool down HBP,M104 S0 T0 ; cool down right extruder,M104 S0 T1 ; cool down left extruder,M127 ; stop blower fan,G162 X Y F3000 ; home XY maximum,M18 ; disable stepper,M72 P1 ; play Ta-Da song,; **** end of end.gcode ****
;   exportFileFormat,x3g
;   celebration,0
;   celebrationSong,Random Song
;   postProcessing,
;   defaultSpeed,3600
;   outlineUnderspeed,0.5
;   solidInfillUnderspeed,0.8
;   supportUnderspeed,0.8
;   rapidXYspeed,4200
;   rapidZspeed,1200
;   minBridgingArea,50
;   bridgingExtraInflation,0
;   bridgingExtrusionMultiplier,1
;   bridgingSpeedMultiplier,0.8
;   useFixedBridgingAngle,0
;   fixedBridgingAngle,0
;   applyBridgingToPerimeters,0
;   filamentDiameters,1.75|1.75|1.75|1.75|1.75|1.75
;   filamentPricesPerKg,46|46|46|46|46|46
;   filamentDensities,1.25|1.25|1.25|1.25|1.25|1.25
;   useMinPrintHeight,0
;   minPrintHeight,0
;   useMaxPrintHeight,0
;   maxPrintHeight,0
;   useDiaphragm,0
;   diaphragmLayerInterval,20
;   robustSlicing,1
;   mergeAllIntoSolid,0
;   onlyRetractWhenCrossingOutline,1
;   retractBetweenLayers,1
;   useRetractionMinTravel,0
;   retractionMinTravel,3
;   retractWhileWiping,0
;   onlyWipeOutlines,1
;   avoidCrossingOutline,0
;   maxMovementDetourFactor,3
;   toolChangeRetractionDistance,12
;   toolChangeExtraRestartDistance,-0.5
;   toolChangeRetractionSpeed,600
;   externalThinWallType,0
;   internalThinWallType,2
;   thinWallAllowedOverlapPercentage,10
;   singleExtrusionMinLength,1
;   singleExtrusionMinPrintingWidthPercentage,50
;   singleExtrusionMaxPrintingWidthPercentage,200
;   singleExtrusionEndpointExtension,0.2
;   horizontalSizeCompensation,0
G90
M83
; **** Replicator 1 dual start.gcode ****
M73 P0 ; enable build progress
G162 X Y F3000 ; home XY maximum
G161 Z F1200 ; home Z minimum
G92 Z-5 ; set Z to -5
G1 Z0 ; move Z to 0
G161 Z F100 ; home Z slowly
M132 X Y Z A B ; recall home offsets
M135 T0 ; load right extruder offsets
G1 X150 Y-70 Z30 F9000 ; move to wait position right hand side of the table
G130 X20 Y20 Z20 A20 B20 ; lower stepper Vrefs while heating
M127
M140 S55 T0
M134 T0 ; stabilize bed temperature
M104 S210 T1
M133 T1 ; stabilize left extruder temperature
G130 X127 Y127 Z40 A127 B127 ; default stepper Vrefs
G92 A0 B0 ; zero extruders
G1 Z0.4 ; position nozzle
M135 T1 ; left tool
G1 X110 Y-70 E30 F300 ; move nozzle
G1 X120 Y-70 Z0.15 F1200 ; slow wipe
G1 X110 Y-70 Z0.5 F1200 ; lift
G92 A0 B0 ; zero extruders
M73 P1 ;@body (notify GPX body has started)
; **** end of start.gcode ****
G1 E-1.0000 F1200
G1 Z0.180 F1200
; process Black 30% Left
; layer 1, Z = 0.180
M135 T1
; tool H0.200 W0.400
; inner perimeter
G1 X-101.000 Y69.250 F4200
G1 E1.0000 F360
G1 X-101.000 Y-69.250 E4.4683 F1350
G1 X101.000 Y-69.250 E6.5170
G1 X101.000 Y69.250 E4.4683
G1 X-101.000 Y69.250 E6.5170
; outer perimeter
G1 X-101.400 Y69.650 F4200
G1 X-101.400 Y-69.650 E4.4941 F900
G1 X101.400 Y-69.650 E6.5428
G1 X101.400 Y69.650 E4.4941
G1 X-101.400 Y69.650 E6.5428
; inner perimeter
G1 X-88.654 Y65.644 F4200
G1 X-88.455 Y66.038 E0.0142 F1350
G1 X-88.172 Y66.393 E0.0146
G1 X-87.807 Y66.694 E0.0153
G1 X-87.411 Y66.898 E0.0144
G1 X-87.002 Y67.016 E0.0137
G1 X-86.600 Y67.053 E0.0130
G1 X-86.196 Y67.015 E0.0131
G1 X-85.806 Y66.904 E0.0131
G1 X-85.412 Y66.705 E0.0142
G1 X-85.057 Y66.422 E0.0146
G1 X-84.756 Y66.057 E0.0153
G1 X-84.552 Y65.661 E0.0144
G1 X-84.434 Y65.252 E0.0137
G1 X-84.397 Y64.850 E0.0130
G1 X-84.435 Y64.446 E0.0131
G1 X-84.546 Y64.056 E0.0131
G1 X-84.745 Y63.662 E0.0142
G1 X-85.028 Y63.307 E0.0146
G1 X-85.393 Y63.006 E0.0153
G1 X-85.789 Y62.802 E0.0144
G1 X-86.198 Y62.684 E0.0137
G1 X-86.600 Y62.647 E0.0130
G1 X-87.003 Y62.685 E0.0131
G1 X-87.394 Y62.796 E0.0131
G1 X-87.788 Y62.995 E0.0142
G1 X-88.143 Y63.278 E0.0146
G1 X-88.444 Y63.643 E0.0153
G1 X-88.648 Y64.039 E0.0144
G1 X-88.766 Y64.448 E0.0137
G1 X-88.803 Y64.850 E0.0130
G1 X-88.765 Y65.254 E0.0131
G1 X-88.654 Y65.644 E0.0131
; outer perimeter
G1 X-88.280 Y65.498 F4200
G1 X-88.116 Y65.821 E0.0117 F900
G1 X-87.885 Y66.111 E0.0120
G1 X-87.585 Y66.358 E0.0125
G1 X-87.262 Y66.525 E0.0117
G1 X-86.928 Y66.621 E0.0112
G1 X-86.600 Y66.651 E0.0106
G1 X-86.270 Y66.620 E0.0107
G1 X-85.952 Y66.530 E0.0107
G1 X-85.629 Y66.366 E0.0117
G1 X-85.339 Y66.135 E0.0120
G1 X-85.092 Y65.835 E0.0125
G1 X-84.925 Y65.512 E0.0117
G1 X-84.829 Y65.178 E0.0112
G1 X-84.799 Y64.850 E0.0106
G1 X-84.830 Y64.520 E0.0107
G1 X-84.920 Y64.202 E0.0107
G1 X-85.084 Y63.879 E0.0117
G1 X-85.315 Y63.589 E0.0120
G1 X-85.615 Y63.342 E0.0125
G1 X-85.938 Y63.175 E0.0117
G1 X-86.272 Y63.079 E0.0112
G1 X-86.600 Y63.049 E0.0106
G1 X-86.930 Y63.080 E0.0107
G1 X-87.248 Y63.170 E0.0107
G1 X-87.571 Y63.334 E0.0117
G1 X-87.861 Y63.565 E0.0120
G1 X-88.108 Y63.865 E0.0125
G1 X-88.275 Y64.188 E0.0117
G1 X-88.371 Y64.522 E0.0112
G1 X-88.401 Y64.850 E0.0106
G1 X-88.370 Y65.180 E0.0107
G1 X-88.280 Y65.498 E0.0107
; inner perimeter
G1 X-95.377 Y56.681 F4200
G1 X-95.055 Y56.420 E0.0134 F1350
G1 X-94.756 Y56.057 E0.0152
G1 X-94.552 Y55.661 E0.0144
G1 X-94.434 Y55.252 E0.0137
G1 X-94.397 Y54.850 E0.0130
G1 X-94.435 Y54.446 E0.0131
G1 X-94.547 Y54.052 E0.0132
G1 X-94.769 Y53.627 E0.0155
G1 X-95.030 Y53.305 E0.0134
G1 X-95.393 Y53.006 E0.0152
G1 X-95.789 Y52.802 E0.0144
G1 X-96.198 Y52.684 E0.0137
G1 X-96.600 Y52.647 E0.0130
G1 X-97.003 Y52.685 E0.0131
G1 X-97.398 Y52.797 E0.0132
G1 X-97.823 Y53.019 E0.0155
G1 X-98.145 Y53.280 E0.0134
G1 X-98.444 Y53.643 E0.0152
G1 X-98.648 Y54.039 E0.0144
G1 X-98.765 Y54.447 E0.0137
G1 X-98.802 Y54.832 E0.0125
G1 X-98.766 Y55.252 E0.0136
G1 X-98.654 Y55.644 E0.0132
G1 X-98.455 Y56.038 E0.0142
G1 X-98.172 Y56.393 E0.0146
G1 X-97.807 Y56.694 E0.0153
G1 X-97.411 Y56.898 E0.0144
G1 X-97.002 Y57.016 E0.0137
G1 X-96.600 Y57.053 E0.0130
G1 X-96.196 Y57.015 E0.0131
G1 X-95.802 Y56.903 E0.0132
G1 X-95.377 Y56.681 E0.0155
; outer perimeter
G1 X-95.598 Y56.345 F4200
G1 X-95.339 Y56.135 E0.0108 F900
G1 X-95.092 Y55.835 E0.0125
G1 X-94.925 Y55.512 E0.0117
G1 X-94.829 Y55.178 E0.0112
G1 X-94.799 Y54.850 E0.0106
G1 X-94.830 Y54.520 E0.0107
G1 X-94.921 Y54.201 E0.0107
G1 X-95.105 Y53.848 E0.0128
G1 X-95.315 Y53.589 E0.0108
G1 X-95.615 Y53.342 E0.0125
G1 X-95.938 Y53.175 E0.0117
G1 X-96.272 Y53.079 E0.0112
G1 X-96.600 Y53.049 E0.0106
G1 X-96.930 Y53.080 E0.0107
G1 X-97.249 Y53.171 E0.0107
G1 X-97.602 Y53.355 E0.0128
G1 X-97.861 Y53.565 E0.0108
G1 X-98.108 Y53.865 E0.0125
G1 X-98.275 Y54.188 E0.0117
G1 X-98.371 Y54.522 E0.0112
G1 X-98.400 Y54.834 E0.0101
G1 X-98.371 Y55.179 E0.0112
G1 X-98.280 Y55.498 E0.0107
G1 X-98.116 Y55.821 E0.0117
G1 X-97.885 Y56.111 E0.0120
G1 X-97.585 Y56.358 E0.0125
G1 X-97.262 Y56.525 E0.0117
G1 X-96.928 Y56.621 E0.0112
G1 X-96.600 Y56.651 E0.0106
G1 X-96.270 Y56.620 E0.0107
G1 X-95.951 Y56.529 E0.0107
G1 X-95.598 Y56.345 E0.0128
; inner perimeter
G1 X-74.755 Y41.187 F4200
G1 X-74.459 Y41.557 E0.0153 F1350
G1 X-74.124 Y41.831 E0.0139
G1 X-73.734 Y42.038 E0.0143
G1 X-73.304 Y42.165 E0.0145
G1 X-72.900 Y42.203 E0.0131
G1 X-72.496 Y42.165 E0.0131
G1 X-72.108 Y42.055 E0.0130
G1 X-71.710 Y41.854 E0.0144
G1 X-71.327 Y41.541 E0.0160
G1 X-71.068 Y41.222 E0.0132
G1 X-70.852 Y40.813 E0.0149
G1 X-70.734 Y40.402 E0.0138
G1 X-70.697 Y40.000 E0.0130
G1 X-70.735 Y39.592 E0.0132
G1 X-70.863 Y39.165 E0.0144
G1 X-71.047 Y38.810 E0.0129
G1 X-71.341 Y38.443 E0.0152
G1 X-71.676 Y38.169 E0.0139
G1 X-72.066 Y37.962 E0.0143
G1 X-72.496 Y37.835 E0.0145
G1 X-72.900 Y37.797 E0.0131
G1 X-73.304 Y37.835 E0.0131
G1 X-73.692 Y37.945 E0.0130
G1 X-74.086 Y38.144 E0.0142
G1 X-74.440 Y38.426 E0.0146
G1 X-74.729 Y38.774 E0.0146
G1 X-74.938 Y39.166 E0.0143
G1 X-75.065 Y39.596 E0.0145
G1 X-75.103 Y40.000 E0.0131
G1 X-75.065 Y40.404 E0.0131
G1 X-74.954 Y40.792 E0.0130
G1 X-74.755 Y41.187 E0.0143
; outer perimeter
G1 X-74.417 Y40.970 F4200
G1 X-74.173 Y41.274 E0.0126 F900
G1 X-73.901 Y41.496 E0.0113
G1 X-73.582 Y41.666 E0.0117
G1 X-73.229 Y41.771 E0.0119
G1 X-72.900 Y41.801 E0.0106
G1 X-72.570 Y41.770 E0.0107
G1 X-72.254 Y41.680 E0.0106
G1 X-71.930 Y41.517 E0.0117
G1 X-71.612 Y41.257 E0.0132
G1 X-71.404 Y41.001 E0.0107
G1 X-71.225 Y40.663 E0.0123
G1 X-71.129 Y40.328 E0.0113
G1 X-71.099 Y40.000 E0.0106
G1 X-71.130 Y39.669 E0.0107
G1 X-71.235 Y39.316 E0.0119
G1 X-71.384 Y39.030 E0.0104
G1 X-71.627 Y38.726 E0.0126
G1 X-71.899 Y38.504 E0.0113
G1 X-72.218 Y38.334 E0.0117
G1 X-72.571 Y38.229 E0.0119
G1 X-72.900 Y38.199 E0.0106
G1 X-73.230 Y38.230 E0.0107
G1 X-73.546 Y38.320 E0.0106
G1 X-73.869 Y38.483 E0.0117
G1 X-74.159 Y38.713 E0.0119
G1 X-74.396 Y38.998 E0.0119
G1 X-74.566 Y39.318 E0.0117
G1 X-74.671 Y39.671 E0.0119
G1 X-74.701 Y40.000 E0.0106
G1 X-74.670 Y40.330 E0.0107
G1 X-74.580 Y40.646 E0.0106
G1 X-74.417 Y40.970 E0.0117
; inner perimeter
G1 X-75.500 Y35.600 F4200
G1 X-70.300 Y35.600 E0.1678 F1350
G1 X-70.300 Y-35.600 E2.2971
G1 X-75.500 Y-35.600 E0.1678
G1 X-75.500 Y35.600 E2.2971
; outer perimeter
G1 X-75.100 Y35.200 F4200
G1 X-70.700 Y35.200 E0.1420 F900
G1 X-70.700 Y-35.200 E2.2713
G1 X-75.100 Y-35.200 E0.1420
G1 X-75.100 Y35.200 E2.2713
G1 E-1.0000 F1200
; inner perimeter
G1 X-38.860 Y16.962 F4200
G1 E1.0000 F1200
G1 X-38.683 Y17.288 E0.0120 F1350
G1 X-38.457 Y17.563 E0.0115
G1 X-38.164 Y17.801 E0.0122
G1 X-37.853 Y17.963 E0.0113
G1 X-37.491 Y18.071 E0.0122
G1 X-37.150 Y18.103 E0.0111
G1 X-36.805 Y18.071 E0.0112
G1 X-36.438 Y17.960 E0.0124
G1 X-36.112 Y17.783 E0.0120
G1 X-35.838 Y17.558 E0.0114
G1 X-35.612 Y17.282 E0.0115
G1 X-35.428 Y16.935 E0.0127
G1 X-35.329 Y16.589 E0.0116
G1 X-35.298 Y16.271 E0.0103
G1 X-35.328 Y15.913 E0.0116
G1 X-35.421 Y15.586 E0.0110
G1 X-35.599 Y15.236 E0.0127
G1 X-35.827 Y14.953 E0.0117
G1 X-36.155 Y14.688 E0.0136
G1 X-36.469 Y14.527 E0.0114
G1 X-36.812 Y14.428 E0.0115
G1 X-37.150 Y14.397 E0.0110
G1 X-37.495 Y14.429 E0.0112
G1 X-37.862 Y14.540 E0.0124
G1 X-38.188 Y14.717 E0.0120
G1 X-38.463 Y14.942 E0.0115
G1 X-38.701 Y15.236 E0.0122
G1 X-38.863 Y15.547 E0.0113
G1 X-38.971 Y15.909 E0.0122
G1 X-39.003 Y16.250 E0.0111
G1 X-38.971 Y16.595 E0.0112
G1 X-38.860 Y16.962 E0.0124
; outer perimeter
G1 X-38.489 Y16.807 F4200
G1 X-38.350 Y17.064 E0.0094 F900
G1 X-38.174 Y17.278 E0.0089
G1 X-37.943 Y17.465 E0.0096
G1 X-37.702 Y17.591 E0.0088
G1 X-37.415 Y17.677 E0.0097
G1 X-37.150 Y17.701 E0.0086
G1 X-36.882 Y17.676 E0.0087
G1 X-36.593 Y17.589 E0.0098
G1 X-36.336 Y17.450 E0.0094
G1 X-36.122 Y17.274 E0.0089
G1 X-35.947 Y17.060 E0.0089
G1 X-35.801 Y16.784 E0.0101
G1 X-35.723 Y16.514 E0.0091
G1 X-35.700 Y16.268 E0.0080
G1 X-35.723 Y15.985 E0.0092
G1 X-35.795 Y15.732 E0.0085
G1 X-35.936 Y15.455 E0.0101
G1 X-36.112 Y15.237 E0.0090
G1 X-36.374 Y15.025 E0.0109
G1 X-36.617 Y14.901 E0.0088
G1 X-36.886 Y14.823 E0.0090
G1 X-37.150 Y14.799 E0.0086
G1 X-37.418 Y14.824 E0.0087
G1 X-37.707 Y14.911 E0.0098
G1 X-37.964 Y15.050 E0.0094
G1 X-38.178 Y15.226 E0.0089
G1 X-38.365 Y15.457 E0.0096
G1 X-38.491 Y15.698 E0.0088
G1 X-38.577 Y15.985 E0.0097
G1 X-38.601 Y16.250 E0.0086
