; G-Code generated by Simplify3D(R) Version 4.0.0
; Jul 27, 2017 at 10:58:55 AM
; Settings Summary
;   processName,Black 30% Left
;   applyToModels,right-sides
;   profileName,Default (modified)
;   profileVersion,2015-05-01 08:00:00
;   baseProfile,
;   printMaterial,PLA
;   printQuality,Medium
;   printExtruders,Left Extruder Only
;   extruderName,Right Extruder,Left Extruder
;   extruderToolheadNumber,0,1
;   extruderDiameter,0.4,0.4
;   extruderAutoWidth,0,0
;   extruderWidth,0.4,0.4
;   extrusionMultiplier,0.9,0.97
;   extruderUseRetract,1,1
;   extruderRetractionDistance,1,1
;   extruderExtraRestartDistance,0,0
;   extruderRetractionZLift,0,0
;   extruderRetractionSpeed,1200,1200
;   extruderUseCoasting,0,0
;   extruderCoastingDistance,0.2,0.2
;   extruderUseWipe,0,0
;   extruderWipeDistance,5,5
;   primaryExtruder,1
;   layerHeight,0.2
;   topSolidLayers,3
;   bottomSolidLayers,3
;   perimeterOutlines,2
;   printPerimetersInsideOut,1
;   startPointOption,2
;   startPointOriginX,0
;   startPointOriginY,0
;   sequentialIslands,0
;   spiralVaseMode,0
;   firstLayerHeightPercentage,90
;   firstLayerWidthPercentage,100
;   firstLayerUnderspeed,0.5
;   useRaft,0
;   raftExtruder,1
;   raftTopLayers,3
;   raftBaseLayers,2
;   raftOffset,3
;   raftSeparationDistance,0.14
;   raftTopInfill,100
;   aboveRaftSpeedMultiplier,0.3
;   useSkirt,0
;   skirtExtruder,1
;   skirtLayers,1
;   skirtOutlines,2
;   skirtOffset,4
;   usePrimePillar,0
;   primePillarExtruder,999
;   primePillarWidth,12
;   primePillarLocation,7
;   primePillarSpeedMultiplier,1
;   useOozeShield,0
;   oozeShieldExtruder,999
;   oozeShieldOffset,2
;   oozeShieldOutlines,1
;   oozeShieldSidewallShape,1
;   oozeShieldSidewallAngle,30
;   oozeShieldSpeedMultiplier,1
;   infillExtruder,1
;   internalInfillPattern,Rectilinear
;   externalInfillPattern,Rectilinear
;   infillPercentage,30
;   outlineOverlapPercentage,20
;   infillExtrusionWidthPercentage,100
;   minInfillLength,5
;   infillLayerInterval,1
;   internalInfillAngles,45,-45
;   overlapInternalInfillAngles,0
;   externalInfillAngles,45,-45
;   generateSupport,0
;   supportExtruder,1
;   supportInfillPercentage,30
;   supportExtraInflation,0
;   supportBaseLayers,0
;   denseSupportExtruder,1
;   denseSupportLayers,0
;   denseSupportInfillPercentage,70
;   supportLayerInterval,1
;   supportHorizontalPartOffset,0.3
;   supportUpperSeparationLayers,1
;   supportLowerSeparationLayers,1
;   supportType,0
;   supportGridSpacing,4
;   maxOverhangAngle,45
;   supportAngles,0
;   temperatureName,Right Extruder,Left Extruder,Heated Build Platform
;   temperatureNumber,0,1,0
;   temperatureSetpointCount,1,1,1
;   temperatureSetpointLayers,1,1,1
;   temperatureSetpointTemperatures,0,210,55
;   temperatureStabilizeAtStartup,0,0,0
;   temperatureHeatedBed,0,0,1
;   temperatureRelayBetweenLayers,0,0,0
;   temperatureRelayBetweenLoops,0,0,0
;   fanLayers,1,2
;   fanSpeeds,0,100
;   blipFanToFullPower,0
;   adjustSpeedForCooling,1
;   minSpeedLayerTime,15
;   minCoolingSpeedSlowdown,20
;   increaseFanForCooling,0
;   minFanLayerTime,45
;   maxCoolingFanSpeed,100
;   increaseFanForBridging,1
;   bridgingFanSpeed,100
;   use5D,1
;   relativeEdistances,1
;   allowEaxisZeroing,0
;   independentExtruderAxes,1
;   includeM10123,0
;   stickySupport,1
;   applyToolheadOffsets,0
;   gcodeXoffset,0
;   gcodeYoffset,0
;   gcodeZoffset,0
;   overrideMachineDefinition,1
;   machineTypeOverride,0
;   strokeXoverride,225
;   strokeYoverride,145
;   strokeZoverride,150
;   originOffsetXoverride,112.5
;   originOffsetYoverride,72.5
;   originOffsetZoverride,0
;   homeXdirOverride,1
;   homeYdirOverride,1
;   homeZdirOverride,-1
;   flipXoverride,1
;   flipYoverride,-1
;   flipZoverride,1
;   toolheadOffsets,0,0|34,0|0,0|0,0|0,0|0,0
;   overrideFirmwareConfiguration,1
;   firmwareTypeOverride,MakerBot/Sailfish Firmware
;   GPXconfigOverride,r1d
;   baudRateOverride,115200
;   overridePrinterModels,1
;   printerModelsOverride,FlashForge_CreatorPro.stl
;   startingGcode,; **** Replicator 1 dual start.gcode ****,M73 P0 ; enable build progress,G162 X Y F3000 ; home XY maximum,G161 Z F1200 ; home Z minimum,G92 Z-5 ; set Z to -5,G1 Z0 ; move Z to 0,G161 Z F100 ; home Z slowly,M132 X Y Z A B ; recall home offsets,M135 T0 ; load right extruder offsets,G1 X150 Y-70 Z30 F9000 ; move to wait position right hand side of the table,G130 X20 Y20 Z20 A20 B20 ; lower stepper Vrefs while heating,M126 S[fan_speed_pwm],M140 S[bed0_temperature] T0,M134 T0 ; stabilize bed temperature,M104 S[extruder1_temperature] T1,M133 T1 ; stabilize left extruder temperature,G130 X127 Y127 Z40 A127 B127 ; default stepper Vrefs,G92 A0 B0 ; zero extruders,G1 Z0.4 ; position nozzle,M135 T1 ; left tool,G1 X110 Y-70 E30 F300 ; move nozzle,G1 X120 Y-70 Z0.15 F1200 ; slow wipe,G1 X110 Y-70 Z0.5 F1200 ; lift,G92 A0 B0 ; zero extruders,M73 P1 ;@body (notify GPX body has started),; **** end of start.gcode ****
;   layerChangeGcode,
;   retractionGcode,
;   toolChangeGcode,
;   endingGcode,; **** Replicator 1 dual end.gcode ****,M73 P100 ; end build progress,G1 Z150 F1000 ; send Z axis to bottom of machine,M140 S0 T0 ; cool down HBP,M104 S0 T0 ; cool down right extruder,M104 S0 T1 ; cool down left extruder,M127 ; stop blower fan,G162 X Y F3000 ; home XY maximum,M18 ; disable stepper,M72 P1 ; play Ta-Da song,; **** end of end.gcode ****
;   exportFileFormat,x3g
;   celebration,0
;   celebrationSong,Random Song
;   postProcessing,
;   defaultSpeed,3600
;   outlineUnderspeed,0.5
;   solidInfillUnderspeed,0.8
;   supportUnderspeed,0.8
;   rapidXYspeed,4200
;   rapidZspeed,1200
;   minBridgingArea,50
;   bridgingExtraInflation,0
;   bridgingExtrusionMultiplier,1
;   bridgingSpeedMultiplier,0.8
;   useFixedBridgingAngle,0
;   fixedBridgingAngle,0
;   applyBridgingToPerimeters,0
;   filamentDiameters,1.75|1.75|1.75|1.75|1.75|1.75
;   filamentPricesPerKg,25|25|25|25|25|25
;   filamentDensities,1.25|1.25|1.25|1.25|1.25|1.25
;   useMinPrintHeight,0
;   minPrintHeight,0
;   useMaxPrintHeight,0
;   maxPrintHeight,0
;   useDiaphragm,0
;   diaphragmLayerInterval,20
;   robustSlicing,1
;   mergeAllIntoSolid,0
;   onlyRetractWhenCrossingOutline,1
;   retractBetweenLayers,1
;   useRetractionMinTravel,0
;   retractionMinTravel,3
;   retractWhileWiping,0
;   onlyWipeOutlines,1
;   avoidCrossingOutline,0
;   maxMovementDetourFactor,3
;   toolChangeRetractionDistance,12
;   toolChangeExtraRestartDistance,-0.5
;   toolChangeRetractionSpeed,600
;   externalThinWallType,0
;   internalThinWallType,2
;   thinWallAllowedOverlapPercentage,10
;   singleExtrusionMinLength,1
;   singleExtrusionMinPrintingWidthPercentage,50
;   singleExtrusionMaxPrintingWidthPercentage,200
;   singleExtrusionEndpointExtension,0.2
;   horizontalSizeCompensation,0
G90
M83
; **** Replicator 1 dual start.gcode ****
M73 P0 ; enable build progress
G162 X Y F3000 ; home XY maximum
G161 Z F1200 ; home Z minimum
G92 Z-5 ; set Z to -5
G1 Z0 ; move Z to 0
G161 Z F100 ; home Z slowly
M132 X Y Z A B ; recall home offsets
M135 T0 ; load right extruder offsets
G1 X150 Y-70 Z30 F9000 ; move to wait position right hand side of the table
G130 X20 Y20 Z20 A20 B20 ; lower stepper Vrefs while heating
M127
M140 S55 T0
M134 T0 ; stabilize bed temperature
M104 S210 T1
M133 T1 ; stabilize left extruder temperature
G130 X127 Y127 Z40 A127 B127 ; default stepper Vrefs
G92 A0 B0 ; zero extruders
G1 Z0.4 ; position nozzle
M135 T1 ; left tool
G1 X110 Y-70 E30 F300 ; move nozzle
G1 X120 Y-70 Z0.15 F1200 ; slow wipe
G1 X110 Y-70 Z0.5 F1200 ; lift
G92 A0 B0 ; zero extruders
M73 P1 ;@body (notify GPX body has started)
; **** end of start.gcode ****
G1 E-1.0000 F1200
G1 Z0.180 F1200
; process Black 30% Left
; layer 1, Z = 0.180
M135 T1
; tool H0.200 W0.400
; inner perimeter
G1 X-100.083 Y69.248 F4200
G1 E1.0000 F360
G1 X-100.611 Y69.208 E0.0171 F1350
G1 X-100.845 Y69.162 E0.0077
G1 X-101.076 Y69.090 E0.0078
G1 X-101.260 Y69.011 E0.0065
G1 X-101.460 Y68.893 E0.0075
G1 X-101.609 Y68.779 E0.0060
G1 X-101.772 Y68.618 E0.0074
G1 X-101.884 Y68.477 E0.0058
G1 X-102.003 Y68.280 E0.0074
G1 X-102.098 Y68.062 E0.0077
G1 X-102.152 Y67.888 E0.0059
G1 X-102.204 Y67.635 E0.0083
G1 X-102.226 Y67.445 E0.0062
G1 X-102.244 Y66.841 E0.0195
G1 X-102.244 Y-69.250 E4.3906
G1 X102.891 Y-69.250 E6.6181
G1 X102.891 Y66.858 E4.3912
G1 X102.876 Y67.403 E0.0176
G1 X102.849 Y67.646 E0.0079
G1 X102.806 Y67.863 E0.0072
G1 X102.738 Y68.080 E0.0073
G1 X102.649 Y68.282 E0.0071
G1 X102.545 Y68.455 E0.0065
G1 X102.413 Y68.625 E0.0069
G1 X102.261 Y68.775 E0.0069
G1 X102.088 Y68.906 E0.0070
G1 X101.896 Y69.016 E0.0072
G1 X101.706 Y69.097 E0.0067
G1 X101.481 Y69.165 E0.0076
G1 X101.241 Y69.211 E0.0079
G1 X100.989 Y69.237 E0.0082
G1 X100.272 Y69.250 E0.0231
G1 X-100.083 Y69.248 E6.4639
; outer perimeter
G1 X-100.098 Y69.648 F4200
G1 X-100.664 Y69.605 E0.0183 F900
G1 X-100.943 Y69.551 E0.0092
G1 X-101.216 Y69.466 E0.0092
G1 X-101.442 Y69.368 E0.0079
G1 X-101.684 Y69.225 E0.0091
G1 X-101.872 Y69.082 E0.0076
G1 X-102.071 Y68.885 E0.0090
G1 X-102.213 Y68.705 E0.0074
G1 X-102.359 Y68.465 E0.0091
G1 X-102.474 Y68.202 E0.0093
G1 X-102.540 Y67.988 E0.0072
G1 X-102.600 Y67.698 E0.0095
G1 X-102.625 Y67.474 E0.0073
G1 X-102.644 Y66.847 E0.0202
G1 X-102.644 Y-69.650 E4.4037
G1 X103.291 Y-69.650 E6.6439
G1 X103.291 Y66.863 E4.4042
G1 X103.276 Y67.431 E0.0183
G1 X103.245 Y67.708 E0.0090
G1 X103.194 Y67.962 E0.0084
G1 X103.113 Y68.221 E0.0087
G1 X103.004 Y68.467 E0.0087
G1 X102.876 Y68.682 E0.0081
G1 X102.712 Y68.891 E0.0086
G1 X102.523 Y69.078 E0.0086
G1 X102.309 Y69.240 E0.0086
G1 X102.074 Y69.375 E0.0087
G1 X101.842 Y69.474 E0.0081
G1 X101.577 Y69.554 E0.0089
G1 X101.299 Y69.607 E0.0091
G1 X101.013 Y69.637 E0.0093
G1 X100.275 Y69.650 E0.0238
G1 X-100.098 Y69.648 E6.4645
; inner perimeter
G1 X-93.290 Y60.450 F4200
G1 X93.936 Y60.450 E6.0404 F1350
G1 X93.936 Y-60.450 E3.9005
G1 X-93.290 Y-60.450 E6.0404
G1 X-93.290 Y60.450 E3.9005
; outer perimeter
G1 X-92.890 Y60.050 F4200
G1 X93.536 Y60.050 E6.0145 F900
G1 X93.536 Y-60.050 E3.8747
G1 X-92.890 Y-60.050 E6.0145
G1 X-92.890 Y60.050 E3.8747
; inner perimeter
G1 X-95.556 Y56.411 F4200
G1 X-95.270 Y56.061 E0.0146 F1350
G1 X-95.065 Y55.667 E0.0143
G1 X-94.946 Y55.256 E0.0138
G1 X-94.908 Y54.850 E0.0131
G1 X-94.945 Y54.449 E0.0130
G1 X-95.062 Y54.040 E0.0137
G1 X-95.265 Y53.647 E0.0143
G1 X-95.550 Y53.295 E0.0146
G1 X-95.900 Y53.009 E0.0146
G1 X-96.294 Y52.804 E0.0143
G1 X-96.705 Y52.685 E0.0138
G1 X-97.110 Y52.647 E0.0131
G1 X-97.512 Y52.684 E0.0130
G1 X-97.921 Y52.801 E0.0137
G1 X-98.314 Y53.005 E0.0143
G1 X-98.666 Y53.289 E0.0146
G1 X-98.952 Y53.639 E0.0146
G1 X-99.157 Y54.033 E0.0143
G1 X-99.276 Y54.447 E0.0139
G1 X-99.313 Y54.850 E0.0130
G1 X-99.277 Y55.251 E0.0130
G1 X-99.159 Y55.660 E0.0137
G1 X-98.956 Y56.053 E0.0143
G1 X-98.672 Y56.405 E0.0146
G1 X-98.321 Y56.691 E0.0146
G1 X-97.928 Y56.896 E0.0143
G1 X-97.517 Y57.015 E0.0138
G1 X-97.111 Y57.053 E0.0131
G1 X-96.709 Y57.016 E0.0130
G1 X-96.301 Y56.899 E0.0137
G1 X-95.907 Y56.695 E0.0143
G1 X-95.556 Y56.411 E0.0146
; outer perimeter
G1 X-95.840 Y56.126 F4200
G1 X-95.606 Y55.839 E0.0119 F900
G1 X-95.438 Y55.517 E0.0117
G1 X-95.341 Y55.181 E0.0113
G1 X-95.310 Y54.850 E0.0107
G1 X-95.340 Y54.523 E0.0106
G1 X-95.436 Y54.188 E0.0112
G1 X-95.602 Y53.866 E0.0117
G1 X-95.835 Y53.579 E0.0119
G1 X-96.121 Y53.345 E0.0119
G1 X-96.443 Y53.177 E0.0117
G1 X-96.779 Y53.080 E0.0113
G1 X-97.111 Y53.049 E0.0107
G1 X-97.438 Y53.079 E0.0106
G1 X-97.772 Y53.175 E0.0112
G1 X-98.094 Y53.341 E0.0117
G1 X-98.382 Y53.574 E0.0119
G1 X-98.616 Y53.861 E0.0119
G1 X-98.784 Y54.183 E0.0117
G1 X-98.882 Y54.522 E0.0114
G1 X-98.912 Y54.850 E0.0106
G1 X-98.882 Y55.177 E0.0106
G1 X-98.786 Y55.512 E0.0112
G1 X-98.620 Y55.833 E0.0117
G1 X-98.387 Y56.121 E0.0119
G1 X-98.100 Y56.355 E0.0119
G1 X-97.778 Y56.523 E0.0117
G1 X-97.442 Y56.620 E0.0113
G1 X-97.111 Y56.651 E0.0107
G1 X-96.783 Y56.621 E0.0106
G1 X-96.449 Y56.525 E0.0112
G1 X-96.127 Y56.359 E0.0117
G1 X-95.840 Y56.126 E0.0119
G1 E-1.0000 F1200
; inner perimeter
G1 X-88.666 Y63.289 F4200
G1 E1.0000 F1200
G1 X-88.951 Y63.639 E0.0146 F1350
G1 X-89.157 Y64.033 E0.0143
G1 X-89.276 Y64.444 E0.0138
G1 X-89.313 Y64.850 E0.0131
G1 X-89.277 Y65.251 E0.0130
G1 X-89.159 Y65.660 E0.0137
G1 X-88.956 Y66.053 E0.0143
G1 X-88.672 Y66.405 E0.0146
G1 X-88.321 Y66.691 E0.0146
G1 X-87.928 Y66.896 E0.0143
G1 X-87.514 Y67.016 E0.0139
G1 X-87.111 Y67.052 E0.0130
G1 X-86.709 Y67.016 E0.0130
G1 X-86.301 Y66.899 E0.0137
G1 X-85.907 Y66.695 E0.0143
G1 X-85.556 Y66.411 E0.0146
G1 X-85.270 Y66.061 E0.0146
G1 X-85.065 Y65.667 E0.0143
G1 X-84.946 Y65.256 E0.0138
G1 X-84.908 Y64.850 E0.0131
G1 X-84.945 Y64.449 E0.0130
G1 X-85.062 Y64.040 E0.0137
G1 X-85.265 Y63.647 E0.0143
G1 X-85.550 Y63.295 E0.0146
G1 X-85.900 Y63.009 E0.0146
G1 X-86.294 Y62.804 E0.0143
G1 X-86.705 Y62.685 E0.0138
G1 X-87.110 Y62.647 E0.0131
G1 X-87.512 Y62.684 E0.0130
G1 X-87.921 Y62.801 E0.0137
G1 X-88.314 Y63.005 E0.0143
G1 X-88.666 Y63.289 E0.0146
; outer perimeter
G1 X-88.382 Y63.574 F4200
G1 X-88.616 Y63.861 E0.0119 F900
G1 X-88.784 Y64.183 E0.0117
G1 X-88.881 Y64.519 E0.0113
G1 X-88.912 Y64.850 E0.0107
G1 X-88.882 Y65.177 E0.0106
G1 X-88.786 Y65.512 E0.0112
G1 X-88.620 Y65.833 E0.0117
G1 X-88.387 Y66.121 E0.0119
G1 X-88.100 Y66.355 E0.0119
G1 X-87.778 Y66.523 E0.0117
G1 X-87.439 Y66.621 E0.0114
G1 X-87.111 Y66.651 E0.0106
G1 X-86.783 Y66.621 E0.0106
G1 X-86.449 Y66.525 E0.0112
G1 X-86.127 Y66.359 E0.0117
G1 X-85.840 Y66.126 E0.0119
G1 X-85.606 Y65.839 E0.0119
G1 X-85.438 Y65.517 E0.0117
G1 X-85.341 Y65.181 E0.0113
G1 X-85.310 Y64.850 E0.0107
G1 X-85.340 Y64.523 E0.0106
G1 X-85.436 Y64.188 E0.0112
G1 X-85.602 Y63.866 E0.0117
G1 X-85.835 Y63.579 E0.0119
G1 X-86.121 Y63.345 E0.0119
G1 X-86.443 Y63.177 E0.0117
G1 X-86.779 Y63.080 E0.0113
G1 X-87.111 Y63.049 E0.0107
G1 X-87.438 Y63.079 E0.0106
G1 X-87.773 Y63.175 E0.0112
G1 X-88.094 Y63.341 E0.0117
G1 X-88.382 Y63.574 E0.0119
G1 E-1.0000 F1200
; inner perimeter
G1 X-97.111 Y-52.647 F4200
G1 E1.0000 F1200
G1 X-96.709 Y-52.684 E0.0130 F1350
G1 X-96.301 Y-52.801 E0.0137
G1 X-95.907 Y-53.005 E0.0143
G1 X-95.556 Y-53.289 E0.0146
G1 X-95.270 Y-53.639 E0.0146
G1 X-95.065 Y-54.033 E0.0143
G1 X-94.946 Y-54.444 E0.0138
G1 X-94.908 Y-54.850 E0.0131
G1 X-94.945 Y-55.251 E0.0130
G1 X-95.062 Y-55.660 E0.0137
G1 X-95.265 Y-56.053 E0.0143
G1 X-95.550 Y-56.405 E0.0146
G1 X-95.900 Y-56.691 E0.0146
G1 X-96.294 Y-56.896 E0.0143
G1 X-96.705 Y-57.015 E0.0138
G1 X-97.110 Y-57.053 E0.0131
G1 X-97.512 Y-57.016 E0.0130
G1 X-97.921 Y-56.899 E0.0137
G1 X-98.314 Y-56.695 E0.0143
G1 X-98.666 Y-56.411 E0.0146
G1 X-98.952 Y-56.061 E0.0146
G1 X-99.157 Y-55.667 E0.0143
G1 X-99.276 Y-55.253 E0.0139
G1 X-99.313 Y-54.850 E0.0130
G1 X-99.277 Y-54.449 E0.0130
G1 X-99.159 Y-54.040 E0.0137
G1 X-98.956 Y-53.647 E0.0143
G1 X-98.672 Y-53.295 E0.0146
G1 X-98.321 Y-53.009 E0.0146
G1 X-97.928 Y-52.804 E0.0143
G1 X-97.517 Y-52.685 E0.0138
G1 X-97.111 Y-52.647 E0.0131
; outer perimeter
G1 X-97.111 Y-53.049 F4200
G1 X-96.783 Y-53.079 E0.0106 F900
G1 X-96.449 Y-53.175 E0.0112
G1 X-96.127 Y-53.341 E0.0117
G1 X-95.840 Y-53.574 E0.0119
G1 X-95.606 Y-53.861 E0.0119
G1 X-95.438 Y-54.183 E0.0117
G1 X-95.341 Y-54.519 E0.0113
G1 X-95.310 Y-54.850 E0.0107
G1 X-95.340 Y-55.177 E0.0106
G1 X-95.436 Y-55.512 E0.0112
G1 X-95.602 Y-55.834 E0.0117
G1 X-95.835 Y-56.121 E0.0119
G1 X-96.121 Y-56.355 E0.0119
G1 X-96.443 Y-56.523 E0.0117
G1 X-96.779 Y-56.620 E0.0113
G1 X-97.111 Y-56.651 E0.0107
G1 X-97.438 Y-56.621 E0.0106
G1 X-97.772 Y-56.525 E0.0112
G1 X-98.094 Y-56.359 E0.0117
G1 X-98.382 Y-56.126 E0.0119
G1 X-98.616 Y-55.839 E0.0119
G1 X-98.784 Y-55.517 E0.0117
G1 X-98.882 Y-55.178 E0.0114
G1 X-98.912 Y-54.850 E0.0106
G1 X-98.882 Y-54.523 E0.0106
G1 X-98.786 Y-54.188 E0.0112
G1 X-98.620 Y-53.866 E0.0117
G1 X-98.387 Y-53.579 E0.0119
G1 X-98.100 Y-53.345 E0.0119
G1 X-97.778 Y-53.177 E0.0117
G1 X-97.442 Y-53.080 E0.0113
G1 X-97.111 Y-53.049 E0.0107
G1 E-1.0000 F1200
; inner perimeter
G1 X-88.672 Y-63.295 F4200
G1 E1.0000 F1200
