; G-Code generated by Simplify3D(R) Version 4.0.0
; Jul 31, 2017 at 9:14:14 AM
; Settings Summary
;   processName,Black 30% Left
;   applyToModels,right-bottom
;   profileName,Default (modified)
;   profileVersion,2015-05-01 08:00:00
;   baseProfile,
;   printMaterial,PLA
;   printQuality,Medium
;   printExtruders,Left Extruder Only
;   extruderName,Right Extruder,Left Extruder
;   extruderToolheadNumber,0,1
;   extruderDiameter,0.4,0.4
;   extruderAutoWidth,0,0
;   extruderWidth,0.4,0.4
;   extrusionMultiplier,0.9,0.97
;   extruderUseRetract,1,1
;   extruderRetractionDistance,1,1
;   extruderExtraRestartDistance,0,0
;   extruderRetractionZLift,0,0
;   extruderRetractionSpeed,1200,1200
;   extruderUseCoasting,0,0
;   extruderCoastingDistance,0.2,0.2
;   extruderUseWipe,0,0
;   extruderWipeDistance,5,5
;   primaryExtruder,1
;   layerHeight,0.2
;   topSolidLayers,3
;   bottomSolidLayers,3
;   perimeterOutlines,2
;   printPerimetersInsideOut,1
;   startPointOption,2
;   startPointOriginX,0
;   startPointOriginY,0
;   sequentialIslands,0
;   spiralVaseMode,0
;   firstLayerHeightPercentage,90
;   firstLayerWidthPercentage,100
;   firstLayerUnderspeed,0.5
;   useRaft,0
;   raftExtruder,1
;   raftTopLayers,3
;   raftBaseLayers,2
;   raftOffset,3
;   raftSeparationDistance,0.14
;   raftTopInfill,100
;   aboveRaftSpeedMultiplier,0.3
;   useSkirt,0
;   skirtExtruder,1
;   skirtLayers,1
;   skirtOutlines,2
;   skirtOffset,4
;   usePrimePillar,0
;   primePillarExtruder,999
;   primePillarWidth,12
;   primePillarLocation,7
;   primePillarSpeedMultiplier,1
;   useOozeShield,0
;   oozeShieldExtruder,999
;   oozeShieldOffset,2
;   oozeShieldOutlines,1
;   oozeShieldSidewallShape,1
;   oozeShieldSidewallAngle,30
;   oozeShieldSpeedMultiplier,1
;   infillExtruder,1
;   internalInfillPattern,Rectilinear
;   externalInfillPattern,Rectilinear
;   infillPercentage,30
;   outlineOverlapPercentage,20
;   infillExtrusionWidthPercentage,100
;   minInfillLength,5
;   infillLayerInterval,1
;   internalInfillAngles,45,-45
;   overlapInternalInfillAngles,0
;   externalInfillAngles,45,-45
;   generateSupport,0
;   supportExtruder,1
;   supportInfillPercentage,30
;   supportExtraInflation,0
;   supportBaseLayers,0
;   denseSupportExtruder,1
;   denseSupportLayers,0
;   denseSupportInfillPercentage,70
;   supportLayerInterval,1
;   supportHorizontalPartOffset,0.3
;   supportUpperSeparationLayers,1
;   supportLowerSeparationLayers,1
;   supportType,0
;   supportGridSpacing,4
;   maxOverhangAngle,45
;   supportAngles,0
;   temperatureName,Right Extruder,Left Extruder,Heated Build Platform
;   temperatureNumber,0,1,0
;   temperatureSetpointCount,1,1,1
;   temperatureSetpointLayers,1,1,1
;   temperatureSetpointTemperatures,0,210,55
;   temperatureStabilizeAtStartup,0,0,0
;   temperatureHeatedBed,0,0,1
;   temperatureRelayBetweenLayers,0,0,0
;   temperatureRelayBetweenLoops,0,0,0
;   fanLayers,1,2
;   fanSpeeds,0,100
;   blipFanToFullPower,0
;   adjustSpeedForCooling,1
;   minSpeedLayerTime,15
;   minCoolingSpeedSlowdown,20
;   increaseFanForCooling,0
;   minFanLayerTime,45
;   maxCoolingFanSpeed,100
;   increaseFanForBridging,1
;   bridgingFanSpeed,100
;   use5D,1
;   relativeEdistances,1
;   allowEaxisZeroing,0
;   independentExtruderAxes,1
;   includeM10123,0
;   stickySupport,1
;   applyToolheadOffsets,0
;   gcodeXoffset,0
;   gcodeYoffset,0
;   gcodeZoffset,0
;   overrideMachineDefinition,1
;   machineTypeOverride,0
;   strokeXoverride,225
;   strokeYoverride,145
;   strokeZoverride,150
;   originOffsetXoverride,112.5
;   originOffsetYoverride,72.5
;   originOffsetZoverride,0
;   homeXdirOverride,1
;   homeYdirOverride,1
;   homeZdirOverride,-1
;   flipXoverride,1
;   flipYoverride,-1
;   flipZoverride,1
;   toolheadOffsets,0,0|34,0|0,0|0,0|0,0|0,0
;   overrideFirmwareConfiguration,1
;   firmwareTypeOverride,MakerBot/Sailfish Firmware
;   GPXconfigOverride,r1d
;   baudRateOverride,115200
;   overridePrinterModels,1
;   printerModelsOverride,FlashForge_CreatorPro.stl
;   startingGcode,; **** Replicator 1 dual start.gcode ****,M73 P0 ; enable build progress,G162 X Y F3000 ; home XY maximum,G161 Z F1200 ; home Z minimum,G92 Z-5 ; set Z to -5,G1 Z0 ; move Z to 0,G161 Z F100 ; home Z slowly,M132 X Y Z A B ; recall home offsets,M135 T0 ; load right extruder offsets,G1 X150 Y-70 Z30 F9000 ; move to wait position right hand side of the table,G130 X20 Y20 Z20 A20 B20 ; lower stepper Vrefs while heating,M126 S[fan_speed_pwm],M140 S[bed0_temperature] T0,M134 T0 ; stabilize bed temperature,M104 S[extruder1_temperature] T1,M133 T1 ; stabilize left extruder temperature,G130 X127 Y127 Z40 A127 B127 ; default stepper Vrefs,G92 A0 B0 ; zero extruders,G1 Z0.4 ; position nozzle,M135 T1 ; left tool,G1 X110 Y-70 E30 F300 ; move nozzle,G1 X120 Y-70 Z0.15 F1200 ; slow wipe,G1 X110 Y-70 Z0.5 F1200 ; lift,G92 A0 B0 ; zero extruders,M73 P1 ;@body (notify GPX body has started),; **** end of start.gcode ****
;   layerChangeGcode,
;   retractionGcode,
;   toolChangeGcode,
;   endingGcode,; **** Replicator 1 dual end.gcode ****,M73 P100 ; end build progress,G1 Z150 F1000 ; send Z axis to bottom of machine,M140 S0 T0 ; cool down HBP,M104 S0 T0 ; cool down right extruder,M104 S0 T1 ; cool down left extruder,M127 ; stop blower fan,G162 X Y F3000 ; home XY maximum,M18 ; disable stepper,M72 P1 ; play Ta-Da song,; **** end of end.gcode ****
;   exportFileFormat,x3g
;   celebration,0
;   celebrationSong,Random Song
;   postProcessing,
;   defaultSpeed,3600
;   outlineUnderspeed,0.5
;   solidInfillUnderspeed,0.8
;   supportUnderspeed,0.8
;   rapidXYspeed,4200
;   rapidZspeed,1200
;   minBridgingArea,50
;   bridgingExtraInflation,0
;   bridgingExtrusionMultiplier,1
;   bridgingSpeedMultiplier,0.8
;   useFixedBridgingAngle,0
;   fixedBridgingAngle,0
;   applyBridgingToPerimeters,0
;   filamentDiameters,1.75|1.75|1.75|1.75|1.75|1.75
;   filamentPricesPerKg,25|25|25|25|25|25
;   filamentDensities,1.25|1.25|1.25|1.25|1.25|1.25
;   useMinPrintHeight,0
;   minPrintHeight,0
;   useMaxPrintHeight,0
;   maxPrintHeight,0
;   useDiaphragm,0
;   diaphragmLayerInterval,20
;   robustSlicing,1
;   mergeAllIntoSolid,0
;   onlyRetractWhenCrossingOutline,1
;   retractBetweenLayers,1
;   useRetractionMinTravel,0
;   retractionMinTravel,3
;   retractWhileWiping,0
;   onlyWipeOutlines,1
;   avoidCrossingOutline,0
;   maxMovementDetourFactor,3
;   toolChangeRetractionDistance,12
;   toolChangeExtraRestartDistance,-0.5
;   toolChangeRetractionSpeed,600
;   externalThinWallType,0
;   internalThinWallType,2
;   thinWallAllowedOverlapPercentage,10
;   singleExtrusionMinLength,1
;   singleExtrusionMinPrintingWidthPercentage,50
;   singleExtrusionMaxPrintingWidthPercentage,200
;   singleExtrusionEndpointExtension,0.2
;   horizontalSizeCompensation,0
G90
M83
; **** Replicator 1 dual start.gcode ****
M73 P0 ; enable build progress
G162 X Y F3000 ; home XY maximum
G161 Z F1200 ; home Z minimum
G92 Z-5 ; set Z to -5
G1 Z0 ; move Z to 0
G161 Z F100 ; home Z slowly
M132 X Y Z A B ; recall home offsets
M135 T0 ; load right extruder offsets
G1 X150 Y-70 Z30 F9000 ; move to wait position right hand side of the table
G130 X20 Y20 Z20 A20 B20 ; lower stepper Vrefs while heating
M127
M140 S55 T0
M134 T0 ; stabilize bed temperature
M104 S210 T1
M133 T1 ; stabilize left extruder temperature
G130 X127 Y127 Z40 A127 B127 ; default stepper Vrefs
G92 A0 B0 ; zero extruders
G1 Z0.4 ; position nozzle
M135 T1 ; left tool
G1 X110 Y-70 E30 F300 ; move nozzle
G1 X120 Y-70 Z0.15 F1200 ; slow wipe
G1 X110 Y-70 Z0.5 F1200 ; lift
G92 A0 B0 ; zero extruders
M73 P1 ;@body (notify GPX body has started)
; **** end of start.gcode ****
G1 E-1.0000 F1200
G1 Z0.180 F1200
; process Black 30% Left
; layer 1, Z = 0.180
M135 T1
; tool H0.200 W0.400
; inner perimeter
G1 X-98.592 Y-69.250 F4200
G1 E1.0000 F360
G1 X98.630 Y-69.250 E6.3628 F1350
G1 X99.189 Y-69.233 E0.0180
G1 X99.428 Y-69.204 E0.0078
G1 X99.673 Y-69.151 E0.0081
G1 X99.900 Y-69.073 E0.0078
G1 X100.094 Y-68.979 E0.0070
G1 X100.286 Y-68.854 E0.0074
G1 X100.456 Y-68.706 E0.0073
G1 X100.605 Y-68.534 E0.0073
G1 X100.722 Y-68.358 E0.0068
G1 X100.824 Y-68.148 E0.0075
G1 X100.901 Y-67.922 E0.0077
G1 X100.954 Y-67.677 E0.0081
G1 X100.984 Y-67.420 E0.0083
G1 X101.000 Y-66.842 E0.0187
G1 X101.000 Y69.250 E4.3906
G1 X-101.000 Y69.250 E6.5170
G1 X-101.000 Y-66.880 E4.3919
G1 X-100.983 Y-67.439 E0.0180
G1 X-100.954 Y-67.678 E0.0078
G1 X-100.901 Y-67.923 E0.0081
G1 X-100.823 Y-68.150 E0.0078
G1 X-100.729 Y-68.344 E0.0070
G1 X-100.604 Y-68.536 E0.0074
G1 X-100.456 Y-68.706 E0.0073
G1 X-100.284 Y-68.855 E0.0073
G1 X-100.108 Y-68.972 E0.0068
G1 X-99.898 Y-69.074 E0.0075
G1 X-99.672 Y-69.151 E0.0077
G1 X-99.427 Y-69.204 E0.0081
G1 X-99.170 Y-69.234 E0.0084
G1 X-98.592 Y-69.250 E0.0187
; outer perimeter
G1 X-98.597 Y-69.650 F4200
G1 X98.636 Y-69.650 E6.3632 F900
G1 X99.219 Y-69.632 E0.0188
G1 X99.494 Y-69.599 E0.0090
G1 X99.780 Y-69.537 E0.0094
G1 X100.052 Y-69.444 E0.0093
G1 X100.292 Y-69.328 E0.0086
G1 X100.528 Y-69.173 E0.0091
G1 X100.740 Y-68.989 E0.0091
G1 X100.925 Y-68.777 E0.0091
G1 X101.070 Y-68.556 E0.0085
G1 X101.195 Y-68.301 E0.0092
G1 X101.287 Y-68.029 E0.0093
G1 X101.349 Y-67.743 E0.0094
G1 X101.384 Y-67.449 E0.0096
G1 X101.400 Y-66.847 E0.0194
G1 X101.400 Y69.650 E4.4037
G1 X-101.400 Y69.650 E6.5428
G1 X-101.400 Y-66.886 E4.4050
G1 X-101.382 Y-67.469 E0.0188
G1 X-101.349 Y-67.744 E0.0090
G1 X-101.287 Y-68.030 E0.0094
G1 X-101.194 Y-68.302 E0.0093
G1 X-101.078 Y-68.542 E0.0086
G1 X-100.923 Y-68.778 E0.0091
G1 X-100.739 Y-68.990 E0.0091
G1 X-100.527 Y-69.175 E0.0091
G1 X-100.306 Y-69.320 E0.0085
G1 X-100.051 Y-69.445 E0.0092
G1 X-99.779 Y-69.537 E0.0093
G1 X-99.493 Y-69.599 E0.0094
G1 X-99.199 Y-69.634 E0.0096
G1 X-98.597 Y-69.650 E0.0194
; inner perimeter
G1 X-78.766 Y-65.252 F4200
G1 X-78.803 Y-64.850 E0.0130 F1350
G1 X-78.765 Y-64.446 E0.0131
G1 X-78.653 Y-64.052 E0.0132
G1 X-78.431 Y-63.627 E0.0155
G1 X-78.170 Y-63.305 E0.0134
G1 X-77.807 Y-63.006 E0.0152
G1 X-77.411 Y-62.802 E0.0144
G1 X-77.002 Y-62.684 E0.0137
G1 X-76.600 Y-62.647 E0.0130
G1 X-76.197 Y-62.685 E0.0131
G1 X-75.802 Y-62.797 E0.0132
G1 X-75.377 Y-63.019 E0.0155
G1 X-75.055 Y-63.280 E0.0134
G1 X-74.756 Y-63.643 E0.0152
G1 X-74.552 Y-64.039 E0.0144
G1 X-74.434 Y-64.448 E0.0137
G1 X-74.397 Y-64.850 E0.0130
G1 X-74.435 Y-65.253 E0.0131
G1 X-74.547 Y-65.648 E0.0132
G1 X-74.769 Y-66.073 E0.0155
G1 X-75.030 Y-66.395 E0.0134
G1 X-75.393 Y-66.694 E0.0152
G1 X-75.789 Y-66.898 E0.0144
G1 X-76.197 Y-67.015 E0.0137
G1 X-76.582 Y-67.052 E0.0125
G1 X-77.002 Y-67.016 E0.0136
G1 X-77.394 Y-66.904 E0.0132
G1 X-77.788 Y-66.705 E0.0142
G1 X-78.143 Y-66.422 E0.0146
G1 X-78.444 Y-66.057 E0.0153
G1 X-78.648 Y-65.661 E0.0144
G1 X-78.766 Y-65.252 E0.0137
; outer perimeter
G1 X-78.371 Y-65.178 F4200
G1 X-78.401 Y-64.850 E0.0106 F900
G1 X-78.370 Y-64.520 E0.0107
G1 X-78.279 Y-64.201 E0.0107
G1 X-78.095 Y-63.848 E0.0128
G1 X-77.885 Y-63.589 E0.0108
G1 X-77.585 Y-63.342 E0.0125
G1 X-77.262 Y-63.175 E0.0117
G1 X-76.928 Y-63.079 E0.0112
G1 X-76.600 Y-63.049 E0.0106
G1 X-76.270 Y-63.080 E0.0107
G1 X-75.951 Y-63.171 E0.0107
G1 X-75.598 Y-63.355 E0.0128
G1 X-75.339 Y-63.565 E0.0108
G1 X-75.092 Y-63.865 E0.0125
G1 X-74.925 Y-64.188 E0.0117
G1 X-74.829 Y-64.522 E0.0112
G1 X-74.799 Y-64.850 E0.0106
G1 X-74.830 Y-65.180 E0.0107
G1 X-74.921 Y-65.499 E0.0107
G1 X-75.105 Y-65.852 E0.0128
G1 X-75.315 Y-66.111 E0.0108
G1 X-75.615 Y-66.358 E0.0125
G1 X-75.938 Y-66.525 E0.0117
G1 X-76.272 Y-66.621 E0.0112
G1 X-76.584 Y-66.650 E0.0101
G1 X-76.929 Y-66.621 E0.0112
G1 X-77.248 Y-66.530 E0.0107
G1 X-77.571 Y-66.366 E0.0117
G1 X-77.861 Y-66.135 E0.0120
G1 X-78.108 Y-65.835 E0.0125
G1 X-78.275 Y-65.512 E0.0117
G1 X-78.371 Y-65.178 E0.0112
; inner perimeter
G1 X-95.030 Y-46.395 F4200
G1 X-95.393 Y-46.694 E0.0152 F1350
G1 X-95.789 Y-46.898 E0.0144
G1 X-96.198 Y-47.016 E0.0137
G1 X-96.600 Y-47.053 E0.0130
G1 X-97.004 Y-47.015 E0.0131
G1 X-97.398 Y-46.903 E0.0132
G1 X-97.823 Y-46.681 E0.0155
G1 X-98.145 Y-46.420 E0.0134
G1 X-98.444 Y-46.057 E0.0152
G1 X-98.648 Y-45.661 E0.0144
G1 X-98.765 Y-45.253 E0.0137
G1 X-98.802 Y-44.868 E0.0125
G1 X-98.766 Y-44.448 E0.0136
G1 X-98.654 Y-44.056 E0.0132
G1 X-98.455 Y-43.662 E0.0142
G1 X-98.172 Y-43.307 E0.0146
G1 X-97.807 Y-43.006 E0.0153
G1 X-97.411 Y-42.802 E0.0144
G1 X-97.002 Y-42.684 E0.0137
G1 X-96.600 Y-42.647 E0.0130
G1 X-96.197 Y-42.685 E0.0131
G1 X-95.802 Y-42.797 E0.0132
G1 X-95.377 Y-43.019 E0.0155
G1 X-95.055 Y-43.280 E0.0134
G1 X-94.756 Y-43.643 E0.0152
G1 X-94.552 Y-44.039 E0.0144
G1 X-94.434 Y-44.448 E0.0137
G1 X-94.397 Y-44.850 E0.0130
G1 X-94.435 Y-45.253 E0.0131
G1 X-94.547 Y-45.648 E0.0132
G1 X-94.769 Y-46.073 E0.0155
G1 X-95.030 Y-46.395 E0.0134
; outer perimeter
G1 X-95.315 Y-46.111 F4200
G1 X-95.615 Y-46.358 E0.0125 F900
G1 X-95.938 Y-46.525 E0.0117
G1 X-96.272 Y-46.621 E0.0112
G1 X-96.600 Y-46.651 E0.0106
G1 X-96.930 Y-46.620 E0.0107
G1 X-97.249 Y-46.529 E0.0107
G1 X-97.602 Y-46.345 E0.0128
G1 X-97.861 Y-46.135 E0.0108
G1 X-98.108 Y-45.835 E0.0125
G1 X-98.275 Y-45.512 E0.0117
G1 X-98.371 Y-45.178 E0.0112
G1 X-98.400 Y-44.866 E0.0101
G1 X-98.371 Y-44.521 E0.0112
G1 X-98.280 Y-44.202 E0.0107
G1 X-98.116 Y-43.879 E0.0117
G1 X-97.885 Y-43.589 E0.0120
G1 X-97.585 Y-43.342 E0.0125
G1 X-97.262 Y-43.175 E0.0117
G1 X-96.928 Y-43.079 E0.0112
G1 X-96.600 Y-43.049 E0.0106
G1 X-96.270 Y-43.080 E0.0107
G1 X-95.951 Y-43.171 E0.0107
G1 X-95.598 Y-43.355 E0.0128
G1 X-95.339 Y-43.565 E0.0108
G1 X-95.092 Y-43.865 E0.0125
G1 X-94.925 Y-44.188 E0.0117
G1 X-94.829 Y-44.522 E0.0112
G1 X-94.799 Y-44.850 E0.0106
G1 X-94.830 Y-45.180 E0.0107
G1 X-94.921 Y-45.499 E0.0107
G1 X-95.105 Y-45.852 E0.0128
G1 X-95.315 Y-46.111 E0.0108
; inner perimeter
G1 X-75.194 Y-29.307 F4200
G1 X-75.398 Y-28.911 E0.0144 F1350
G1 X-75.516 Y-28.502 E0.0137
G1 X-75.553 Y-28.100 E0.0130
G1 X-75.515 Y-27.696 E0.0131
G1 X-75.404 Y-27.306 E0.0131
G1 X-75.205 Y-26.912 E0.0142
G1 X-74.922 Y-26.557 E0.0146
G1 X-74.557 Y-26.256 E0.0153
G1 X-74.161 Y-26.052 E0.0144
G1 X-73.752 Y-25.934 E0.0137
G1 X-73.350 Y-25.897 E0.0130
G1 X-72.947 Y-25.935 E0.0131
G1 X-72.556 Y-26.046 E0.0131
G1 X-72.162 Y-26.245 E0.0142
G1 X-71.807 Y-26.528 E0.0146
G1 X-71.506 Y-26.893 E0.0153
G1 X-71.302 Y-27.289 E0.0144
G1 X-71.184 Y-27.698 E0.0137
G1 X-71.147 Y-28.100 E0.0130
G1 X-71.185 Y-28.503 E0.0131
G1 X-71.296 Y-28.894 E0.0131
G1 X-71.495 Y-29.288 E0.0142
G1 X-71.752 Y-29.610 E0.0133
G1 X-71.808 Y-29.671 E0.0027
G1 X-72.145 Y-29.945 E0.0140
G1 X-72.539 Y-30.148 E0.0143
G1 X-72.948 Y-30.266 E0.0137
G1 X-73.350 Y-30.303 E0.0130
G1 X-73.754 Y-30.265 E0.0131
G1 X-74.144 Y-30.154 E0.0131
G1 X-74.538 Y-29.955 E0.0142
G1 X-74.893 Y-29.672 E0.0146
G1 X-75.194 Y-29.307 E0.0153
; outer perimeter
G1 X-74.858 Y-29.085 F4200
G1 X-75.025 Y-28.762 E0.0117 F900
G1 X-75.121 Y-28.428 E0.0112
G1 X-75.151 Y-28.100 E0.0106
G1 X-75.120 Y-27.770 E0.0107
G1 X-75.030 Y-27.452 E0.0107
G1 X-74.866 Y-27.129 E0.0117
G1 X-74.635 Y-26.839 E0.0120
G1 X-74.335 Y-26.592 E0.0125
G1 X-74.012 Y-26.425 E0.0117
G1 X-73.678 Y-26.329 E0.0112
G1 X-73.350 Y-26.299 E0.0106
G1 X-73.020 Y-26.330 E0.0107
G1 X-72.702 Y-26.420 E0.0107
G1 X-72.379 Y-26.584 E0.0117
G1 X-72.089 Y-26.815 E0.0120
G1 X-71.842 Y-27.115 E0.0125
G1 X-71.675 Y-27.438 E0.0117
G1 X-71.579 Y-27.772 E0.0112
G1 X-71.549 Y-28.100 E0.0106
G1 X-71.580 Y-28.430 E0.0107
G1 X-71.670 Y-28.748 E0.0107
G1 X-71.834 Y-29.071 E0.0117
G1 X-72.056 Y-29.350 E0.0115
G1 X-72.083 Y-29.379 E0.0013
G1 X-72.366 Y-29.608 E0.0117
G1 X-72.688 Y-29.775 E0.0117
G1 X-73.022 Y-29.871 E0.0112
G1 X-73.350 Y-29.901 E0.0106
G1 X-73.680 Y-29.870 E0.0107
G1 X-73.998 Y-29.780 E0.0107
G1 X-74.321 Y-29.616 E0.0117
G1 X-74.611 Y-29.385 E0.0120
G1 X-74.858 Y-29.085 E0.0125
G1 E-1.0000 F1200
; inner perimeter
G1 X-73.350 Y25.897 F4200
G1 E1.0000 F1200
G1 X-73.753 Y25.935 E0.0131 F1350
G1 X-74.144 Y26.046 E0.0131
G1 X-74.541 Y26.247 E0.0144
G1 X-74.922 Y26.558 E0.0159
G1 X-75.195 Y26.896 E0.0140
G1 X-75.398 Y27.289 E0.0143
G1 X-75.516 Y27.698 E0.0137
G1 X-75.553 Y28.100 E0.0130
