; G-Code generated by Simplify3D(R) Version 4.0.0
; Jul 25, 2017 at 8:23:17 AM
; Settings Summary
;   processName,Black 30% Left
;   applyToModels,right-top
;   profileName,Default (modified)
;   profileVersion,2015-05-01 08:00:00
;   baseProfile,
;   printMaterial,PLA
;   printQuality,Medium
;   printExtruders,Left Extruder Only
;   extruderName,Right Extruder,Left Extruder
;   extruderToolheadNumber,0,1
;   extruderDiameter,0.4,0.4
;   extruderAutoWidth,0,0
;   extruderWidth,0.4,0.4
;   extrusionMultiplier,0.9,0.97
;   extruderUseRetract,1,1
;   extruderRetractionDistance,1,1
;   extruderExtraRestartDistance,0,0
;   extruderRetractionZLift,0,0
;   extruderRetractionSpeed,1200,1200
;   extruderUseCoasting,0,0
;   extruderCoastingDistance,0.2,0.2
;   extruderUseWipe,0,0
;   extruderWipeDistance,5,5
;   primaryExtruder,1
;   layerHeight,0.2
;   topSolidLayers,3
;   bottomSolidLayers,3
;   perimeterOutlines,2
;   printPerimetersInsideOut,1
;   startPointOption,2
;   startPointOriginX,0
;   startPointOriginY,0
;   sequentialIslands,0
;   spiralVaseMode,0
;   firstLayerHeightPercentage,90
;   firstLayerWidthPercentage,100
;   firstLayerUnderspeed,0.5
;   useRaft,0
;   raftExtruder,1
;   raftTopLayers,3
;   raftBaseLayers,2
;   raftOffset,3
;   raftSeparationDistance,0.14
;   raftTopInfill,100
;   aboveRaftSpeedMultiplier,0.3
;   useSkirt,0
;   skirtExtruder,1
;   skirtLayers,1
;   skirtOutlines,2
;   skirtOffset,4
;   usePrimePillar,0
;   primePillarExtruder,999
;   primePillarWidth,12
;   primePillarLocation,7
;   primePillarSpeedMultiplier,1
;   useOozeShield,0
;   oozeShieldExtruder,999
;   oozeShieldOffset,2
;   oozeShieldOutlines,1
;   oozeShieldSidewallShape,1
;   oozeShieldSidewallAngle,30
;   oozeShieldSpeedMultiplier,1
;   infillExtruder,1
;   internalInfillPattern,Rectilinear
;   externalInfillPattern,Rectilinear
;   infillPercentage,30
;   outlineOverlapPercentage,20
;   infillExtrusionWidthPercentage,100
;   minInfillLength,5
;   infillLayerInterval,1
;   internalInfillAngles,45,-45
;   overlapInternalInfillAngles,0
;   externalInfillAngles,45,-45
;   generateSupport,0
;   supportExtruder,1
;   supportInfillPercentage,30
;   supportExtraInflation,0
;   supportBaseLayers,0
;   denseSupportExtruder,1
;   denseSupportLayers,0
;   denseSupportInfillPercentage,70
;   supportLayerInterval,1
;   supportHorizontalPartOffset,0.3
;   supportUpperSeparationLayers,1
;   supportLowerSeparationLayers,1
;   supportType,0
;   supportGridSpacing,4
;   maxOverhangAngle,45
;   supportAngles,0
;   temperatureName,Right Extruder,Left Extruder,Heated Build Platform
;   temperatureNumber,0,1,0
;   temperatureSetpointCount,1,1,1
;   temperatureSetpointLayers,1,1,1
;   temperatureSetpointTemperatures,0,210,55
;   temperatureStabilizeAtStartup,0,0,0
;   temperatureHeatedBed,0,0,1
;   temperatureRelayBetweenLayers,0,0,0
;   temperatureRelayBetweenLoops,0,0,0
;   fanLayers,1,2
;   fanSpeeds,0,100
;   blipFanToFullPower,0
;   adjustSpeedForCooling,1
;   minSpeedLayerTime,15
;   minCoolingSpeedSlowdown,20
;   increaseFanForCooling,0
;   minFanLayerTime,45
;   maxCoolingFanSpeed,100
;   increaseFanForBridging,1
;   bridgingFanSpeed,100
;   use5D,1
;   relativeEdistances,1
;   allowEaxisZeroing,0
;   independentExtruderAxes,1
;   includeM10123,0
;   stickySupport,1
;   applyToolheadOffsets,0
;   gcodeXoffset,0
;   gcodeYoffset,0
;   gcodeZoffset,0
;   overrideMachineDefinition,1
;   machineTypeOverride,0
;   strokeXoverride,225
;   strokeYoverride,145
;   strokeZoverride,150
;   originOffsetXoverride,112.5
;   originOffsetYoverride,72.5
;   originOffsetZoverride,0
;   homeXdirOverride,1
;   homeYdirOverride,1
;   homeZdirOverride,-1
;   flipXoverride,1
;   flipYoverride,-1
;   flipZoverride,1
;   toolheadOffsets,0,0|34,0|0,0|0,0|0,0|0,0
;   overrideFirmwareConfiguration,1
;   firmwareTypeOverride,MakerBot/Sailfish Firmware
;   GPXconfigOverride,r1d
;   baudRateOverride,115200
;   overridePrinterModels,1
;   printerModelsOverride,FlashForge_CreatorPro.stl
;   startingGcode,; **** Replicator 1 dual start.gcode ****,M73 P0 ; enable build progress,G162 X Y F3000 ; home XY maximum,G161 Z F1200 ; home Z minimum,G92 Z-5 ; set Z to -5,G1 Z0 ; move Z to 0,G161 Z F100 ; home Z slowly,M132 X Y Z A B ; recall home offsets,M135 T0 ; load right extruder offsets,G1 X150 Y-70 Z30 F9000 ; move to wait position right hand side of the table,G130 X20 Y20 Z20 A20 B20 ; lower stepper Vrefs while heating,M126 S[fan_speed_pwm],M140 S[bed0_temperature] T0,M134 T0 ; stabilize bed temperature,M104 S[extruder1_temperature] T1,M133 T1 ; stabilize left extruder temperature,G130 X127 Y127 Z40 A127 B127 ; default stepper Vrefs,G92 A0 B0 ; zero extruders,G1 Z0.4 ; position nozzle,M135 T1 ; left tool,G1 X110 Y-70 E30 F300 ; move nozzle,G1 X120 Y-70 Z0.15 F1200 ; slow wipe,G1 X110 Y-70 Z0.5 F1200 ; lift,G92 A0 B0 ; zero extruders,M73 P1 ;@body (notify GPX body has started),; **** end of start.gcode ****
;   layerChangeGcode,
;   retractionGcode,
;   toolChangeGcode,
;   endingGcode,; **** Replicator 1 dual end.gcode ****,M73 P100 ; end build progress,G1 Z150 F1000 ; send Z axis to bottom of machine,M140 S0 T0 ; cool down HBP,M104 S0 T0 ; cool down right extruder,M104 S0 T1 ; cool down left extruder,M127 ; stop blower fan,G162 X Y F3000 ; home XY maximum,M18 ; disable stepper,M72 P1 ; play Ta-Da song,; **** end of end.gcode ****
;   exportFileFormat,x3g
;   celebration,0
;   celebrationSong,Random Song
;   postProcessing,
;   defaultSpeed,3600
;   outlineUnderspeed,0.5
;   solidInfillUnderspeed,0.8
;   supportUnderspeed,0.8
;   rapidXYspeed,4200
;   rapidZspeed,1200
;   minBridgingArea,50
;   bridgingExtraInflation,0
;   bridgingExtrusionMultiplier,1
;   bridgingSpeedMultiplier,0.8
;   useFixedBridgingAngle,0
;   fixedBridgingAngle,0
;   applyBridgingToPerimeters,0
;   filamentDiameters,1.75|1.75|1.75|1.75|1.75|1.75
;   filamentPricesPerKg,46|46|46|46|46|46
;   filamentDensities,1.25|1.25|1.25|1.25|1.25|1.25
;   useMinPrintHeight,0
;   minPrintHeight,0
;   useMaxPrintHeight,0
;   maxPrintHeight,0
;   useDiaphragm,0
;   diaphragmLayerInterval,20
;   robustSlicing,1
;   mergeAllIntoSolid,0
;   onlyRetractWhenCrossingOutline,1
;   retractBetweenLayers,1
;   useRetractionMinTravel,0
;   retractionMinTravel,3
;   retractWhileWiping,0
;   onlyWipeOutlines,1
;   avoidCrossingOutline,0
;   maxMovementDetourFactor,3
;   toolChangeRetractionDistance,12
;   toolChangeExtraRestartDistance,-0.5
;   toolChangeRetractionSpeed,600
;   externalThinWallType,0
;   internalThinWallType,2
;   thinWallAllowedOverlapPercentage,10
;   singleExtrusionMinLength,1
;   singleExtrusionMinPrintingWidthPercentage,50
;   singleExtrusionMaxPrintingWidthPercentage,200
;   singleExtrusionEndpointExtension,0.2
;   horizontalSizeCompensation,0
G90
M83
; **** Replicator 1 dual start.gcode ****
M73 P0 ; enable build progress
G162 X Y F3000 ; home XY maximum
G161 Z F1200 ; home Z minimum
G92 Z-5 ; set Z to -5
G1 Z0 ; move Z to 0
G161 Z F100 ; home Z slowly
M132 X Y Z A B ; recall home offsets
M135 T0 ; load right extruder offsets
G1 X150 Y-70 Z30 F9000 ; move to wait position right hand side of the table
G130 X20 Y20 Z20 A20 B20 ; lower stepper Vrefs while heating
M127
M140 S55 T0
M134 T0 ; stabilize bed temperature
M104 S210 T1
M133 T1 ; stabilize left extruder temperature
G130 X127 Y127 Z40 A127 B127 ; default stepper Vrefs
G92 A0 B0 ; zero extruders
G1 Z0.4 ; position nozzle
M135 T1 ; left tool
G1 X110 Y-70 E30 F300 ; move nozzle
G1 X120 Y-70 Z0.15 F1200 ; slow wipe
G1 X110 Y-70 Z0.5 F1200 ; lift
G92 A0 B0 ; zero extruders
M73 P1 ;@body (notify GPX body has started)
; **** end of start.gcode ****
G1 E-1.0000 F1200
G1 Z0.180 F1200
; process Black 30% Left
; layer 1, Z = 0.180
M135 T1
; tool H0.200 W0.400
; inner perimeter
G1 X99.524 Y-69.250 F4200
G1 E1.0000 F360
G1 X100.078 Y-69.236 E0.0179 F1350
G1 X100.329 Y-69.208 E0.0081
G1 X100.548 Y-69.166 E0.0072
G1 X100.774 Y-69.098 E0.0076
G1 X100.960 Y-69.018 E0.0065
G1 X101.174 Y-68.894 E0.0080
G1 X101.326 Y-68.778 E0.0062
G1 X101.482 Y-68.625 E0.0070
G1 X101.615 Y-68.454 E0.0070
G1 X101.728 Y-68.262 E0.0072
G1 X101.805 Y-68.086 E0.0062
G1 X101.873 Y-67.867 E0.0074
G1 X101.924 Y-67.598 E0.0088
G1 X101.958 Y-67.132 E0.0151
G1 X101.960 Y69.250 E4.4000
G1 X-103.175 Y69.250 E6.6181
G1 X-103.173 Y-67.127 E4.3998
G1 X-103.133 Y-67.647 E0.0168
G1 X-103.087 Y-67.872 E0.0074
G1 X-103.024 Y-68.076 E0.0069
G1 X-102.934 Y-68.279 E0.0072
G1 X-102.821 Y-68.467 E0.0071
G1 X-102.698 Y-68.624 E0.0065
G1 X-102.543 Y-68.776 E0.0070
G1 X-102.367 Y-68.909 E0.0071
G1 X-102.191 Y-69.011 E0.0066
G1 X-101.979 Y-69.101 E0.0074
G1 X-101.774 Y-69.163 E0.0069
G1 X-101.532 Y-69.210 E0.0080
G1 X-101.272 Y-69.237 E0.0084
G1 X-100.989 Y-69.248 E0.0091
G1 X-100.763 Y-69.250 E0.0073
G1 X99.524 Y-69.250 E6.4617
; outer perimeter
G1 X99.529 Y-69.650 F4200
G1 X100.105 Y-69.635 E0.0186 F900
G1 X100.389 Y-69.604 E0.0092
G1 X100.644 Y-69.554 E0.0084
G1 X100.910 Y-69.474 E0.0089
G1 X101.139 Y-69.377 E0.0080
G1 X101.397 Y-69.228 E0.0096
G1 X101.589 Y-69.081 E0.0078
G1 X101.781 Y-68.892 E0.0087
G1 X101.947 Y-68.679 E0.0087
G1 X102.085 Y-68.444 E0.0088
G1 X102.180 Y-68.227 E0.0077
G1 X102.262 Y-67.964 E0.0089
G1 X102.321 Y-67.649 E0.0103
G1 X102.358 Y-67.147 E0.0162
G1 X102.360 Y69.650 E4.4134
G1 X-103.575 Y69.650 E6.6439
G1 X-103.573 Y-67.143 E4.4132
G1 X-103.530 Y-67.702 E0.0181
G1 X-103.476 Y-67.971 E0.0089
G1 X-103.399 Y-68.216 E0.0083
G1 X-103.290 Y-68.464 E0.0087
G1 X-103.151 Y-68.694 E0.0087
G1 X-102.997 Y-68.891 E0.0081
G1 X-102.805 Y-69.080 E0.0087
G1 X-102.588 Y-69.243 E0.0088
G1 X-102.370 Y-69.369 E0.0081
G1 X-102.116 Y-69.478 E0.0089
G1 X-101.871 Y-69.552 E0.0083
G1 X-101.591 Y-69.606 E0.0092
G1 X-101.300 Y-69.637 E0.0094
G1 X-100.999 Y-69.648 E0.0097
G1 X-100.763 Y-69.650 E0.0076
G1 X99.529 Y-69.650 E6.4619
; inner perimeter
G1 X88.497 Y-65.664 F4200
G1 X88.302 Y-66.042 E0.0137 F1350
G1 X88.008 Y-66.408 E0.0152
G1 X87.655 Y-66.695 E0.0147
G1 X87.261 Y-66.898 E0.0143
G1 X86.852 Y-67.016 E0.0137
G1 X86.450 Y-67.053 E0.0130
G1 X86.046 Y-67.015 E0.0131
G1 X85.637 Y-66.897 E0.0137
G1 X85.259 Y-66.702 E0.0137
G1 X84.892 Y-66.408 E0.0152
G1 X84.606 Y-66.055 E0.0147
G1 X84.402 Y-65.661 E0.0143
G1 X84.285 Y-65.252 E0.0137
G1 X84.248 Y-64.850 E0.0130
G1 X84.285 Y-64.446 E0.0131
G1 X84.403 Y-64.036 E0.0137
G1 X84.598 Y-63.658 E0.0137
G1 X84.892 Y-63.292 E0.0152
G1 X85.246 Y-63.005 E0.0147
G1 X85.639 Y-62.802 E0.0143
G1 X86.048 Y-62.684 E0.0137
G1 X86.450 Y-62.647 E0.0130
G1 X86.855 Y-62.685 E0.0131
G1 X87.264 Y-62.803 E0.0137
G1 X87.642 Y-62.998 E0.0137
G1 X88.008 Y-63.292 E0.0152
G1 X88.295 Y-63.645 E0.0147
G1 X88.498 Y-64.039 E0.0143
G1 X88.616 Y-64.448 E0.0137
G1 X88.653 Y-64.850 E0.0130
G1 X88.615 Y-65.254 E0.0131
G1 X88.497 Y-65.664 E0.0137
; outer perimeter
G1 X88.124 Y-65.515 F4200
G1 X87.965 Y-65.823 E0.0112 F900
G1 X87.723 Y-66.124 E0.0125
G1 X87.435 Y-66.358 E0.0120
G1 X87.113 Y-66.525 E0.0117
G1 X86.778 Y-66.621 E0.0112
G1 X86.450 Y-66.651 E0.0106
G1 X86.120 Y-66.620 E0.0107
G1 X85.785 Y-66.524 E0.0113
G1 X85.478 Y-66.365 E0.0112
G1 X85.176 Y-66.123 E0.0125
G1 X84.942 Y-65.835 E0.0120
G1 X84.775 Y-65.512 E0.0117
G1 X84.679 Y-65.178 E0.0112
G1 X84.649 Y-64.850 E0.0106
G1 X84.680 Y-64.520 E0.0107
G1 X84.777 Y-64.185 E0.0113
G1 X84.935 Y-63.877 E0.0112
G1 X85.177 Y-63.576 E0.0125
G1 X85.466 Y-63.342 E0.0120
G1 X85.788 Y-63.175 E0.0117
G1 X86.122 Y-63.079 E0.0112
G1 X86.450 Y-63.049 E0.0106
G1 X86.780 Y-63.080 E0.0107
G1 X87.115 Y-63.176 E0.0113
G1 X87.423 Y-63.335 E0.0112
G1 X87.725 Y-63.577 E0.0125
G1 X87.958 Y-63.865 E0.0120
G1 X88.125 Y-64.188 E0.0117
G1 X88.221 Y-64.522 E0.0112
G1 X88.251 Y-64.850 E0.0106
G1 X88.221 Y-65.180 E0.0107
G1 X88.124 Y-65.515 E0.0113
G1 E-1.0000 F1200
; inner perimeter
G1 X49.917 Y-36.700 F4200
G1 E1.0000 F1200
G1 X34.517 Y-36.700 E0.4968 F1350
G1 X34.517 Y-21.300 E0.4968
G1 X49.917 Y-21.300 E0.4968
G1 X49.917 Y-36.700 E0.4968
; outer perimeter
G1 X49.517 Y-36.300 F4200
G1 X34.917 Y-36.300 E0.4710 F900
G1 X34.917 Y-21.700 E0.4710
G1 X49.517 Y-21.700 E0.4710
G1 X49.517 Y-36.300 E0.4710
; inner perimeter
G1 X49.917 Y-7.700 F4200
G1 X34.517 Y-7.700 E0.4968 F1350
G1 X34.517 Y7.700 E0.4968
G1 X49.917 Y7.700 E0.4968
G1 X49.917 Y-7.700 E0.4968
; outer perimeter
G1 X49.517 Y-7.300 F4200
G1 X34.917 Y-7.300 E0.4710 F900
G1 X34.917 Y7.300 E0.4710
G1 X49.517 Y7.300 E0.4710
G1 X49.517 Y-7.300 E0.4710
; inner perimeter
G1 X49.917 Y21.300 F4200
G1 X34.517 Y21.300 E0.4968 F1350
G1 X34.517 Y36.700 E0.4968
G1 X49.917 Y36.700 E0.4968
G1 X49.917 Y21.300 E0.4968
; outer perimeter
G1 X49.517 Y21.700 F4200
G1 X34.917 Y21.700 E0.4710 F900
G1 X34.917 Y36.300 E0.4710
G1 X49.517 Y36.300 E0.4710
G1 X49.517 Y21.700 E0.4710
; inner perimeter
G1 X11.917 Y21.300 F4200
G1 X-3.483 Y21.300 E0.4968 F1350
G1 X-3.483 Y36.700 E0.4968
G1 X11.917 Y36.700 E0.4968
G1 X11.917 Y21.300 E0.4968
; outer perimeter
G1 X11.517 Y21.700 F4200
G1 X-3.083 Y21.700 E0.4710 F900
G1 X-3.083 Y36.300 E0.4710
G1 X11.517 Y36.300 E0.4710
G1 X11.517 Y21.700 E0.4710
; inner perimeter
G1 X11.917 Y7.700 F4200
G1 X11.917 Y-7.700 E0.4968 F1350
G1 X-3.483 Y-7.700 E0.4968
G1 X-3.483 Y7.700 E0.4968
G1 X11.917 Y7.700 E0.4968
; outer perimeter
G1 X11.517 Y7.300 F4200
G1 X11.517 Y-7.300 E0.4710 F900
G1 X-3.083 Y-7.300 E0.4710
G1 X-3.083 Y7.300 E0.4710
G1 X11.517 Y7.300 E0.4710
; inner perimeter
G1 X11.917 Y-21.300 F4200
G1 X11.917 Y-36.700 E0.4968 F1350
G1 X-3.483 Y-36.700 E0.4968
G1 X-3.483 Y-21.300 E0.4968
G1 X11.917 Y-21.300 E0.4968
; outer perimeter
G1 X11.517 Y-21.700 F4200
G1 X11.517 Y-36.300 E0.4710 F900
G1 X-3.083 Y-36.300 E0.4710
G1 X-3.083 Y-21.700 E0.4710
G1 X11.517 Y-21.700 E0.4710
; inner perimeter
G1 X-26.083 Y-21.300 F4200
G1 X-26.083 Y-36.700 E0.4968 F1350
G1 X-41.483 Y-36.700 E0.4968
G1 X-41.483 Y-21.300 E0.4968
G1 X-26.083 Y-21.300 E0.4968
; outer perimeter
G1 X-26.483 Y-21.700 F4200
G1 X-26.483 Y-36.300 E0.4710 F900
G1 X-41.083 Y-36.300 E0.4710
G1 X-41.083 Y-21.700 E0.4710
G1 X-26.483 Y-21.700 E0.4710
; inner perimeter
G1 X-26.083 Y-7.700 F4200
G1 X-41.483 Y-7.700 E0.4968 F1350
G1 X-41.483 Y7.700 E0.4968
G1 X-26.083 Y7.700 E0.4968
G1 X-26.083 Y-7.700 E0.4968
; outer perimeter
G1 X-26.483 Y-7.300 F4200
G1 X-41.083 Y-7.300 E0.4710 F900
G1 X-41.083 Y7.300 E0.4710
G1 X-26.483 Y7.300 E0.4710
G1 X-26.483 Y-7.300 E0.4710
; inner perimeter
G1 X-26.083 Y21.300 F4200
G1 X-41.483 Y21.300 E0.4968 F1350
G1 X-41.483 Y36.700 E0.4968
G1 X-26.083 Y36.700 E0.4968
G1 X-26.083 Y21.300 E0.4968
; outer perimeter
G1 X-26.483 Y21.700 F4200
G1 X-41.083 Y21.700 E0.4710 F900
G1 X-41.083 Y36.300 E0.4710
G1 X-26.483 Y36.300 E0.4710
G1 X-26.483 Y21.700 E0.4710
; inner perimeter
G1 X-64.083 Y7.700 F4200
G1 X-64.083 Y-7.700 E0.4968 F1350
G1 X-79.483 Y-7.700 E0.4968
G1 X-79.483 Y7.700 E0.4968
G1 X-64.083 Y7.700 E0.4968
; outer perimeter
G1 X-64.483 Y7.300 F4200
G1 X-64.483 Y-7.300 E0.4710 F900
G1 X-79.083 Y-7.300 E0.4710
G1 X-79.083 Y7.300 E0.4710
G1 X-64.483 Y7.300 E0.4710
; inner perimeter
G1 X-96.869 Y53.005 F4200
G1 X-97.263 Y52.802 E0.0143 F1350
G1 X-97.672 Y52.684 E0.0137
G1 X-98.074 Y52.647 E0.0130
G1 X-98.478 Y52.685 E0.0131
G1 X-98.887 Y52.803 E0.0137
G1 X-99.265 Y52.998 E0.0137
G1 X-99.632 Y53.292 E0.0152
G1 X-99.918 Y53.645 E0.0147
G1 X-100.122 Y54.039 E0.0143
G1 X-100.239 Y54.448 E0.0137
G1 X-100.276 Y54.850 E0.0130
G1 X-100.239 Y55.254 E0.0131
G1 X-100.120 Y55.667 E0.0139
G1 X-99.904 Y56.074 E0.0149
G1 X-99.629 Y56.410 E0.0140
G1 X-99.278 Y56.695 E0.0146
G1 X-98.884 Y56.898 E0.0143
G1 X-98.475 Y57.016 E0.0137
G1 X-98.073 Y57.053 E0.0130
G1 X-97.669 Y57.015 E0.0131
G1 X-97.260 Y56.897 E0.0137
G1 X-96.882 Y56.702 E0.0137
G1 X-96.515 Y56.408 E0.0152
G1 X-96.229 Y56.055 E0.0147
G1 X-96.025 Y55.661 E0.0143
G1 X-95.908 Y55.252 E0.0137
G1 X-95.871 Y54.850 E0.0130
G1 X-95.908 Y54.446 E0.0131
G1 X-96.026 Y54.036 E0.0137
G1 X-96.221 Y53.658 E0.0137
G1 X-96.516 Y53.292 E0.0152
G1 X-96.869 Y53.005 E0.0147
; outer perimeter
G1 X-97.089 Y53.342 F4200
G1 X-97.411 Y53.175 E0.0117 F900
G1 X-97.746 Y53.079 E0.0112
